; generated by PrusaSlicer 2.6.0+MacOS-arm64 on 2023-07-29 at 20:07:48 UTC


;
;

;
;
; 

; external perimeters extrusion width = 0.45mm
; perimeters extrusion width = 0.45mm
; infill extrusion width = 0.45mm
; solid infill extrusion width = 0.45mm
; top infill extrusion width = 0.40mm
; first layer extrusion width = 0.42mm

M73 P0 R10
M201 X2500 Y2500 Z400 E5000 ; sets maximum accelerations, mm/sec^2
M203 X180 Y180 Z12 E80 ; sets maximum feedrates, mm / sec
M204 P2000 R1250 T2500 ; sets acceleration (P, T) and retract acceleration (R), mm/sec^2
M205 X8.00 Y8.00 Z2.00 E10.00 ; sets the jerk limits, mm/sec
M205 S0 T0 ; sets the minimum extruding and travel feed rate, mm/sec
;TYPE:Custom
M862.3 P "MINI" ; printer model check
G90 ; use absolute coordinates
M83 ; extruder relative mode
M104 S170 ; set extruder temp for bed leveling
M140 S100 ; set bed temp
M109 R170 ; wait for bed leveling temp
M190 S100 ; wait for bed temp
M204 T1250 ; set travel acceleration
G28 ; home all without mesh bed level
G29 ; mesh bed leveling 
M204 T2500 ; restore travel acceleration
M104 S255 ; set extruder temp
G92 E0
G1 Y-2 X179 F2400
G1 Z3 F720
M109 S255 ; wait for extruder temp

; intro line
G1 X170 F1000
G1 Z0.2 F720
G1 X110 E8 F900
G1 X40 E10 F700
G92 E0

M221 S95 ; set flow
G21 ; set units to millimeters
G90 ; use absolute coordinates
M83 ; use relative distances for extrusion
M900 K0.2 ; Filament gcode
M107
;LAYER_CHANGE
;Z:0.2
;HEIGHT:0.2
;BEFORE_LAYER_CHANGE
G92 E0.0
;0.2


M73 P1 R10
G1 E-2.7 F4200
M73 P2 R10
G1 Z.2 F720
;AFTER_LAYER_CHANGE
;0.2
; printing object BagClip-weaker.stl id:0 copy 0
G1 Z.4
G1 X89.683 Y83.389 F9000
G1 Z.2 F720
G1 E2.7 F2400
M204 P600
;TYPE:Perimeter
;WIDTH:0.419999
G1 F1200
G1 X89.475 Y83.436 E.00669
G1 X89.149 Y83.569 E.01104
G1 X88.482 Y84.008 E.02504
G1 X87.981 Y84.528 E.02264
G1 X87.789 Y84.825 E.01109
;WIDTH:0.469746
G1 X87.612 Y85.097 E.01152
;WIDTH:0.519492
G1 X87.434 Y85.369 E.01288
G1 X87.437 Y85.219 E.00595
;WIDTH:0.482
G1 X87.466 Y84.864 E.013
;WIDTH:0.451
G1 X87.495 Y84.51 E.01205
;WIDTH:0.419999
G1 X87.533 Y83.977 E.01675
G1 X87.528 Y83.136 E.02637
G1 X87.493 Y82.571 E.01775
G1 X87.402 Y81.874 E.02204
;WIDTH:0.468296
G1 X87.391 Y81.7 E.00617
;WIDTH:0.516592
G1 X87.381 Y81.527 E.00683
;WIDTH:0.564888
G1 X87.371 Y81.353 E.00756
;WIDTH:0.613184
G1 X87.361 Y81.18 E.00822
G1 X87.392 Y81.216 E.00225
;WIDTH:0.590119
G1 X87.521 Y81.397 E.01011
;WIDTH:0.547589
G1 X87.649 Y81.578 E.0093
;WIDTH:0.505059
G1 X87.777 Y81.759 E.00852
;WIDTH:0.462529
G1 X87.905 Y81.94 E.00773
;WIDTH:0.419999
G1 X88.409 Y82.5 E.02362
G1 X89.213 Y83.074 E.03097
G1 X89.66 Y83.171 E.01434
G1 X89.731 Y83.269 E.00379
G1 X89.705 Y83.333 E.00217
M204 P1000
G1 E-2.7 F4200
G1 Z.4 F720
G1 X87.088 Y80.209 F9000
G1 Z.2 F720
G1 E2.7 F2400
M204 P600
;WIDTH:0.629332
G1 F1200
G1 X87.04 Y80.135 E.0043
;WIDTH:0.587466
G1 X86.992 Y80.061 E.00399
;WIDTH:0.545599
G1 X86.944 Y79.988 E.00365
;WIDTH:0.503733
G1 X86.896 Y79.914 E.00338
;WIDTH:0.461866
G1 X86.848 Y79.84 E.00307
;WIDTH:0.419999
G1 X86.574 Y79.192 E.02206
G1 X86.213 Y78.491 E.02472
G1 X85.896 Y77.959 E.01942
G1 X84.987 Y76.671 E.04943
G1 X84.938 Y76.432 E.00765
G1 X84.975 Y76.219 E.00678
G1 X85.082 Y76.031 E.00678
G1 X85.246 Y75.891 E.00676
G1 X85.449 Y75.816 E.00679
G1 X85.665 Y75.815 E.00677
G1 X85.869 Y75.888 E.00679
G1 X86.052 Y76.044 E.00754
G1 X86.436 Y76.495 E.01857
G1 X86.767 Y76.953 E.01772
G1 X87.086 Y77.441 E.01828
G1 X87.476 Y78.13 E.02482
G1 X87.3 Y78.582 E.01521
G1 X87.165 Y79.323 E.02362
G1 X87.171 Y79.766 E.01389
;WIDTH:0.461866
G1 X87.155 Y79.855 E.00315
;WIDTH:0.503733
G1 X87.138 Y79.944 E.00347
;WIDTH:0.545599
G1 X87.121 Y80.032 E.00375
;WIDTH:0.587466
G1 X87.104 Y80.121 E.0041
;WIDTH:0.629332
G1 X87.099 Y80.15 E.00143
M204 P1000
G1 E-2.7 F4200
G1 Z.4 F720
G1 X92.1 Y88.167 F9000
G1 Z.2 F720
G1 E2.7 F2400
M204 P600
;WIDTH:0.419999
G1 F1200
G1 X92.065 Y88.098 E.00243
G1 X91.813 Y87.905 E.00995
G1 X91.488 Y87.881 E.01022
G1 X90.86 Y88.019 E.02016
G1 X90.501 Y87.986 E.0113
G1 X90.161 Y87.85 E.01148
G1 X89.873 Y87.624 E.01148
G1 X89.661 Y87.325 E.01149
G1 X89.543 Y86.978 E.01149
G1 X89.528 Y86.612 E.01149
G1 X89.617 Y86.257 E.01148
G1 X89.803 Y85.942 E.01147
G1 X90.071 Y85.692 E.01149
G1 X90.235 Y85.611 E.00574
G1 X90.671 Y85.456 E.01451
G1 X90.891 Y85.346 E.00771
G1 X91.479 Y84.83 E.02453
G1 X91.863 Y84.178 E.02373
;WIDTH:0.448683
G1 X92.025 Y83.619 E.01964
;WIDTH:0.449381
G1 X92.043 Y83.439 E.00611
;WIDTH:0.47832
G1 X92.025 Y82.857 E.02108
G1 X91.946 Y82.638 E.00843
;WIDTH:0.432711
G1 X91.659 Y81.992 E.02291
;WIDTH:0.419999
G1 X91.196 Y81.448 E.0224
G1 X90.803 Y81.178 E.01495
G1 X90.298 Y80.99 E.0169
M73 P3 R10
G1 X89.97 Y80.754 E.01267
G1 X89.716 Y80.437 E.01274
G1 X89.553 Y80.066 E.01271
G1 X89.494 Y79.664 E.01274
G1 X89.543 Y79.261 E.01273
G1 X89.696 Y78.885 E.01273
G1 X89.943 Y78.563 E.01272
G1 X90.266 Y78.317 E.01273
G1 X90.642 Y78.164 E.01273
G1 X91.045 Y78.116 E.01273
G1 X91.608 Y78.231 E.01802
G1 X92.054 Y78.356 E.01452
G1 X92.337 Y78.28 E.00919
G1 X92.507 Y78.128 E.00715
G1 X93.041 Y77.246 E.03233
G1 X93.474 Y76.619 E.02389
G1 X93.88 Y76.101 E.02064
G1 X94.127 Y75.879 E.01041
G1 X94.328 Y75.807 E.00669
G1 X94.55 Y75.816 E.00697
G1 X94.753 Y75.891 E.00679
G1 X94.918 Y76.031 E.00678
G1 X95.025 Y76.219 E.00678
G1 X95.062 Y76.432 E.00678
G1 X95.023 Y76.645 E.00679
G1 X94.88 Y76.89 E.00889
G1 X94.48 Y77.411 E.02059
G1 X94.035 Y78.073 E.02501
G1 X93.676 Y78.695 E.02252
G1 X93.41 Y79.227 E.01865
G1 X93.138 Y79.875 E.02203
G1 X92.896 Y80.595 E.02382
G1 X92.728 Y81.221 E.02032
G1 X92.575 Y82.044 E.02625
;WIDTH:0.44916
G1 X92.517 Y82.451 E.01389
;WIDTH:0.47832
G1 X92.459 Y82.858 E.01488
G1 X92.45 Y83.467 E.02205
;WIDTH:0.448861
G1 X92.468 Y84.015 E.01851
;WIDTH:0.419999
G1 X92.522 Y84.717 E.02208
G1 X92.623 Y85.413 E.02205
G1 X92.791 Y86.171 E.02434
G1 X92.966 Y86.778 E.01981
G1 X93.296 Y87.646 E.02912
G1 X93.614 Y88.323 E.02345
G1 X93.865 Y88.787 E.01654
G1 X94.183 Y89.306 E.01908
G1 X94.591 Y89.88 E.02208
G1 X95.036 Y90.424 E.02204
G1 X95.867 Y91.314 E.03818
G1 X96.244 Y91.783 E.01887
G1 X96.56 Y92.24 E.01742
G1 X96.842 Y92.719 E.01743
G1 X97.089 Y93.216 E.0174
G1 X97.302 Y93.734 E.01756
G1 X97.474 Y94.258 E.01729
G1 X97.61 Y94.797 E.01743
G1 X97.707 Y95.344 E.01742
G1 X97.765 Y95.896 E.0174
G1 X97.783 Y96.451 E.01741
G1 X97.764 Y96.984 E.01672
G1 X97.705 Y97.536 E.01741
G1 X97.606 Y98.083 E.01743
G1 X97.469 Y98.622 E.01744
G1 X97.293 Y99.149 E.01742
G1 X97.08 Y99.662 E.01742
G1 X96.832 Y100.159 E.01742
G1 X96.548 Y100.637 E.01743
G1 X96.231 Y101.093 E.01741
G1 X95.883 Y101.526 E.01742
G1 X95.504 Y101.933 E.01744
G1 X95.097 Y102.311 E.01742
G1 X94.665 Y102.66 E.01741
G1 X94.208 Y102.977 E.01744
G1 X93.73 Y103.26 E.01742
G1 X93.234 Y103.509 E.0174
G1 X92.72 Y103.722 E.01745
G1 X92.193 Y103.897 E.01741
G1 X91.655 Y104.035 E.01741
G1 X91.108 Y104.133 E.01742
G1 X90.555 Y104.193 E.01744
G1 X90 Y104.212 E.01741
G1 X89.445 Y104.193 E.01741
G1 X88.892 Y104.133 E.01744
G1 X88.345 Y104.035 E.01742
G1 X87.807 Y103.897 E.01741
G1 X87.28 Y103.722 E.01741
G1 X86.766 Y103.509 E.01745
G1 X86.27 Y103.26 E.0174
G1 X85.792 Y102.977 E.01742
G1 X85.335 Y102.66 E.01744
G1 X84.903 Y102.311 E.01741
G1 X84.496 Y101.933 E.01742
G1 X84.117 Y101.526 E.01744
G1 X83.769 Y101.093 E.01742
G1 X83.452 Y100.637 E.01741
G1 X83.168 Y100.159 E.01743
G1 X82.918 Y99.659 E.01753
G1 X82.707 Y99.149 E.01731
G1 X82.531 Y98.622 E.01742
G1 X82.394 Y98.083 E.01744
G1 X82.295 Y97.536 E.01743
G1 X82.236 Y96.984 E.01741
G1 X82.216 Y96.429 E.01741
G1 X82.236 Y95.873 E.01744
G1 X82.295 Y95.321 E.01741
G1 X82.394 Y94.774 E.01743
G1 X82.531 Y94.236 E.01741
G1 X82.707 Y93.708 E.01745
G1 X82.92 Y93.195 E.01742
G1 X83.168 Y92.698 E.01742
G1 X83.452 Y92.22 E.01743
G1 X83.769 Y91.764 E.01741
G1 X84.117 Y91.331 E.01742
G1 X84.888 Y90.506 E.0354
G1 X85.249 Y90.076 E.0176
G1 X85.586 Y89.633 E.01745
G1 X85.9 Y89.173 E.01746
G1 X86.203 Y88.673 E.01833
G1 X86.589 Y87.91 E.02681
G1 X86.809 Y87.404 E.0173
G1 X87.046 Y86.741 E.02208
;WIDTH:0.468442
G1 X87.233 Y86.175 E.02109
G1 X87.232 Y86.208 E.00117
;WIDTH:0.464443
G1 X87.229 Y87.065 E.03004
;WIDTH:0.419999
G1 X87.407 Y87.903 E.02686
G1 X87.705 Y88.551 E.02236
G1 X87.317 Y89.31 E.02673
G1 X86.99 Y89.854 E.0199
G1 X86.634 Y90.38 E.01991
G1 X86.25 Y90.886 E.01992
G1 X85.838 Y91.372 E.01998
G1 X85.004 Y92.269 E.0384
G1 X84.661 Y92.72 E.01777
G1 X84.358 Y93.199 E.01777
G1 X84.096 Y93.707 E.01792
G1 X83.883 Y94.228 E.01765
G1 X83.714 Y94.77 E.0178
G1 X83.593 Y95.324 E.01778
G1 X83.519 Y95.947 E.01967
G1 X83.499 Y96.453 E.01588
G1 X83.526 Y97.02 E.0178
G1 X83.602 Y97.582 E.01778
G1 X83.727 Y98.135 E.01778
G1 X83.901 Y98.679 E.01791
G1 X84.118 Y99.198 E.01764
G1 X84.382 Y99.7 E.01778
G1 X84.689 Y100.178 E.01781
G1 X85.077 Y100.671 E.01967
G1 X85.421 Y101.043 E.01589
G1 X85.84 Y101.425 E.01778
G1 X86.291 Y101.768 E.01777
G1 X86.771 Y102.071 E.0178
G1 X87.279 Y102.332 E.01791
G1 X87.8 Y102.546 E.01766
G1 X88.341 Y102.714 E.01776
G1 X88.895 Y102.835 E.01778
G1 X89.519 Y102.91 E.01971
G1 X90.025 Y102.93 E.01588
G1 X90.591 Y102.903 E.01777
G1 X91.153 Y102.827 E.01778
G1 X91.706 Y102.702 E.01778
G1 X92.25 Y102.528 E.01791
G1 X92.77 Y102.31 E.01768
G1 X93.272 Y102.046 E.01778
G1 X93.749 Y101.74 E.01777
G1 X94.242 Y101.352 E.01967
G1 X94.614 Y101.008 E.01589
G1 X94.996 Y100.588 E.0178
G1 X95.339 Y100.137 E.01777
G1 X95.642 Y99.658 E.01777
G1 X95.904 Y99.15 E.01792
G1 X96.117 Y98.629 E.01765
G1 X96.286 Y98.087 E.0178
G1 X96.407 Y97.533 E.01778
G1 X96.481 Y96.91 E.01967
G1 X96.501 Y96.404 E.01588
G1 X96.474 Y95.837 E.0178
G1 X96.398 Y95.275 E.01778
G1 X96.273 Y94.722 E.01778
G1 X96.099 Y94.178 E.01791
G1 X95.882 Y93.659 E.01764
G1 X95.618 Y93.157 E.01778
G1 X95.311 Y92.68 E.01779
G1 X94.96 Y92.227 E.01797
G1 X94.193 Y91.405 E.03525
G1 X93.779 Y90.921 E.01997
G1 X93.411 Y90.442 E.01894
G1 X93.069 Y89.945 E.01892
G1 X92.668 Y89.277 E.02443
G1 X92.127 Y88.221 E.0372
M204 P1000
G1 X91.779 Y88.351 F9000
M204 P600
;TYPE:External perimeter
G1 F1200
G1 X91.677 Y88.257 E.00435
G1 X91.569 Y88.249 E.0034
G1 X90.884 Y88.399 E.02199
G1 X90.413 Y88.356 E.01483
G1 X89.971 Y88.18 E.01492
G1 X89.597 Y87.886 E.01492
G1 X89.322 Y87.499 E.01489
G1 X89.168 Y87.049 E.01491
G1 X89.149 Y86.573 E.01494
G1 X89.264 Y86.112 E.0149
G1 X89.506 Y85.703 E.0149
G1 X89.855 Y85.379 E.01493
G1 X90.127 Y85.244 E.00952
G1 X90.653 Y85.054 E.01754
G1 X91.161 Y84.627 E.02081
G1 X91.499 Y84.083 E.02008
G1 X91.646 Y83.52 E.01824
G1 X91.641 Y83.276 E.00765
G1 X91.588 Y82.777 E.01573
G1 X91.366 Y82.23 E.01851
G1 X91.025 Y81.81 E.01696
G1 X90.67 Y81.53 E.01418
G1 X90.118 Y81.326 E.01845
G1 X89.708 Y81.029 E.01587
G1 X89.39 Y80.635 E.01588
G1 X89.187 Y80.17 E.01591
G1 X89.114 Y79.669 E.01587
G1 X89.175 Y79.166 E.01589
G1 X89.366 Y78.696 E.01591
G1 X89.674 Y78.294 E.01588
G1 X90.077 Y77.986 E.0159
M73 P4 R10
G1 X90.547 Y77.796 E.0159
G1 X91.05 Y77.736 E.01588
G1 X91.558 Y77.811 E.0161
G1 X91.973 Y77.962 E.01385
G1 X92.148 Y77.953 E.00549
G1 X92.313 Y77.721 E.00893
G1 X92.726 Y77.039 E.025
G1 X93.169 Y76.397 E.02446
G1 X93.586 Y75.864 E.02122
G1 X93.937 Y75.547 E.01483
G1 X94.357 Y75.419 E.01377
G1 X94.792 Y75.477 E.01376
G1 X95.096 Y75.655 E.01105
G1 X95.321 Y75.926 E.01104
G1 X95.44 Y76.258 E.01106
G1 X95.438 Y76.61 E.01104
M73 P4 R9
G1 X95.314 Y76.945 E.0112
G1 X94.791 Y77.624 E.02687
G1 X94.359 Y78.265 E.02424
G1 X94.013 Y78.865 E.02172
G1 X93.758 Y79.373 E.01782
G1 X93.495 Y79.998 E.02126
G1 X93.26 Y80.693 E.023
G1 X93.098 Y81.294 E.01952
G1 X92.949 Y82.092 E.02545
G1 X92.865 Y82.883 E.02494
G1 X92.841 Y83.465 E.01826
G1 X92.844 Y83.987 E.01637
G1 X92.895 Y84.664 E.02129
G1 X92.992 Y85.335 E.02126
G1 X93.154 Y86.068 E.02354
G1 X93.32 Y86.65 E.01898
G1 X93.641 Y87.495 E.02834
G1 X93.948 Y88.149 E.02265
G1 X94.186 Y88.59 E.01571
G1 X94.491 Y89.088 E.01831
G1 X94.883 Y89.642 E.02128
G1 X95.312 Y90.167 E.02126
G1 X96.221 Y91.15 E.04198
G1 X96.554 Y91.568 E.01676
G1 X96.884 Y92.048 E.01826
G1 X97.179 Y92.55 E.01826
G1 X97.438 Y93.072 E.01827
G1 X97.659 Y93.615 E.01838
G1 X97.84 Y94.165 E.01815
G1 X97.981 Y94.73 E.01826
G1 X98.082 Y95.303 E.01824
G1 X98.142 Y95.883 E.01828
G1 X98.16 Y96.465 E.01826
G1 X98.14 Y97.011 E.01713
G1 X98.078 Y97.59 E.01826
G1 X97.975 Y98.163 E.01825
G1 X97.831 Y98.728 E.01828
G1 X97.647 Y99.281 E.01827
G1 X97.424 Y99.819 E.01826
G1 X97.163 Y100.34 E.01827
G1 X96.866 Y100.841 E.01826
G1 X96.533 Y101.319 E.01827
G1 X96.168 Y101.773 E.01826
G1 X95.771 Y102.199 E.01826
G1 X95.344 Y102.596 E.01828
G1 X94.891 Y102.962 E.01826
G1 X94.412 Y103.294 E.01827
G1 X93.911 Y103.591 E.01826
G1 X93.39 Y103.852 E.01827
G1 X92.852 Y104.075 E.01826
G1 X92.299 Y104.259 E.01827
G1 X91.735 Y104.403 E.01825
G1 X91.161 Y104.507 E.01829
G1 X90.582 Y104.569 E.01826
G1 X90 Y104.59 E.01826
G1 X89.418 Y104.569 E.01826
G1 X88.839 Y104.507 E.01826
G1 X88.265 Y104.403 E.01829
G1 X87.701 Y104.259 E.01825
G1 X87.148 Y104.075 E.01827
G1 X86.61 Y103.852 E.01826
G1 X86.089 Y103.591 E.01827
G1 X85.588 Y103.294 E.01826
G1 X85.109 Y102.962 E.01827
G1 X84.656 Y102.596 E.01826
G1 X84.229 Y102.199 E.01828
G1 X83.832 Y101.773 E.01826
G1 X83.467 Y101.319 E.01826
G1 X83.134 Y100.841 E.01827
G1 X82.837 Y100.34 E.01826
G1 X82.575 Y99.816 E.01837
G1 X82.353 Y99.281 E.01816
G1 X82.169 Y98.728 E.01827
G1 X82.025 Y98.163 E.01828
G1 X81.922 Y97.59 E.01825
G1 X81.86 Y97.011 E.01826
G1 X81.839 Y96.429 E.01826
G1 X81.86 Y95.846 E.01829
G1 X81.922 Y95.267 E.01826
G1 X82.025 Y94.694 E.01825
G1 X82.169 Y94.129 E.01828
G1 X82.353 Y93.577 E.01824
G1 X82.576 Y93.038 E.01829
G1 X82.837 Y92.517 E.01827
G1 X83.134 Y92.016 E.01826
G1 X83.467 Y91.538 E.01827
G1 X83.832 Y91.084 E.01826
G1 X84.612 Y90.248 E.03585
G1 X84.957 Y89.838 E.0168
G1 X85.278 Y89.415 E.01665
G1 X85.578 Y88.977 E.01665
G1 X85.869 Y88.499 E.01755
G1 X86.243 Y87.759 E.026
G1 X86.454 Y87.276 E.01653
G1 X86.684 Y86.638 E.02126
G1 X86.869 Y85.986 E.02125
G1 X87.033 Y85.161 E.02637
G1 X87.119 Y84.482 E.02146
G1 X87.156 Y83.975 E.01594
G1 X87.152 Y83.159 E.02559
G1 X87.119 Y82.62 E.01693
G1 X87.032 Y81.947 E.02128
G1 X86.877 Y81.203 E.02383
G1 X86.681 Y80.509 E.02261
G1 X86.501 Y79.986 E.01734
G1 X86.237 Y79.362 E.02124
G1 X85.889 Y78.684 E.02389
G1 X85.586 Y78.173 E.01863
G1 X85.203 Y77.616 E.02119
G1 X84.686 Y76.945 E.02656
G1 X84.562 Y76.61 E.0112
G1 X84.56 Y76.258 E.01104
G1 X84.679 Y75.926 E.01106
G1 X84.904 Y75.655 E.01104
G1 X85.208 Y75.477 E.01105
G1 X85.555 Y75.414 E.01106
G1 X85.902 Y75.473 E.01104
G1 X86.209 Y75.648 E.01108
G1 X86.717 Y76.24 E.02446
G1 X87.069 Y76.725 E.01879
G1 X87.385 Y77.208 E.0181
G1 X87.892 Y78.113 E.03253
G1 X87.671 Y78.65 E.01821
G1 X87.533 Y79.434 E.02496
G1 X87.569 Y80.186 E.02361
G1 X87.797 Y80.993 E.02629
G1 X88.186 Y81.688 E.02497
G1 X88.722 Y82.277 E.02497
G1 X89.377 Y82.732 E.02501
G1 X89.685 Y82.794 E.00985
G1 X89.887 Y82.87 E.00677
G1 X90.031 Y83.017 E.00645
G1 X90.105 Y83.22 E.00677
G1 X90.087 Y83.433 E.0067
G1 X89.983 Y83.619 E.00668
G1 X89.81 Y83.745 E.00671
G1 X89.51 Y83.811 E.00963
G1 X89.35 Y83.888 E.00557
G1 X88.753 Y84.27 E.02222
G1 X88.252 Y84.79 E.02264
G1 X87.828 Y85.543 E.0271
G1 X87.631 Y86.227 E.02232
G1 X87.599 Y86.994 E.02407
G1 X87.736 Y87.703 E.02264
G1 X88.133 Y88.524 E.02859
G1 X87.952 Y88.916 E.01354
G1 X87.646 Y89.495 E.02053
G1 X87.308 Y90.057 E.02056
G1 X86.941 Y90.6 E.02055
G1 X86.544 Y91.122 E.02056
G1 X86.12 Y91.623 E.02058
G1 X85.303 Y92.498 E.03754
G1 X84.979 Y92.923 E.01676
G1 X84.692 Y93.374 E.01676
G1 X84.444 Y93.851 E.01686
G1 X84.242 Y94.342 E.01665
G1 X84.082 Y94.851 E.01673
G1 X83.967 Y95.373 E.01676
G1 X83.898 Y95.903 E.01676
G1 X83.876 Y96.437 E.01676
G1 X83.9 Y96.971 E.01676
G1 X83.97 Y97.5 E.01673
G1 X84.086 Y98.022 E.01677
G1 X84.249 Y98.535 E.01688
G1 X84.453 Y99.024 E.01661
G1 X84.7 Y99.498 E.01676
G1 X84.988 Y99.948 E.01675
G1 X85.314 Y100.372 E.01677
G1 X85.675 Y100.765 E.01673
G1 X86.07 Y101.125 E.01676
G1 X86.494 Y101.45 E.01675
G1 X86.945 Y101.736 E.01674
G1 X87.423 Y101.984 E.01688
G1 X87.913 Y102.186 E.01662
G1 X88.423 Y102.346 E.01676
G1 X88.945 Y102.461 E.01676
G1 X89.474 Y102.53 E.01673
