; generated by PrusaSlicer 2.6.0+MacOS-arm64 on 2023-07-31 at 22:41:25 UTC


;
;
; 

; external perimeters extrusion width = 0.45mm
; perimeters extrusion width = 0.45mm
; infill extrusion width = 0.45mm
; solid infill extrusion width = 0.45mm
; top infill extrusion width = 0.40mm
; first layer extrusion width = 0.42mm

M73 P0 R28
M73 Q0 S28
M201 X1000 Y1000 Z200 E5000 ; sets maximum accelerations, mm/sec^2
M203 X200 Y200 Z12 E120 ; sets maximum feedrates, mm / sec
M204 S1250 T1250 ; sets acceleration (S) and retract acceleration (R), mm/sec^2
M205 X8.00 Y8.00 Z0.40 E4.50 ; sets the jerk limits, mm/sec
M205 S0 T0 ; sets the minimum extruding and travel feed rate, mm/sec
;TYPE:Custom
M862.3 P "MK3S" ; printer model check
M862.1 P0.4 ; nozzle diameter check
M115 U3.12.2 ; tell printer latest fw version
G90 ; use absolute coordinates
M83 ; extruder relative mode
M104 S215 ; set extruder temp
M140 S60 ; set bed temp
M190 S60 ; wait for bed temp
M109 S215 ; wait for extruder temp
G28 W ; home all without mesh bed level
G80 ; mesh bed leveling

G1 Z0.2 F720
G1 Y-3 F1000 ; go outside print area
G92 E0
G1 X60 E9 F1000 ; intro line
G1 X100 E12.5 F1000 ; intro line

G92 E0
M221 S95

; Don't change E values below. Excessive value can damage the printer.
M907 E430 ; set extruder motor current
G21 ; set units to millimeters
G90 ; use absolute coordinates
M83 ; use relative distances for extrusion
M900 K0.05 ; Filament gcode LA 1.5
M900 K30 ; Filament gcode LA 1.0
M107
;LAYER_CHANGE
;Z:0.2
;HEIGHT:0.2
;BEFORE_LAYER_CHANGE
G92 E0.0
;0.2


G1 E-.8 F2100
G1 Z.4 F720
;AFTER_LAYER_CHANGE
;0.2
G1 X81.911 Y75.281 F10800
G1 Z.2 F720
G1 E.8 F2100
M204 S800
;TYPE:Skirt/Brim
;WIDTH:0.42
G1 F1200
G1 X82.617 Y74.681 E.02905
G1 X83.685 Y74.176 E.03704
G1 X84.852 Y73.999 E.03701
G1 X93.112 Y74.01 E.25899
G1 X94.273 Y74.258 E.03722
G1 X97.622 Y75.528 E.1123
G1 X98.808 Y76.398 E.04612
G1 X99.399 Y78.103 E.05658
G1 X99.399 Y91.146 E.40895
G1 X99.301 Y96.687 E.17376
G1 X99.102 Y98.167 E.04682
G1 X98.869 Y99.082 E.0296
G1 X98.416 Y100.297 E.04066
G1 X97.606 Y101.78 E.05298
G1 X96.325 Y103.37 E.06402
G1 X95.634 Y104.013 E.0296
G1 X94.595 Y104.79 E.04068
G1 X93.098 Y105.606 E.05346
G1 X91.897 Y106.053 E.04018
G1 X90.983 Y106.287 E.02958
G1 X88.952 Y106.505 E.06405
G1 X88.009 Y106.471 E.02959
G1 X86.725 Y106.287 E.04067
G1 X85.288 Y105.88 E.04683
G1 X83.924 Y105.272 E.04682
G1 X82.66 Y104.476 E.04684
G1 X81.523 Y103.509 E.0468
G1 X80.534 Y102.39 E.04682
G1 X79.715 Y101.141 E.04683
G1 X79.082 Y99.788 E.04684
G1 X78.606 Y98.167 E.05297
G1 X78.407 Y96.687 E.04682
G1 X78.48 Y94.646 E.06404
G1 X80.863 Y77.444 E.54451
G1 X81.239 Y76.251 E.03922
G1 X81.877 Y75.33 E.03513
M204 S1000
G1 X82.179 Y75.546 F10800
M204 S800
G1 F1200
G1 X82.835 Y74.989 E.02698
G1 X83.396 Y74.684 E.02002
G1 X84.001 Y74.481 E.02001
G1 X84.852 Y74.376 E.02688
G1 X93.077 Y74.386 E.25789
G1 X94.139 Y74.61 E.03403
G1 X97.489 Y75.881 E.11234
G1 X98.572 Y76.711 E.04278
G1 X99.022 Y78.103 E.04587
G1 X99.022 Y91.141 E.4088
G1 X98.924 Y96.674 E.17351
G1 X98.731 Y98.1 E.04512
G1 X98.511 Y98.962 E.02789
G1 X98.067 Y100.153 E.03985
G1 X97.296 Y101.565 E.05044
G1 X96.049 Y103.113 E.06233
G1 X95.397 Y103.719 E.02791
G1 X94.38 Y104.481 E.03985
G1 X92.954 Y105.258 E.05092
G1 X91.778 Y105.696 E.03935
G1 X90.916 Y105.916 E.02789
G1 X88.939 Y106.128 E.06234
G1 X88.05 Y106.096 E.02789
G1 X86.792 Y105.916 E.03985
G1 X85.408 Y105.522 E.04512
G1 X84.093 Y104.935 E.04515
G1 X82.875 Y104.167 E.04515
G1 X81.779 Y103.233 E.04515
G1 X80.828 Y102.153 E.04512
G1 X80.039 Y100.948 E.04516
G1 X79.43 Y99.644 E.04513
G1 X78.977 Y98.1 E.05045
G1 X78.783 Y96.658 E.04562
G1 X78.855 Y94.686 E.06187
G1 X81.237 Y77.496 E.54413
G1 X81.582 Y76.409 E.03576
G1 X82.145 Y75.595 E.03103
M204 S1000
; printing object BagClip-weaker.stl id:0 copy 0
;WIPE_START
G1 F8640
G1 X82.835 Y74.989 E-.21205
G1 X83.396 Y74.684 E-.14744
G1 X84.001 Y74.481 E-.14735
G1 X84.852 Y74.376 E-.19799
G1 X85.264 Y74.377 E-.09517
;WIPE_END
G1 Z.6 F720
G1 X86.233 Y81.443 F10800
G1 Z.2 F720
G1 E.8 F2100
M204 S800
;TYPE:Perimeter
;WIDTH:0.450742
G1 F1200
G1 X86.085 Y81.066 E.01373
;WIDTH:0.419999
G1 X85.841 Y80.491 E.01958
G1 X85.519 Y79.864 E.0221
G1 X85.226 Y79.372 E.01795
G1 X84.415 Y78.228 E.04397
G1 X84.377 Y77.956 E.00861
G1 X84.488 Y77.731 E.00787
G1 X84.689 Y77.58 E.00788
G1 X84.94 Y77.564 E.00789
G1 X85.172 Y77.663 E.00791
G1 X85.571 Y78.128 E.01921
G1 X85.872 Y78.543 E.01607
G1 X86.153 Y78.973 E.01611
G1 X86.491 Y79.582 E.02184
G1 X86.347 Y79.96 E.01268
G1 X86.216 Y80.76 E.02542
;WIDTH:0.450742
G1 X86.232 Y81.384 E.02117
M204 S1000
;WIPE_START
G1 F8640
G1 X86.085 Y81.066 E-.08089
G1 X85.841 Y80.491 E-.14423
G1 X85.519 Y79.864 E-.16275
G1 X85.226 Y79.372 E-.13222
G1 X84.525 Y78.383 E-.27991
;WIPE_END
M73 Q1 S28
G1 Z.6 F720
G1 X87.626 Y84.217 F10800
G1 Z.2 F720
M73 P1 R28
G1 E.8 F2100
M204 S800
;WIDTH:0.420936
G1 F1200
G1 X87.384 Y84.369 E.00898
G1 X87.092 Y84.614 E.01198
G1 X87.084 Y83.81 E.02527
G1 X87.578 Y84.181 E.01942
M204 S1000
G1 X88.533 Y84.219 F10800
M204 S800
;WIDTH:0.419999
G1 F1200
G1 X88.053 Y84.394 E.01602
G1 X87.433 Y84.803 E.02329
G1 X86.897 Y85.383 E.02476
G1 X86.609 Y85.876 E.0179
G1 X86.666 Y85.47 E.01285
G1 X86.713 Y84.833 E.02003
G1 X86.708 Y84.068 E.02399
G1 X86.676 Y83.557 E.01605
G1 X86.593 Y82.924 E.02002
;WIDTH:0.432342
G1 X86.499 Y82.349 E.01887
G1 X86.909 Y83.049 E.02627
;WIDTH:0.419999
G1 X87.365 Y83.558 E.02143
G1 X87.606 Y83.744 E.00955
G1 X88.113 Y84.091 E.01926
G1 X88.494 Y84.178 E.01225
M204 S1000
;WIPE_START
G1 F8640
G1 X88.053 Y84.394 E-.11339
G1 X87.433 Y84.803 E-.1715
G1 X86.897 Y85.383 E-.18235
G1 X86.609 Y85.876 E-.13184
G1 X86.666 Y85.47 E-.09467
G1 X86.7 Y85.011 E-.10625
;WIPE_END
G1 Z.6 F720
G1 X84.872 Y78.06 F10800
G1 Z.2 F720
G1 E.8 F2100
M204 S800
;WIDTH:0.660124
G1 F1200
G1 X85.262 Y78.549 E.0321
;WIDTH:0.66027
G1 X85.636 Y79.09 E.03376
G1 X85.944 Y79.613 E.03116
M204 S1000
;WIPE_START
G1 F8640
G1 X85.636 Y79.09 E-.14015
G1 X85.262 Y78.549 E-.15186
G1 X84.872 Y78.06 E-.14442
;WIPE_END
G1 E-.36357 F2100
G1 Z.6 F720
G1 X90.903 Y88.096 F10800
G1 Z.2 F720
G1 E.8 F2100
M204 S800
;WIDTH:0.419999
G1 F1200
G1 X90.811 Y88.015 E.00384
G1 X90.392 Y87.877 E.01383
G1 X90.111 Y87.896 E.00883
G1 X89.599 Y88.009 E.01644
G1 X89.329 Y87.959 E.00861
G1 X89.073 Y87.797 E.0095
G1 X88.927 Y87.543 E.00919
G1 X88.887 Y87.251 E.00924
G1 X88.985 Y86.974 E.00921
G1 X89.18 Y86.754 E.00922
G1 X89.697 Y86.564 E.01727
G1 X89.94 Y86.42 E.00886
G1 X90.369 Y86.07 E.01736
G1 X90.566 Y85.848 E.00931
G1 X90.853 Y85.402 E.01663
G1 X90.971 Y85.132 E.00924
G1 X91.105 Y84.619 E.01662
G1 X91.135 Y84.326 E.00923
G1 X91.105 Y83.797 E.01661
G1 X91.042 Y83.509 E.00924
G1 X90.85 Y83.014 E.01665
G1 X90.703 Y82.76 E.0092
G1 X90.298 Y82.272 E.01988
G1 X89.871 Y81.948 E.01681
G1 X89.461 Y81.783 E.01386
G1 X89.144 Y81.598 E.01151
G1 X88.943 Y81.298 E.01132
G1 X88.859 Y80.945 E.01138
G1 X88.934 Y80.591 E.01135
G1 X89.128 Y80.285 E.01136
G1 X89.434 Y80.092 E.01134
G1 X89.788 Y80.017 E.01135
G1 X90.146 Y80.089 E.01145
G1 X90.65 Y80.232 E.01643
G1 X91.004 Y80.187 E.01119
G1 X91.279 Y80.044 E.00972
G1 X91.525 Y79.769 E.01157
G1 X91.883 Y79.159 E.02218
G1 X92.163 Y78.734 E.01596
G1 X92.7 Y78.031 E.02774
G1 X92.841 Y77.93 E.00544
G1 X92.929 Y77.97 E.00303
G1 X92.956 Y78.474 E.01583
G1 X93.065 Y78.787 E.01039
G1 X93.227 Y78.998 E.00834
G1 X93.586 Y79.218 E.0132
G1 X93.887 Y79.268 E.00957
G1 X95.481 Y79.268 E.04998
G1 X95.481 Y80.862 E.04998
G1 X95.481 Y89.939 E.2846
G1 X94.639 Y89.939 E.0264
G1 X94.246 Y90.025 E.01261
G1 X93.99 Y90.198 E.00969
G1 X93.788 Y90.475 E.01075
G1 X93.584 Y91.011 E.01798
G1 X93.697 Y91.358 E.01144
;WIDTH:0.387679
G1 X93.809 Y91.705 E.01045
;WIDTH:0.361092
G1 X94.124 Y92.1 E.01337
G1 X94.633 Y92.889 E.02484
;WIDTH:0.356241
G1 X95.004 Y93.694 E.02309
;WIDTH:0.361693
G1 X95.168 Y94.19 E.01385
G1 X95.368 Y95.108 E.0249
;WIDTH:0.358544
G1 X95.436 Y95.995 E.02335
;WIDTH:0.362301
G1 X95.415 Y96.513 E.01377
G1 X95.282 Y97.442 E.02492
;WIDTH:0.359068
G1 X95.05 Y98.258 E.0223
;WIDTH:0.362602
G1 X94.835 Y98.776 E.01491
G1 X94.386 Y99.6 E.02494
;WIDTH:0.360181
G1 X93.911 Y100.25 E.02124
;WIDTH:0.362705
G1 X93.501 Y100.694 E.01607
G1 X92.792 Y101.308 E.02494
;WIDTH:0.361088
G1 X92.003 Y101.817 E.02484
;WIDTH:0.35624
G1 X91.198 Y102.188 E.02309
;WIDTH:0.361692
G1 X90.702 Y102.352 E.01385
G1 X89.785 Y102.552 E.02488
;WIDTH:0.358545
G1 X88.898 Y102.62 E.02335
;WIDTH:0.3623
G1 X88.379 Y102.599 E.01379
G1 X87.45 Y102.467 E.02492
;WIDTH:0.359069
G1 X86.635 Y102.234 E.02228
;WIDTH:0.362605
G1 X86.116 Y102.019 E.01493
G1 X85.292 Y101.57 E.02494
;WIDTH:0.360181
G1 X84.643 Y101.095 E.02122
;WIDTH:0.362706
G1 X84.199 Y100.686 E.01605
G1 X83.584 Y99.976 E.02498
;WIDTH:0.36109
G1 X83.075 Y99.187 E.02484
;WIDTH:0.356242
G1 X82.705 Y98.383 E.02306
;WIDTH:0.361798
G1 X82.541 Y97.886 E.01388
G1 X82.34 Y96.969 E.02489
;WIDTH:0.357757
G1 X82.272 Y96.082 E.02329
;WIDTH:0.362303
G1 X82.293 Y95.563 E.01379
G1 X82.426 Y94.634 E.02492
;WIDTH:0.359069
G1 X82.658 Y93.819 E.02228
;WIDTH:0.362603
G1 X82.873 Y93.301 E.01491
G1 X83.322 Y92.477 E.02494
;WIDTH:0.360182
G1 X83.879 Y91.728 E.02462
;WIDTH:0.354256
G1 X84.562 Y90.996 E.02592
;WIDTH:0.355163
G1 X84.906 Y90.588 E.01386
G1 X85.227 Y90.167 E.01375
G1 X85.525 Y89.729 E.01375
;WIDTH:0.354321
G1 X85.811 Y89.254 E.01436
;WIDTH:0.351865
G1 X86.154 Y88.572 E.01961
;WIDTH:0.347721
G1 X86.319 Y88.932 E.01004
G1 X86.286 Y88.997 E.00185
;WIDTH:0.352401
G1 X86.045 Y89.468 E.01361
;WIDTH:0.354321
G1 X85.786 Y89.897 E.01298
;WIDTH:0.355125
G1 X85.478 Y90.351 E.01424
G1 X85.146 Y90.788 E.01425
G1 X84.792 Y91.206 E.01422
;WIDTH:0.354256
G1 X84.11 Y91.936 E.02586
;WIDTH:0.361092
G1 X83.845 Y92.282 E.01153
G1 X83.357 Y93.026 E.02354
;WIDTH:0.35624
G1 X82.989 Y93.819 E.02278
;WIDTH:0.361797
G1 X82.849 Y94.271 E.01255
G1 X82.665 Y95.028 E.02066
;WIDTH:0.362303
G1 X82.584 Y96.118 E.02903
;WIDTH:0.357757
G1 X82.653 Y96.939 E.02157
;WIDTH:0.35907
G1 X82.732 Y97.362 E.01131
G1 X82.989 Y98.258 E.0245
;WIDTH:0.356242
G1 X83.357 Y99.051 E.02278
;WIDTH:0.360181
G1 X83.583 Y99.419 E.01139
G1 X84.108 Y100.137 E.02346
;WIDTH:0.354522
G1 X84.756 Y100.785 E.02374
;WIDTH:0.361089
G1 X85.098 Y101.047 E.0114
G1 X85.841 Y101.535 E.02352
;WIDTH:0.356239
G1 X86.635 Y101.904 E.02281
;WIDTH:0.361798
G1 X87.087 Y102.043 E.01254
G1 X87.843 Y102.227 E.02063
;WIDTH:0.3623
G1 X88.935 Y102.308 E.02908
;WIDTH:0.358545
G1 X89.754 Y102.238 E.02157
;WIDTH:0.358813
G1 X90.178 Y102.161 E.01132
G1 X91.073 Y101.904 E.02446
;WIDTH:0.35624
G1 X91.867 Y101.535 E.02281
;WIDTH:0.36018
G1 X92.234 Y101.31 E.01136
G1 X92.952 Y100.785 E.02346
;WIDTH:0.35452
G1 X93.601 Y100.137 E.02376
;WIDTH:0.361089
G1 X93.863 Y99.794 E.01142
G1 X94.351 Y99.051 E.02352
;WIDTH:0.356239
G1 X94.719 Y98.258 E.02278
;WIDTH:0.361796
G1 X94.859 Y97.806 E.01255
G1 X95.043 Y97.049 E.02066
;WIDTH:0.362301
G1 X95.124 Y95.957 E.02908
;WIDTH:0.358544
G1 X95.054 Y95.138 E.02157
;WIDTH:0.358814
G1 X94.977 Y94.714 E.01132
G1 X94.719 Y93.819 E.02447
;WIDTH:0.356241
G1 X94.351 Y93.026 E.02278
;WIDTH:0.36018
G1 X94.125 Y92.658 E.01139
G1 X93.574 Y91.91 E.02451
;WIDTH:0.387679
G1 X93.264 Y91.554 E.01353
;WIDTH:0.419999
G1 X92.608 Y90.793 E.0315
G1 X92.287 Y90.374 E.01655
G1 X91.988 Y89.938 E.01658
G1 X91.711 Y89.486 E.01662
G1 X91.05 Y88.227 E.04458
G1 X90.948 Y88.136 E.00429
M204 S1000
G1 X90.654 Y88.388 F10800
M204 S800
G1 F1200
G1 X90.522 Y88.29 E.00515
G1 X90.279 Y88.252 E.00771
G1 X89.787 Y88.354 E.01575
G1 X89.468 Y88.376 E.01003
G1 X89.189 Y88.309 E.009
G1 X88.92 Y88.156 E.0097
G1 X88.709 Y87.936 E.00956
G1 X88.571 Y87.665 E.00954
G1 X88.514 Y87.366 E.00954
G1 X88.545 Y87.064 E.00952
G1 X88.66 Y86.783 E.00952
G1 X88.851 Y86.546 E.00954
G1 X89.101 Y86.373 E.00953
G1 X89.481 Y86.239 E.01263
G1 X89.701 Y86.128 E.00773
G1 X90.249 Y85.645 E.0229
G1 X90.606 Y85.037 E.02211
G1 X90.758 Y84.348 E.02212
G1 X90.691 Y83.645 E.02214
G1 X90.41 Y82.998 E.02212
G1 X90.075 Y82.587 E.01663
G1 X89.75 Y82.319 E.01321
G1 X89.33 Y82.137 E.01435
G1 X89.019 Y81.972 E.01104
G1 X88.776 Y81.742 E.01049
G1 X88.597 Y81.449 E.01077
G1 X88.503 Y81.12 E.01073
G1 X88.499 Y80.779 E.01069
G1 X88.585 Y80.448 E.01072
G1 X88.754 Y80.152 E.01069
G1 X88.995 Y79.911 E.01069
G1 X89.292 Y79.742 E.01071
G1 X89.622 Y79.657 E.01068
G1 X89.963 Y79.662 E.01069
G1 X90.489 Y79.812 E.01715
G1 X90.757 Y79.855 E.00851
G1 X90.997 Y79.78 E.00788
G1 X91.2 Y79.578 E.00898
G1 X91.58 Y78.934 E.02345
G1 X92.157 Y78.103 E.03172
G1 X92.543 Y77.668 E.01823
G1 X92.774 Y77.554 E.00808
G1 X92.935 Y77.564 E.00506
G1 X93.166 Y77.665 E.0079
G1 X93.301 Y77.872 E.00775
G1 X93.321 Y78.312 E.01381
G1 X93.394 Y78.602 E.00938
G1 X93.491 Y78.729 E.00501
G1 X93.641 Y78.835 E.00576
G1 X93.887 Y78.891 E.00791
G1 X95.858 Y78.891 E.0618
G1 X95.858 Y90.316 E.35822
G1 X94.639 Y90.316 E.03822
G1 X94.33 Y90.408 E.01011
G1 X94.168 Y90.569 E.00716
G1 X93.957 Y91.06 E.01676
G1 X94.078 Y91.489 E.01398
G1 X94.41 Y91.902 E.01661
G1 X94.894 Y92.652 E.02799
G1 X95.147 Y93.145 E.01737
G1 X95.344 Y93.618 E.01607
G1 X95.505 Y94.104 E.01605
G1 X95.685 Y94.91 E.02589
G1 X95.761 Y95.526 E.01946
G1 X95.781 Y96.038 E.01607
G1 X95.761 Y96.551 E.0161
G1 X95.654 Y97.334 E.02478
G1 X95.505 Y97.972 E.02054
G1 X95.344 Y98.459 E.01608
G1 X95.147 Y98.932 E.01607
G1 X94.799 Y99.585 E.0232
G1 X94.41 Y100.175 E.02216
G1 X94.089 Y100.574 E.01606
G1 X93.739 Y100.949 E.01608
G1 X93.019 Y101.572 E.02985
G1 X92.599 Y101.866 E.01607
G1 X92.158 Y102.126 E.01605
G1 X91.33 Y102.506 E.02856
G1 X90.823 Y102.679 E.0168
G1 X90.326 Y102.807 E.01609
G1 X89.822 Y102.897 E.01605
G1 X88.91 Y102.963 E.02867
G1 X88.378 Y102.948 E.01669
G1 X87.868 Y102.895 E.01608
G1 X87.364 Y102.802 E.01607
G1 X86.527 Y102.559 E.02733
G1 X85.993 Y102.346 E.01803
G1 X85.534 Y102.118 E.01607
G1 X85.094 Y101.855 E.01607
G1 X84.339 Y101.29 E.02957
G1 X83.969 Y100.949 E.01578
G1 X83.619 Y100.574 E.01608
G1 X83.299 Y100.175 E.01604
G1 X82.814 Y99.425 E.028
G1 X82.561 Y98.932 E.01737
G1 X82.364 Y98.459 E.01607
G1 X82.203 Y97.972 E.01608
G1 X82.021 Y97.151 E.02637
G1 X81.947 Y96.551 E.01896
G1 X81.927 Y96.038 E.0161
G1 X81.947 Y95.526 E.01607
G1 X82.054 Y94.743 E.02478
G1 X82.203 Y94.104 E.02057
G1 X82.364 Y93.618 E.01605
G1 X82.561 Y93.145 E.01607
G1 X82.909 Y92.492 E.0232
G1 X83.299 Y91.902 E.02218
G1 X83.619 Y91.503 E.01604
G1 X84.311 Y90.761 E.03181
G1 X84.639 Y90.371 E.01598
G1 X84.945 Y89.968 E.01587
G1 X85.231 Y89.55 E.01588
G1 X85.507 Y89.096 E.01666
G1 X85.801 Y88.529 E.02003
G1 X86.056 Y87.943 E.02004
G1 X86.259 Y87.379 E.01879
G1 X86.282 Y87.624 E.00772
G1 X86.448 Y88.396 E.02476
G1 X86.697 Y88.938 E.0187
G1 X86.368 Y89.599 E.02315
G1 X86.079 Y90.079 E.01757
G1 X85.761 Y90.549 E.01779
G1 X85.418 Y91.001 E.01779
G1 X85.049 Y91.435 E.01786
G1 X84.362 Y92.171 E.03157
G1 X83.696 Y93.117 E.03627
G1 X83.3 Y93.965 E.02934
G1 X83.185 Y94.361 E.01293
G1 X82.998 Y95.168 E.02597
G1 X82.926 Y96.088 E.02893
G1 X82.998 Y96.909 E.02584
G1 X83.067 Y97.273 E.01162
G1 X83.3 Y98.112 E.0273
G1 X83.67 Y98.905 E.02744
G1 X83.867 Y99.22 E.01165
G1 X84.345 Y99.887 E.02573
G1 X84.999 Y100.541 E.029
G1 X85.298 Y100.763 E.01168
G1 X85.933 Y101.197 E.02412
G1 X86.78 Y101.592 E.0293
G1 X87.177 Y101.707 E.01296
G1 X87.984 Y101.895 E.02598
G1 X88.904 Y101.966 E.02893
G1 X89.723 Y101.893 E.02578
G1 X90.088 Y101.826 E.01164
G1 X90.928 Y101.592 E.02734
G1 X91.721 Y101.222 E.02744
G1 X92.035 Y101.025 E.01162
G1 X92.702 Y100.548 E.02571
G1 X93.357 Y99.893 E.02904
G1 X93.578 Y99.595 E.01163
G1 X94.013 Y98.96 E.02413
G1 X94.408 Y98.112 E.02933
G1 X94.523 Y97.715 E.01296
G1 X94.71 Y96.909 E.02594
G1 X94.782 Y95.988 E.02897
G1 X94.709 Y95.169 E.02578
G1 X94.642 Y94.804 E.01164
G1 X94.408 Y93.965 E.02731
G1 X94.038 Y93.172 E.02744
G1 X93.841 Y92.857 E.01165
G1 X93.322 Y92.145 E.02763
G1 X92.667 Y91.443 E.0301
G1 X92.309 Y91.023 E.0173
G1 X91.977 Y90.589 E.01713
G1 X91.667 Y90.136 E.01721
G1 X91.381 Y89.667 E.01722
G1 X90.756 Y88.463 E.04253
G1 X90.703 Y88.423 E.00208
M204 S1000
G1 X90.435 Y88.671 F10800
M204 S800
;TYPE:External perimeter
G1 F1200
G1 X90.274 Y88.632 E.00519
