; generated by PrusaSlicer 2.6.0+MacOS-arm64 on 2023-07-31 at 23:49:24 UTC


;
;

;
;
; 

; external perimeters extrusion width = 0.45mm
; perimeters extrusion width = 0.45mm
; infill extrusion width = 0.45mm
; solid infill extrusion width = 0.45mm
; top infill extrusion width = 0.40mm
; first layer extrusion width = 0.42mm

M73 P0 R26
M201 X2500 Y2500 Z400 E5000 ; sets maximum accelerations, mm/sec^2
M203 X180 Y180 Z12 E80 ; sets maximum feedrates, mm / sec
M204 P2000 R1250 T2500 ; sets acceleration (P, T) and retract acceleration (R), mm/sec^2
M205 X8.00 Y8.00 Z2.00 E10.00 ; sets the jerk limits, mm/sec
M205 S0 T0 ; sets the minimum extruding and travel feed rate, mm/sec
;TYPE:Custom
M862.3 P "MINI" ; printer model check
G90 ; use absolute coordinates
M83 ; extruder relative mode
M104 S170 ; set extruder temp for bed leveling
M140 S60 ; set bed temp
M109 R170 ; wait for bed leveling temp
M190 S60 ; wait for bed temp
M204 T1250 ; set travel acceleration
G28 ; home all without mesh bed level
G29 ; mesh bed leveling 
M204 T2500 ; restore travel acceleration
M104 S215 ; set extruder temp
G92 E0
G1 Y-2 X179 F2400
G1 Z3 F720
M109 S215 ; wait for extruder temp

; intro line
M73 P0 R25
G1 X170 F1000
G1 Z0.2 F720
G1 X110 E8 F900
G1 X40 E10 F700
G92 E0

M221 S95 ; set flow
G21 ; set units to millimeters
G90 ; use absolute coordinates
M83 ; use relative distances for extrusion
M900 K0.2 ; Filament gcode LA 1.5
; ; Filament gcode LA 1.0
M107
;LAYER_CHANGE
;Z:0.2
;HEIGHT:0.2
;BEFORE_LAYER_CHANGE
G92 E0.0
;0.2


G1 E-3.2 F4200
G1 Z.2 F720
;AFTER_LAYER_CHANGE
;0.2
; printing object BagClip-weaker.stl id:0 copy 0
M73 P1 R25
G1 Z.4
G1 X94.872 Y89.043 F9000
G1 Z.2 F720
G1 E3.2 F2400
M204 P600
;TYPE:Perimeter
;WIDTH:0.419999
G1 F1200
G1 X94.691 Y88.755 E.01067
G1 X94.452 Y88.487 E.01126
G1 X93.895 Y87.988 E.02345
G1 X93.123 Y87.569 E.02754
G1 X92.272 Y87.345 E.02759
G1 X91.393 Y87.329 E.02756
G1 X90.75 Y87.453 E.02053
G1 X90.158 Y87.696 E.02006
G1 X89.652 Y87.442 E.01775
G1 X89.202 Y87.171 E.01647
G1 X88.309 Y86.552 E.03407
;WIDTH:0.384346
G1 X87.883 Y86.209 E.01553
;WIDTH:0.354243
G1 X87.152 Y85.527 E.02588
;WIDTH:0.361343
G1 X86.806 Y85.262 E.01154
G1 X86.063 Y84.774 E.02354
;WIDTH:0.355951
G1 X85.269 Y84.405 E.02279
;WIDTH:0.361797
G1 X84.817 Y84.266 E.01254
G1 X84.061 Y84.082 E.02063
;WIDTH:0.362301
G1 X82.971 Y84.001 E.02903
;WIDTH:0.357757
G1 X82.15 Y84.07 E.02157
;WIDTH:0.359068
G1 X81.726 Y84.149 E.01134
G1 X80.831 Y84.406 E.02448
;WIDTH:0.35624
G1 X80.037 Y84.774 E.0228
;WIDTH:0.360382
G1 X79.67 Y85 E.01138
G1 X78.948 Y85.528 E.02361
;WIDTH:0.354517
G1 X78.304 Y86.173 E.02362
;WIDTH:0.361091
G1 X78.041 Y86.515 E.01141
G1 X77.553 Y87.258 E.02352
;WIDTH:0.35624
G1 X77.185 Y88.052 E.0228
;WIDTH:0.361798
G1 X77.045 Y88.504 E.01255
G1 X76.862 Y89.26 E.02062
;WIDTH:0.362301
G1 X76.78 Y90.35 E.02903
;WIDTH:0.357756
G1 X76.849 Y91.171 E.02157
;WIDTH:0.35907
G1 X76.928 Y91.595 E.01134
G1 X77.185 Y92.49 E.02448
;WIDTH:0.356241
G1 X77.553 Y93.284 E.0228
;WIDTH:0.360182
G1 X77.779 Y93.651 E.01137
G1 X78.304 Y94.369 E.02346
;WIDTH:0.354522
G1 X78.952 Y95.017 E.02374
;WIDTH:0.361091
G1 X79.294 Y95.28 E.01141
G1 X80.037 Y95.768 E.02352
;WIDTH:0.35624
G1 X80.831 Y96.136 E.0228
;WIDTH:0.361798
G1 X81.283 Y96.276 E.01255
G1 X82.039 Y96.46 E.02063
;WIDTH:0.362301
G1 X83.129 Y96.541 E.02903
;WIDTH:0.357757
G1 X83.95 Y96.472 E.02157
;WIDTH:0.359068
G1 X84.374 Y96.393 E.01134
G1 X85.269 Y96.136 E.02448
;WIDTH:0.35624
G1 X86.063 Y95.768 E.0228
;WIDTH:0.360181
G1 X86.43 Y95.542 E.01137
G1 X87.152 Y95.015 E.02358
;WIDTH:0.355815
G1 X87.865 Y94.349 E.02538
;WIDTH:0.387907
G1 X88.074 Y94.192 E.0075
;WIDTH:0.419999
G1 X88.694 Y93.718 E.02447
G1 X89.122 Y93.422 E.01632
G1 X89.564 Y93.149 E.01629
G1 X90.02 Y92.9 E.01629
G1 X90.682 Y92.581 E.02304
G1 X91.111 Y92.161 E.01882
G1 X91.212 Y91.809 E.01148
G1 X91.194 Y91.531 E.00873
G1 X91.079 Y91.016 E.01655
G1 X91.13 Y90.745 E.00865
G1 X91.292 Y90.49 E.00947
G1 X91.546 Y90.344 E.00919
G1 X91.838 Y90.304 E.00924
G1 X92.114 Y90.402 E.00918
G1 X92.334 Y90.597 E.00922
G1 X92.524 Y91.114 E.01727
G1 X92.668 Y91.356 E.00883
G1 X93.018 Y91.786 E.01738
G1 X93.24 Y91.983 E.00931
G1 X93.687 Y92.27 E.01666
G1 X93.956 Y92.388 E.00921
G1 X94.47 Y92.522 E.01665
G1 X94.762 Y92.552 E.0092
G1 X95.292 Y92.521 E.01665
G1 X95.579 Y92.459 E.00921
G1 X96.074 Y92.267 E.01665
G1 X96.328 Y92.119 E.00922
G1 X96.817 Y91.714 E.01991
G1 X97.141 Y91.288 E.01678
G1 X97.284 Y90.936 E.01191
G1 X97.421 Y90.657 E.00975
G1 X97.68 Y90.408 E.01126
G1 X98.023 Y90.293 E.01134
G1 X98.385 Y90.305 E.01136
G1 X98.707 Y90.47 E.01134
G1 X98.951 Y90.738 E.01136
G1 X99.057 Y91.084 E.01135
G1 X99.045 Y91.386 E.00948
G1 X98.874 Y91.939 E.01815
G1 X98.875 Y92.32 E.01195
G1 X99.056 Y92.711 E.01351
G1 X99.32 Y92.942 E.011
G1 X99.93 Y93.3 E.02218
G1 X100.352 Y93.578 E.01584
G1 X101.058 Y94.117 E.02785
G1 X101.155 Y94.267 E.0056
G1 X101.102 Y94.357 E.00327
G1 X89.399 Y94.353 E.36694
G1 X88.444 Y94.374 E.02995
G1 X88.232 Y94.502 E.00776
;WIDTH:0.38729
G1 X88.021 Y94.63 E.00707
;WIDTH:0.354581
G1 X87.365 Y95.242 E.02325
;WIDTH:0.361091
G1 X86.988 Y95.541 E.01273
G1 X86.199 Y96.05 E.02484
;WIDTH:0.35624
G1 X85.394 Y96.42 E.02308
;WIDTH:0.361796
G1 X84.898 Y96.584 E.01385
G1 X83.981 Y96.785 E.02489
;WIDTH:0.357757
G1 X83.094 Y96.853 E.02329
;WIDTH:0.362301
G1 X82.575 Y96.832 E.01379
G1 X81.646 Y96.699 E.02492
;WIDTH:0.359069
G1 X80.831 Y96.467 E.02228
;WIDTH:0.362604
G1 X80.312 Y96.252 E.01493
G1 X79.488 Y95.803 E.02494
;WIDTH:0.36018
G1 X78.839 Y95.327 E.02123
;WIDTH:0.362707
G1 X78.395 Y94.918 E.01605
G1 X77.78 Y94.209 E.02496
;WIDTH:0.36109
G1 X77.271 Y93.42 E.02484
;WIDTH:0.356241
G1 X76.901 Y92.615 E.02308
;WIDTH:0.361797
G1 X76.737 Y92.119 E.01385
G1 X76.536 Y91.202 E.02489
;WIDTH:0.357756
G1 X76.468 Y90.314 E.02331
;WIDTH:0.362301
G1 X76.489 Y89.796 E.01377
G1 X76.622 Y88.867 E.02492
;WIDTH:0.359069
G1 X76.854 Y88.052 E.02228
;WIDTH:0.362605
G1 X77.069 Y87.533 E.01493
G1 X77.518 Y86.709 E.02494
;WIDTH:0.360182
G1 X77.994 Y86.059 E.02125
;WIDTH:0.362553
G1 X78.403 Y85.616 E.01602
G1 X79.112 Y85.001 E.02494
;WIDTH:0.361728
G1 X79.901 Y84.492 E.02489
;WIDTH:0.35624
G1 X80.706 Y84.121 E.02309
;WIDTH:0.361798
G1 X81.202 Y83.957 E.01385
G1 X82.119 Y83.757 E.02489
;WIDTH:0.357757
G1 X83.007 Y83.689 E.02331
;WIDTH:0.362301
G1 X83.525 Y83.71 E.01377
G1 X84.454 Y83.843 E.02492
;WIDTH:0.359069
G1 X85.269 Y84.075 E.02228
;WIDTH:0.362465
G1 X85.788 Y84.29 E.01493
G1 X86.612 Y84.74 E.02495
;WIDTH:0.36087
G1 X87.36 Y85.296 E.02464
;WIDTH:0.354243
G1 X88.092 Y85.979 E.02592
;WIDTH:0.384346
G1 X88.478 Y86.271 E.01374
;WIDTH:0.419999
G1 X88.817 Y86.353 E.01094
G1 X99.672 Y86.353 E.34035
G1 X100.59 Y86.341 E.02879
G1 X100.998 Y86.179 E.01376
G1 X101.118 Y86.194 E.00379
G1 X101.155 Y86.293 E.00331
G1 X101.027 Y86.45 E.00635
G1 X100.582 Y86.797 E.01769
G1 X99.92 Y87.247 E.0251
G1 X99.483 Y87.49 E.01568
G1 X99.196 Y87.393 E.0095
G1 X98.31 Y87.256 E.02811
G1 X97.416 Y87.323 E.02811
G1 X96.56 Y87.591 E.02812
G1 X95.962 Y87.921 E.02142
G1 X95.598 Y88.215 E.01467
G1 X95.219 Y88.56 E.01607
G1 X94.907 Y88.995 E.01678
M204 P1000
G1 X94.884 Y89.951 F9000
M204 P600
G1 F1200
G1 X94.831 Y89.89 E.00253
G1 X94.737 Y89.538 E.01142
G1 X94.371 Y88.956 E.02156
G1 X94.19 Y88.758 E.00841
G1 X93.706 Y88.314 E.02059
G1 X93.015 Y87.93 E.02479
G1 X92.254 Y87.721 E.02474
G1 X91.465 Y87.699 E.02475
G1 X90.693 Y87.865 E.02476
G1 X90.151 Y88.114 E.0187
G1 X89.49 Y87.784 E.02316
G1 X89.009 Y87.496 E.01758
G1 X88.54 Y87.178 E.01777
G1 X88.088 Y86.835 E.01779
G1 X87.654 Y86.466 E.01786
G1 X86.917 Y85.779 E.03159
G1 X85.959 Y85.106 E.03671
G1 X85.124 Y84.717 E.02888
G1 X84.727 Y84.602 E.01296
G1 X83.92 Y84.415 E.02597
G1 X83.001 Y84.343 E.0289
G1 X82.18 Y84.415 E.02584
G1 X81.816 Y84.483 E.01161
G1 X80.976 Y84.717 E.02734
G1 X80.183 Y85.087 E.02744
G1 X79.87 Y85.284 E.0116
G1 X79.193 Y85.769 E.02611
G1 X78.547 Y86.416 E.02867
G1 X77.892 Y87.35 E.03577
G1 X77.496 Y88.197 E.02932
G1 X77.381 Y88.594 E.01296
G1 X77.194 Y89.401 E.02597
G1 X77.122 Y90.32 E.0289
G1 X77.194 Y91.141 E.02584
G1 X77.263 Y91.505 E.01162
G1 X77.496 Y92.345 E.02733
G1 X77.866 Y93.138 E.02744
G1 X78.063 Y93.452 E.01162
G1 X78.541 Y94.119 E.02573
G1 X79.195 Y94.774 E.02902
G1 X80.129 Y95.429 E.03577
G1 X80.976 Y95.825 E.02932
G1 X81.373 Y95.94 E.01296
G1 X82.18 Y96.127 E.02597
G1 X83.099 Y96.199 E.0289
G1 X83.92 Y96.127 E.02584
G1 X84.285 Y96.058 E.01165
G1 X85.124 Y95.825 E.0273
G1 X85.917 Y95.455 E.02744
G1 X86.231 Y95.258 E.01162
G1 X86.885 Y94.794 E.02514
G1 X87.633 Y94.094 E.03212
G1 X88.044 Y93.742 E.01697
G1 X88.472 Y93.413 E.01693
G1 X88.915 Y93.107 E.01688
G1 X89.374 Y92.823 E.01692
G1 X89.848 Y92.564 E.01694
G1 X90.518 Y92.241 E.02332
G1 X90.776 Y91.989 E.01131
G1 X90.837 Y91.696 E.00938
G1 X90.735 Y91.204 E.01575
G1 X90.713 Y90.885 E.01003
G1 X90.779 Y90.606 E.00899
G1 X90.932 Y90.337 E.0097
G1 X91.153 Y90.126 E.00958
G1 X91.424 Y89.987 E.00955
G1 X91.723 Y89.931 E.00954
G1 X92.025 Y89.962 E.00952
G1 X92.306 Y90.077 E.00952
G1 X92.543 Y90.268 E.00954
G1 X92.716 Y90.517 E.00951
G1 X92.85 Y90.898 E.01266
G1 X92.96 Y91.118 E.00771
G1 X93.443 Y91.666 E.0229
G1 X94.052 Y92.023 E.02213
G1 X94.741 Y92.175 E.02212
G1 X95.443 Y92.108 E.02211
G1 X96.09 Y91.827 E.02212
G1 X96.502 Y91.492 E.01665
G1 X96.83 Y91.068 E.01681
G1 X97.014 Y90.576 E.01647
G1 X97.215 Y90.299 E.01073
G1 X97.483 Y90.083 E.01079
G1 X97.799 Y89.945 E.01081
G1 X98.139 Y89.895 E.01078
G1 X98.481 Y89.937 E.0108
G1 X98.8 Y90.066 E.01079
G1 X99.073 Y90.276 E.0108
G1 X99.282 Y90.549 E.01078
G1 X99.411 Y90.868 E.01079
G1 X99.452 Y91.21 E.0108
G1 X99.418 Y91.442 E.00735
G1 X99.253 Y91.977 E.01755
G1 X99.244 Y92.244 E.00838
G1 X99.352 Y92.478 E.00808
G1 X99.511 Y92.617 E.00662
G1 X100.148 Y92.993 E.02319
G1 X100.574 Y93.273 E.01598
G1 X101.155 Y93.711 E.02281
G1 X101.475 Y94.025 E.01406
G1 X101.532 Y94.269 E.00786
G1 X101.502 Y94.433 E.00523
G1 X101.362 Y94.643 E.00791
G1 X101.131 Y94.741 E.00787
G1 X88.523 Y94.742 E.39531
G1 X88.255 Y94.882 E.00948
G1 X87.586 Y95.506 E.02868
G1 X87.186 Y95.826 E.01606
G1 X86.437 Y96.311 E.02798
G1 X85.944 Y96.564 E.01737
G1 X85.471 Y96.761 E.01607
G1 X84.984 Y96.922 E.01608
G1 X84.163 Y97.104 E.02637
G1 X83.562 Y97.178 E.01899
G1 X83.05 Y97.198 E.01607
G1 X82.538 Y97.178 E.01607
G1 X81.755 Y97.071 E.02478
G1 X81.116 Y96.922 E.02057
G1 X80.63 Y96.761 E.01605
G1 X80.156 Y96.564 E.01609
G1 X79.504 Y96.216 E.02317
G1 X78.914 Y95.826 E.02218
G1 X78.514 Y95.506 E.01606
G1 X78.14 Y95.156 E.01606
G1 X77.516 Y94.436 E.02987
G1 X77.223 Y94.016 E.01606
G1 X76.963 Y93.575 E.01605
G1 X76.583 Y92.747 E.02856
G1 X76.41 Y92.24 E.0168
G1 X76.282 Y91.743 E.01609
G1 X76.192 Y91.239 E.01605
G1 X76.125 Y90.327 E.02867
G1 X76.14 Y89.795 E.01669
G1 X76.194 Y89.285 E.01608
G1 X76.286 Y88.781 E.01606
G1 X76.529 Y87.944 E.02733
G1 X76.742 Y87.41 E.01803
G1 X76.971 Y86.951 E.01608
G1 X77.233 Y86.511 E.01606
G1 X77.798 Y85.756 E.02957
G1 X78.14 Y85.386 E.0158
G1 X78.514 Y85.036 E.01606
G1 X78.914 Y84.715 E.01608
G1 X79.663 Y84.231 E.02796
G1 X80.156 Y83.978 E.01737
G1 X80.629 Y83.781 E.01607
G1 X81.116 Y83.62 E.01608
G1 X81.937 Y83.438 E.02637
G1 X82.538 Y83.364 E.01899
G1 X83.05 Y83.344 E.01607
G1 X83.562 Y83.364 E.01607
G1 X84.345 Y83.471 E.02478
G1 X84.984 Y83.62 E.02057
G1 X85.471 Y83.781 E.01608
G1 X85.944 Y83.978 E.01607
G1 X86.779 Y84.435 E.02985
G1 X87.201 Y84.726 E.01607
G1 X87.599 Y85.048 E.01605
G1 X88.53 Y85.898 E.03953
G1 X88.817 Y85.976 E.00933
G1 X100.437 Y85.976 E.36434
G1 X100.948 Y85.804 E.01691
G1 X101.215 Y85.815 E.00838
G1 X101.417 Y85.964 E.00787
G1 X101.531 Y86.188 E.00788
G1 X101.504 Y86.437 E.00785
G1 X101.366 Y86.648 E.00791
G1 X100.967 Y86.983 E.01634
G1 X100.546 Y87.289 E.01632
G1 X100.115 Y87.57 E.01613
G1 X99.506 Y87.908 E.02184
G1 X99.128 Y87.764 E.01268
G1 X98.328 Y87.633 E.02542
G1 X97.519 Y87.686 E.02542
G1 X96.742 Y87.921 E.02545
G1 X96.144 Y88.251 E.02142
G1 X95.85 Y88.495 E.01198
G1 X95.445 Y88.88 E.01752
G1 X95.029 Y89.477 E.02281
G1 X94.902 Y89.894 E.01367
M204 P1000
G1 X94.672 Y90.284 F9000
M204 P600
;TYPE:External perimeter
G1 F1200
G1 X94.538 Y90.165 E.00562
G1 X94.418 Y89.739 E.01388
G1 X94.052 Y89.157 E.02156
G1 X93.516 Y88.64 E.02335
G1 X92.908 Y88.292 E.02197
G1 X92.236 Y88.098 E.02193
G1 X91.54 Y88.069 E.02184
G1 X90.893 Y88.194 E.02066
G1 X90.163 Y88.541 E.02534
G1 X89.308 Y88.115 E.02995
G1 X88.806 Y87.814 E.01835
G1 X88.32 Y87.484 E.01842
G1 X87.852 Y87.129 E.01842
G1 X87.403 Y86.748 E.01846
G1 X86.66 Y86.054 E.03188
G1 X85.8 Y85.448 E.03299
G1 X84.964 Y85.059 E.02891
G1 X84.63 Y84.966 E.01087
G1 X83.998 Y84.8 E.02049
G1 X83.067 Y84.719 E.0293
G1 X82.669 Y84.75 E.01252
G1 X81.913 Y84.848 E.0239
G1 X81.136 Y85.059 E.02524
G1 X80.343 Y85.429 E.02744
G1 X79.459 Y86.037 E.03364
G1 X78.814 Y86.682 E.0286
G1 X78.635 Y86.931 E.00962
G1 X78.233 Y87.509 E.02207
G1 X77.838 Y88.356 E.0293
G1 X77.579 Y89.323 E.03139
G1 X77.498 Y90.254 E.0293
G1 X77.53 Y90.652 E.01252
G1 X77.627 Y91.408 E.0239
G1 X77.838 Y92.185 E.02524
G1 X78.208 Y92.978 E.02744
G1 X78.807 Y93.852 E.03322
G1 X79.462 Y94.507 E.02904
G1 X80.288 Y95.088 E.03166
G1 X81.136 Y95.483 E.02933
G1 X82.102 Y95.742 E.03136
G1 X83.034 Y95.823 E.02933
G1 X83.431 Y95.791 E.01249
G1 X84.187 Y95.694 E.0239
G1 X84.965 Y95.483 E.02527
G1 X85.758 Y95.113 E.02744
G1 X86.015 Y94.949 E.00956
G1 X86.627 Y94.518 E.02347
G1 X87.381 Y93.813 E.03237
G1 X87.806 Y93.449 E.01754
G1 X88.249 Y93.108 E.01753
G1 X88.709 Y92.791 E.01752
G1 X89.185 Y92.497 E.01754
G1 X89.675 Y92.229 E.01751
G1 X90.354 Y91.901 E.02364
G1 X90.432 Y91.832 E.00327
M73 P2 R25
G1 X90.457 Y91.691 E.00449
G1 X90.318 Y91.064 E.02014
G1 X90.355 Y90.652 E.01297
G1 X90.509 Y90.265 E.01306
G1 X90.766 Y89.938 E.01304
G1 X91.106 Y89.697 E.01307
G1 X91.5 Y89.563 E.01305
G1 X91.916 Y89.546 E.01305
G1 X92.319 Y89.647 E.01303
G1 X92.677 Y89.859 E.01305
G1 X92.961 Y90.164 E.01307
G1 X93.08 Y90.403 E.00837
G1 X93.252 Y90.88 E.0159
G1 X93.647 Y91.348 E.0192
G1 X94.148 Y91.658 E.01847
G1 X94.719 Y91.799 E.01844
G1 X95.307 Y91.756 E.01849
G1 X95.801 Y91.564 E.01662
G1 X96.204 Y91.248 E.01606
G1 X96.496 Y90.892 E.01444
G1 X96.679 Y90.397 E.01655
G1 X96.939 Y90.037 E.01392
G1 X97.286 Y89.757 E.01398
G1 X97.694 Y89.579 E.01396
G1 X98.134 Y89.515 E.01394
G1 X98.576 Y89.568 E.01396
G1 X98.989 Y89.736 E.01398
G1 X99.342 Y90.007 E.01395
G1 X99.612 Y90.361 E.01396
G1 X99.779 Y90.773 E.01394
G1 X99.832 Y91.216 E.01399
G1 X99.766 Y91.662 E.01414
G1 X99.613 Y92.167 E.01654
G1 X99.702 Y92.292 E.00481
G1 X100.355 Y92.677 E.02377
G1 X100.796 Y92.968 E.01657
G1 X101.511 Y93.513 E.02819
G1 X101.808 Y93.835 E.01373
G1 X101.91 Y94.12 E.00949
G1 X101.908 Y94.423 E.0095
G1 X101.803 Y94.707 E.00949
G1 X101.607 Y94.937 E.00947
G1 X101.344 Y95.087 E.00949
G1 X101.174 Y95.116 E.00541
G1 X88.641 Y95.107 E.39296
G1 X88.513 Y95.158 E.00432
G1 X87.833 Y95.791 E.02913
G1 X87.427 Y96.118 E.01635
G1 X86.999 Y96.415 E.01633
G1 X86.551 Y96.682 E.01635
G1 X86.084 Y96.915 E.01636
G1 X85.603 Y97.114 E.01632
G1 X85.108 Y97.279 E.01636
G1 X84.603 Y97.408 E.01634
G1 X84.09 Y97.501 E.01635
G1 X83.571 Y97.556 E.01636
G1 X83.05 Y97.575 E.01635
G1 X82.529 Y97.556 E.01635
G1 X82.011 Y97.501 E.01633
G1 X81.498 Y97.408 E.01635
G1 X80.992 Y97.279 E.01637
G1 X80.498 Y97.114 E.01633
G1 X80.016 Y96.915 E.01635
G1 X79.55 Y96.682 E.01634
G1 X79.101 Y96.415 E.01638
G1 X78.673 Y96.118 E.01633
G1 X78.267 Y95.791 E.01635
G1 X77.885 Y95.436 E.01635
G1 X77.53 Y95.054 E.01635
G1 X77.203 Y94.648 E.01635
G1 X76.906 Y94.22 E.01633
G1 X76.64 Y93.771 E.01636
G1 X76.406 Y93.305 E.01635
G1 X76.207 Y92.823 E.01635
G1 X76.042 Y92.329 E.01633
G1 X75.913 Y91.823 E.01637
G1 X75.82 Y91.31 E.01635
G1 X75.765 Y90.792 E.01633
G1 X75.746 Y90.271 E.01635
G1 X75.765 Y89.75 E.01635
G1 X75.82 Y89.231 E.01636
G1 X75.913 Y88.718 E.01635
G1 X76.042 Y88.213 E.01634
G1 X76.207 Y87.718 E.01636
G1 X76.406 Y87.237 E.01632
G1 X76.64 Y86.77 E.01638
G1 X76.906 Y86.322 E.01634
G1 X77.203 Y85.894 E.01633
G1 X77.53 Y85.488 E.01635
G1 X77.885 Y85.106 E.01635
G1 X78.267 Y84.751 E.01635
G1 X78.673 Y84.424 E.01635
