; generated by PrusaSlicer 2.6.0+MacOS-arm64 on 2023-07-27 at 02:11:26 UTC


;
; thumbnail begin 16x16 632

; thumbnail end
;

;
;
; 

; external perimeters extrusion width = 0.45mm
; perimeters extrusion width = 0.45mm
; infill extrusion width = 0.45mm
; solid infill extrusion width = 0.45mm
; top infill extrusion width = 0.40mm
; first layer extrusion width = 0.42mm

M73 P0 R7
M201 X2500 Y2500 Z400 E5000 ; sets maximum accelerations, mm/sec^2
M203 X180 Y180 Z12 E80 ; sets maximum feedrates, mm / sec
M204 P2000 R1250 T2500 ; sets acceleration (P, T) and retract acceleration (R), mm/sec^2
M205 X8.00 Y8.00 Z2.00 E10.00 ; sets the jerk limits, mm/sec
M205 S0 T0 ; sets the minimum extruding and travel feed rate, mm/sec
;TYPE:Custom
M862.3 P "MINI" ; printer model check
G90 ; use absolute coordinates
M83 ; extruder relative mode
M104 S170 ; set extruder temp for bed leveling
M140 S60 ; set bed temp
M109 R170 ; wait for bed leveling temp
M190 S60 ; wait for bed temp
M204 T1250 ; set travel acceleration
G28 ; home all without mesh bed level
G29 ; mesh bed leveling 
M204 T2500 ; restore travel acceleration
M104 S215 ; set extruder temp
G92 E0
G1 Y-2 X179 F2400
G1 Z3 F720
M109 S215 ; wait for extruder temp

; intro line
M73 P1 R7
G1 X170 F1000
G1 Z0.2 F720
G1 X110 E8 F900
G1 X40 E10 F700
G92 E0

M221 S95 ; set flow
G21 ; set units to millimeters
G90 ; use absolute coordinates
M83 ; use relative distances for extrusion
M900 K0.2 ; Filament gcode LA 1.5
; ; Filament gcode LA 1.0
M107
;LAYER_CHANGE
;Z:0.3
;HEIGHT:0.3
;BEFORE_LAYER_CHANGE
G92 E0.0
;0.3


M73 P2 R7
G1 E-3.2 F4200
M73 P3 R7
G1 Z.2 F720
G1 Z.3
;AFTER_LAYER_CHANGE
;0.3
; printing object toio_dock_attempt3v3.stl id:0 copy 0
G1 Z.5
G1 X106.426 Y97.762 F9000
G1 Z.3 F720
M73 P3 R6
G1 E3.2 F2400
M204 P600
;TYPE:Perimeter
;WIDTH:0.42
G1 F1200
G1 X106.482 Y97.757 E.00249
G1 X106.706 Y97.659 E.01084
G1 X106.89 Y97.405 E.01391
G1 X106.919 Y97.232 E.00778
G1 X106.919 Y84.142 E.5806
G1 X111.679 Y71.766 E.58814
G1 X114.774 Y71.766 E.13728
M73 P4 R6
G1 X110.426 Y82.662 E.52035
G1 X110.388 Y82.86 E.00894
G1 X110.388 Y103 E.8933
G1 X110.4 Y103.343 E.01522
G1 X110.488 Y103.415 E.00504
G1 X110.488 Y108.234 E.21375
G1 X69.619 Y108.234 E1.81273
G1 X69.619 Y83.843 E1.08186
M73 P5 R6
G1 X69.586 Y83.658 E.00834
G1 X65.195 Y71.766 E.56228
G1 X68.32 Y71.766 E.13861
G1 X72.981 Y84.388 E.5968
G1 X73.088 Y84.484 E.00638
G1 X73.088 Y97.232 E.56543
G1 X73.096 Y97.324 E.0041
G1 X73.195 Y97.552 E.01103
G1 X73.416 Y97.725 E.01245
G1 X73.621 Y97.766 E.00927
G1 X106.366 Y97.766 E1.4524
M204 P1000
G1 X106.386 Y97.41 F9000
M204 P600
;TYPE:External perimeter
M73 P6 R6
G1 F1200
G1 X106.493 Y97.374 E.00501
G1 X106.564 Y97.232 E.00704
G1 X106.564 Y84.076 E.58353
G1 X111.435 Y71.41 E.60191
G1 X115.299 Y71.41 E.17139
G1 X110.756 Y82.794 E.54366
G1 X110.744 Y82.86 E.00298
G1 X110.744 Y103.232 E.9036
G1 X110.844 Y103.347 E.00676
G1 X110.844 Y108.59 E.23255
G1 X69.264 Y108.59 E1.84427
M73 P7 R6
G1 X69.264 Y83.843 E1.09765
G1 X64.685 Y71.41 E.58767
G1 X68.568 Y71.41 E.17223
G1 X73.314 Y84.265 E.6078
M73 P8 R6
G1 X73.444 Y84.376 E.00758
G1 X73.444 Y97.232 E.57022
G1 X73.479 Y97.339 E.00499
G1 X73.621 Y97.41 E.00704
G1 X106.326 Y97.41 E1.45062
M204 P1000
G1 X106.461 Y97.493 F9000
G1 E-2.24 F4200
;WIPE_START
G1 F7200
G1 X106.493 Y97.374 E-.09467
G1 X106.564 Y97.232 E-.08798
G1 X106.564 Y95.829 E-.77735
;WIPE_END
G1 Z.5 F720
G1 X113.827 Y71.926 F9000
G1 Z.3 F720
G1 E3.2 F2400
M204 P600
;TYPE:Solid infill
;WIDTH:0.420071
G1 F1200
G1 X114.212 Y72.311 E.02415
G1 X114.069 Y72.671 E.01718
G1 X113.484 Y72.086 E.0367
G1 X112.981 Y72.086 E.02231
G1 X113.926 Y73.031 E.05929
G1 X113.783 Y73.39 E.01714
G1 X112.478 Y72.086 E.08184
G1 X111.975 Y72.086 E.02231
G1 X113.64 Y73.75 E.10443
G1 X113.496 Y74.11 E.0172
G1 X111.781 Y72.394 E.10763
G1 X111.641 Y72.758 E.0173
G1 X113.353 Y74.47 E.10741
G1 X113.21 Y74.83 E.01718
M73 P9 R6
G1 X111.501 Y73.121 E.10722
G1 X111.361 Y73.484 E.01726
G1 X113.067 Y75.19 E.10703
G1 X112.924 Y75.55 E.01718
G1 X111.222 Y73.847 E.10681
G1 X111.082 Y74.211 E.0173
G1 X112.781 Y75.91 E.10659
G1 X112.638 Y76.269 E.01714
G1 X110.942 Y74.574 E.10638
G1 X110.802 Y74.937 E.01726
G1 X112.494 Y76.629 E.10616
G1 X112.351 Y76.989 E.01718
G1 X110.663 Y75.301 E.1059
G1 X110.523 Y75.664 E.01726
G1 X112.208 Y77.349 E.10572
G1 X112.065 Y77.709 E.01718
G1 X110.383 Y76.027 E.10553
G1 X110.244 Y76.391 E.01729
G1 X111.922 Y78.069 E.10528
G1 X111.779 Y78.429 E.01718
G1 X110.104 Y76.754 E.10509
G1 X109.964 Y77.117 E.01726
G1 X111.635 Y78.788 E.10484
G1 X111.492 Y79.148 E.01718
G1 X109.824 Y77.48 E.10465
G1 X109.685 Y77.844 E.01729
G1 X111.349 Y79.508 E.1044
G1 X111.206 Y79.868 E.01718
G1 X109.545 Y78.207 E.10421
G1 X109.405 Y78.57 E.01726
G1 X111.063 Y80.228 E.10402
G1 X110.92 Y80.588 E.01718
G1 X109.265 Y78.934 E.1038
G1 X109.126 Y79.297 E.01724
G1 X110.777 Y80.948 E.10358
G1 X110.633 Y81.308 E.0172
G1 X108.986 Y79.66 E.10336
G1 X108.846 Y80.023 E.01726
G1 X110.49 Y81.667 E.10314
G1 X110.347 Y82.027 E.01718
G1 X108.707 Y80.387 E.10289
G1 X108.567 Y80.75 E.01726
G1 X110.204 Y82.387 E.1027
G1 X110.084 Y82.689 E.01442
G1 X110.077 Y82.763 E.0033
G1 X108.427 Y81.113 E.10352
G1 X108.287 Y81.477 E.0173
G1 X110.068 Y83.257 E.11171
G1 X110.068 Y83.76 E.02231
G1 X108.148 Y81.84 E.12046
G1 X108.008 Y82.203 E.01726
G1 X110.068 Y84.263 E.12924
G1 X110.068 Y84.766 E.02231
G1 X107.868 Y82.567 E.138
G1 X107.728 Y82.93 E.01726
M73 P10 R6
G1 X110.068 Y85.269 E.14678
G1 X110.068 Y85.772 E.02231
G1 X107.589 Y83.293 E.15553
G1 X107.449 Y83.656 E.01726
G1 X110.068 Y86.275 E.16432
G1 X110.068 Y86.778 E.02231
G1 X107.309 Y84.02 E.17307
G1 X107.239 Y84.202 E.00865
G1 X107.239 Y84.453 E.01114
G1 X110.068 Y87.281 E.17746
G1 X110.068 Y87.784 E.02231
G1 X107.239 Y84.956 E.17746
G1 X107.239 Y85.459 E.02231
G1 X110.068 Y88.287 E.17746
G1 X110.068 Y88.79 E.02231
G1 X107.239 Y85.962 E.17746
G1 X107.239 Y86.465 E.02231
G1 X110.068 Y89.293 E.17746
G1 X110.068 Y89.797 E.02236
G1 X107.239 Y86.968 E.17749
G1 X107.239 Y87.471 E.02231
G1 X110.068 Y90.3 E.17749
G1 X110.068 Y90.803 E.02231
G1 X107.239 Y87.974 E.17749
G1 X107.239 Y88.477 E.02231
G1 X110.068 Y91.306 E.17749
G1 X110.068 Y91.809 E.02231
G1 X107.239 Y88.98 E.17749
G1 X107.239 Y89.483 E.02231
G1 X110.068 Y92.312 E.17749
G1 X110.068 Y92.815 E.02231
G1 X107.239 Y89.986 E.17749
G1 X107.239 Y90.489 E.02231
G1 X110.068 Y93.318 E.17749
G1 X110.068 Y93.821 E.02231
G1 X107.239 Y90.992 E.17749
G1 X107.239 Y91.495 E.02231
G1 X110.068 Y94.324 E.17749
G1 X110.068 Y94.827 E.02231
M73 P11 R6
G1 X107.239 Y91.998 E.17749
G1 X107.239 Y92.501 E.02231
G1 X110.068 Y95.33 E.17749
G1 X110.068 Y95.833 E.02231
G1 X107.239 Y93.004 E.17749
G1 X107.239 Y93.507 E.02231
G1 X110.068 Y96.336 E.17749
G1 X110.068 Y96.839 E.02231
G1 X107.239 Y94.01 E.17749
G1 X107.239 Y94.513 E.02231
G1 X110.068 Y97.342 E.17749
G1 X110.068 Y97.845 E.02231
G1 X107.239 Y95.016 E.17749
G1 X107.239 Y95.519 E.02231
G1 X110.068 Y98.348 E.17749
G1 X110.068 Y98.851 E.02231
G1 X107.239 Y96.022 E.17749
G1 X107.239 Y96.525 E.02231
G1 X110.068 Y99.354 E.17749
G1 X110.068 Y99.857 E.02231
G1 X107.239 Y97.028 E.17749
G1 X107.239 Y97.244 E.00958
G1 X107.198 Y97.49 E.01106
G1 X110.068 Y100.36 E.18006
G1 X110.068 Y100.863 E.02231
G1 X107.01 Y97.805 E.19186
G1 X106.9 Y97.915 E.0069
G1 X106.72 Y98.018 E.0092
G1 X110.068 Y101.366 E.21005
G1 X110.068 Y101.869 E.02231
G1 X106.285 Y98.086 E.23734
G1 X105.782 Y98.086 E.02231
G1 X110.068 Y102.372 E.2689
G1 X110.068 Y102.875 E.02231
G1 X105.279 Y98.086 E.30046
G1 X104.776 Y98.086 E.02231
M73 P12 R6
G1 X110.084 Y103.394 E.33302
G1 X110.09 Y103.453 E.00263
G1 X110.168 Y103.516 E.00445
G1 X110.168 Y103.981 E.02063
G1 X104.273 Y98.086 E.36985
G1 X103.77 Y98.086 E.02231
G1 X110.168 Y104.484 E.40141
G1 X110.168 Y104.987 E.02231
G1 X103.267 Y98.086 E.43297
G1 X102.763 Y98.086 E.02236
G1 X110.168 Y105.49 E.46456
G1 X110.168 Y105.993 E.02231
G1 X102.26 Y98.086 E.49611
G1 X101.757 Y98.086 E.02231
G1 X110.168 Y106.496 E.52767
G1 X110.168 Y106.999 E.02231
G1 X101.254 Y98.086 E.55923
G1 X100.751 Y98.086 E.02231
M73 P13 R6
G1 X110.168 Y107.502 E.59079
G1 X110.168 Y107.914 E.01828
G1 X110.077 Y107.914 E.00404
G1 X100.248 Y98.086 E.61664
G1 X99.745 Y98.086 E.02231
G1 X109.574 Y107.914 E.61664
G1 X109.071 Y107.914 E.02231
G1 X99.242 Y98.086 E.61664
G1 X98.739 Y98.086 E.02231
G1 X108.568 Y107.914 E.61664
G1 X108.065 Y107.914 E.02231
G1 X98.236 Y98.086 E.61664
G1 X97.733 Y98.086 E.02231
M73 P14 R6
G1 X107.562 Y107.914 E.61664
G1 X107.059 Y107.914 E.02231
G1 X97.23 Y98.086 E.61664
G1 X96.727 Y98.086 E.02231
G1 X106.556 Y107.914 E.61664
G1 X106.053 Y107.914 E.02231
G1 X96.224 Y98.086 E.61664
G1 X95.721 Y98.086 E.02231
G1 X105.55 Y107.914 E.61664
G1 X105.047 Y107.914 E.02231
G1 X95.218 Y98.086 E.61664
G1 X94.715 Y98.086 E.02231
M73 P15 R6
G1 X104.544 Y107.914 E.61664
G1 X104.041 Y107.914 E.02231
G1 X94.212 Y98.086 E.61664
G1 X93.709 Y98.086 E.02231
G1 X103.538 Y107.914 E.61664
G1 X103.035 Y107.914 E.02231
G1 X93.206 Y98.086 E.61664
G1 X92.703 Y98.086 E.02231
G1 X102.532 Y107.914 E.61664
G1 X102.029 Y107.914 E.02231
G1 X92.2 Y98.086 E.61664
G1 X91.697 Y98.086 E.02231
M73 P16 R6
G1 X101.526 Y107.914 E.61664
G1 X101.023 Y107.914 E.02231
G1 X91.194 Y98.086 E.61664
G1 X90.691 Y98.086 E.02231
G1 X100.52 Y107.914 E.61664
G1 X100.017 Y107.914 E.02231
G1 X90.188 Y98.086 E.61664
G1 X89.685 Y98.086 E.02231
G1 X99.514 Y107.914 E.61664
G1 X99.011 Y107.914 E.02231
G1 X89.182 Y98.086 E.61664
G1 X88.679 Y98.086 E.02231
M73 P17 R6
G1 X98.508 Y107.914 E.61664
G1 X98.005 Y107.914 E.02231
G1 X88.176 Y98.086 E.61664
G1 X87.673 Y98.086 E.02231
M73 P17 R5
G1 X97.501 Y107.914 E.61661
G1 X96.998 Y107.914 E.02231
G1 X87.17 Y98.086 E.61661
G1 X86.667 Y98.086 E.02231
G1 X96.495 Y107.914 E.61661
G1 X95.992 Y107.914 E.02231
G1 X86.164 Y98.086 E.61661
M73 P18 R5
G1 X85.661 Y98.086 E.02231
G1 X95.489 Y107.914 E.61661
G1 X94.986 Y107.914 E.02231
G1 X85.158 Y98.086 E.61661
G1 X84.655 Y98.086 E.02231
G1 X94.483 Y107.914 E.61661
G1 X93.98 Y107.914 E.02231
G1 X84.152 Y98.086 E.61661
G1 X83.649 Y98.086 E.02231
G1 X93.477 Y107.914 E.61661
G1 X92.974 Y107.914 E.02231
M73 P19 R5
G1 X83.146 Y98.086 E.61661
G1 X82.643 Y98.086 E.02231
G1 X92.471 Y107.914 E.61661
G1 X91.968 Y107.914 E.02231
G1 X82.14 Y98.086 E.61661
G1 X81.637 Y98.086 E.02231
G1 X91.465 Y107.914 E.61661
G1 X90.962 Y107.914 E.02231
G1 X81.134 Y98.086 E.61661
G1 X80.631 Y98.086 E.02231
G1 X90.459 Y107.914 E.61661
G1 X89.956 Y107.914 E.02231
M73 P20 R5
G1 X80.128 Y98.086 E.61661
G1 X79.624 Y98.086 E.02236
G1 X89.453 Y107.914 E.61664
G1 X88.95 Y107.914 E.02231
G1 X79.121 Y98.086 E.61664
G1 X78.618 Y98.086 E.02231
G1 X88.447 Y107.914 E.61664
G1 X87.944 Y107.914 E.02231
G1 X78.115 Y98.086 E.61664
G1 X77.612 Y98.086 E.02231
G1 X87.441 Y107.914 E.61664
G1 X86.938 Y107.914 E.02231
M73 P21 R5
G1 X77.109 Y98.086 E.61664
G1 X76.606 Y98.086 E.02231
G1 X86.435 Y107.914 E.61664
G1 X85.932 Y107.914 E.02231
G1 X76.103 Y98.086 E.61664
G1 X75.6 Y98.086 E.02231
G1 X85.429 Y107.914 E.61664
G1 X84.926 Y107.914 E.02231
G1 X75.097 Y98.086 E.61664
G1 X74.594 Y98.086 E.02231
G1 X84.423 Y107.914 E.61664
G1 X83.92 Y107.914 E.02231
M73 P22 R5
G1 X73.931 Y97.926 E.62667
M204 P1000
G1 E-2.24 F4200
;WIPE_START
G1 F7200
G1 X75.156 Y99.151 E-.96
;WIPE_END
G1 Z.5 F720
G1 X68.595 Y72.971 F9000
G1 Z.3 F720
G1 E3.2 F2400
M204 P600
G1 F1200
G1 X67.709 Y72.086 E.05556
G1 X67.206 Y72.086 E.02231
G1 X68.619 Y73.498 E.08862
G1 X68.913 Y74.296 E.03773
G1 X66.703 Y72.086 E.13865
G1 X66.2 Y72.086 E.02231
G1 X69.208 Y75.093 E.18869
G1 X69.502 Y75.891 E.03773
G1 X65.697 Y72.086 E.23872
G1 X65.655 Y72.086 E.00186
G1 X65.924 Y72.816 E.03451
G1 X69.797 Y76.688 E.24296
G1 X70.091 Y77.486 E.03773
G1 X66.219 Y73.613 E.24296
G1 X66.513 Y74.411 E.03773
G1 X70.386 Y78.283 E.24296
G1 X70.68 Y79.081 E.03773
G1 X66.807 Y75.208 E.24299
G1 X67.102 Y76.006 E.03774
G1 X70.974 Y79.878 E.24293
G1 X71.269 Y80.676 E.03774
G1 X67.396 Y76.803 E.24299
G1 X67.691 Y77.601 E.03774
M73 P23 R5
G1 X71.563 Y81.473 E.24293
G1 X71.858 Y82.271 E.03774
G1 X67.985 Y78.398 E.24299
G1 X68.28 Y79.196 E.03774
G1 X72.152 Y83.068 E.24293
G1 X72.447 Y83.866 E.03774
G1 X68.574 Y79.993 E.24299
G1 X68.869 Y80.791 E.03774
G1 X72.768 Y84.69 E.24462
G1 X72.768 Y85.193 E.02231
G1 X69.163 Y81.588 E.22618
G1 X69.458 Y82.385 E.0377
G1 X72.768 Y85.696 E.2077
G1 X72.768 Y86.199 E.02231
G1 X69.752 Y83.183 E.18922
G1 X69.891 Y83.559 E.01778
G1 X69.939 Y83.873 E.01409
G1 X72.768 Y86.702 E.17749
G1 X72.768 Y87.205 E.02231
G1 X69.939 Y84.376 E.17749
G1 X69.939 Y84.879 E.02231
G1 X72.768 Y87.708 E.17749
G1 X72.768 Y88.211 E.02231
G1 X69.939 Y85.382 E.17749
G1 X69.939 Y85.885 E.02231
G1 X72.768 Y88.714 E.17749
G1 X72.768 Y89.217 E.02231
G1 X69.939 Y86.388 E.17749
G1 X69.939 Y86.891 E.02231
G1 X72.768 Y89.72 E.17749
G1 X72.768 Y90.223 E.02231
M73 P24 R5
G1 X69.939 Y87.394 E.17749
G1 X69.939 Y87.897 E.02231
G1 X72.768 Y90.726 E.17749
G1 X72.768 Y91.229 E.02231
G1 X69.939 Y88.401 E.17746
G1 X69.939 Y88.904 E.02231
G1 X72.768 Y91.732 E.17746
G1 X72.768 Y92.235 E.02231
G1 X69.939 Y89.407 E.17746
G1 X69.939 Y89.91 E.02231
G1 X72.768 Y92.738 E.17746
G1 X72.768 Y93.241 E.02231
G1 X69.939 Y90.413 E.17746
G1 X69.939 Y90.916 E.02231
G1 X72.768 Y93.744 E.17746
G1 X72.768 Y94.247 E.02231
G1 X69.939 Y91.419 E.17746
G1 X69.939 Y91.922 E.02231
G1 X72.768 Y94.75 E.17746
G1 X72.768 Y95.253 E.02231
G1 X69.939 Y92.425 E.17746
G1 X69.939 Y92.928 E.02231
G1 X72.768 Y95.756 E.17746
G1 X72.768 Y96.259 E.02231
G1 X69.939 Y93.431 E.17746
G1 X69.939 Y93.934 E.02231
G1 X72.928 Y96.922 E.1875
M204 P1000
G1 E-2.24 F4200
;WIPE_START
G1 F7200
G1 X71.703 Y95.697 E-.96
;WIPE_END
G1 Z.5 F720
G1 X69.779 Y94.277 F9000
G1 Z.3 F720
G1 E3.2 F2400
M204 P600
G1 F1200
G1 X72.772 Y97.27 E.18778
G1 X72.812 Y97.509 E.01075
G1 X72.937 Y97.744 E.01181
G1 X73.108 Y97.915 E.01073
G1 X73.292 Y98.02 E.0094
G1 X73.466 Y98.072 E.00806
G1 X73.586 Y98.083 E.00535
G1 X83.417 Y107.914 E.61679
G1 X82.914 Y107.914 E.02231
M73 P25 R5
G1 X69.939 Y94.94 E.81402
G1 X69.939 Y95.443 E.02231
G1 X82.411 Y107.914 E.78246
G1 X81.908 Y107.914 E.02231
G1 X69.939 Y95.946 E.7509
G1 X69.939 Y96.449 E.02231
G1 X81.405 Y107.914 E.71934
G1 X80.902 Y107.914 E.02231
G1 X69.939 Y96.952 E.68778
G1 X69.939 Y97.455 E.02231
M73 P26 R5
G1 X80.399 Y107.914 E.65623
G1 X79.896 Y107.914 E.02231
G1 X69.939 Y97.958 E.62467
G1 X69.939 Y98.461 E.02231
G1 X79.393 Y107.914 E.59311
G1 X78.89 Y107.914 E.02231
G1 X69.939 Y98.964 E.56155
G1 X69.939 Y99.467 E.02231
G1 X78.387 Y107.914 E.52999
G1 X77.884 Y107.914 E.02231
G1 X69.939 Y99.97 E.49843
G1 X69.939 Y100.473 E.02231
M73 P27 R5
G1 X77.381 Y107.914 E.46688
G1 X76.878 Y107.914 E.02231
G1 X69.939 Y100.976 E.43532
G1 X69.939 Y101.479 E.02231
G1 X76.375 Y107.914 E.40376
G1 X75.872 Y107.914 E.02231
G1 X69.939 Y101.982 E.3722
G1 X69.939 Y102.485 E.02231
G1 X75.369 Y107.914 E.34064
G1 X74.866 Y107.914 E.02231
G1 X69.939 Y102.988 E.30909
G1 X69.939 Y103.491 E.02231
G1 X74.362 Y107.914 E.2775
G1 X73.859 Y107.914 E.02231
G1 X69.939 Y103.994 E.24594
G1 X69.939 Y104.497 E.02231
G1 X73.356 Y107.914 E.21438
G1 X72.853 Y107.914 E.02231
G1 X69.939 Y105 E.18282
G1 X69.939 Y105.503 E.02231
M73 P28 R5
G1 X72.35 Y107.914 E.15127
G1 X71.847 Y107.914 E.02231
G1 X69.939 Y106.006 E.11971
G1 X69.939 Y106.509 E.02231
G1 X71.344 Y107.914 E.08815
G1 X70.841 Y107.914 E.02231
G1 X69.939 Y107.012 E.05659
G1 X69.939 Y107.515 E.02231
G1 X70.498 Y108.074 E.03507
M204 P1000
; stop printing object toio_dock_attempt3v3.stl id:0 copy 0
M106 S84.15
;LAYER_CHANGE
;Z:0.6
;HEIGHT:0.3
;BEFORE_LAYER_CHANGE
G92 E0.0
;0.6


G1 E-2.24 F4200
;WIPE_START
G1 F7200
G1 X69.939 Y107.515 E-.43809
G1 X69.939 Y107.012 E-.27875
G1 X70.249 Y107.322 E-.24316
;WIPE_END
G1 Z.5 F720
G1 Z.6
;AFTER_LAYER_CHANGE
;0.6
M104 S210 ; set temperature
; printing object toio_dock_attempt3v3.stl id:0 copy 0
G1 Z.8
G1 X73.902 Y103.6 F9000
G1 Z.6 F720
G1 E3.2 F2400
M204 P900
;TYPE:Perimeter
;WIDTH:0.45
G1 X87.136 Y103.602 E.63651
G1 X87.416 Y103.468 E.01493
G1 X87.54 Y103.316 E.00943
G1 X87.614 Y103.032 E.01412
