; generated by PrusaSlicer 2.6.0+MacOS-arm64 on 2023-07-27 at 02:11:26 UTC
 
 
 ;
 ; thumbnail begin 16x16 632
 ; iVBORw0KGgoAAAANSUhEUgAAABAAAAAQCAYAAAAf8/9hAAABoElEQVR4AYWTSU7DQBBFO9dJ7Kw5AZ
 ; k8JrGdwbGdCCkgZZGcgBMgEAmwZYkQN+AAbECIE33026pWmw2LL/dQ/1V3u0r1ej30+30Mh0N4nvev
 ; 4jhGGIYYDAagV4lxOp0iCAItBlBRFGnJnHu+7+u18XiM0WgExQHNEswMXKMmk4mWzLknQMK4p7hIgA
 ; RznCSJ0bHsmLHEESYgDeBimqaYzWbIskzrOnXwc6XwHCuc1g72gaNjBCQQcwVuzudzLJdLvBe1kSLk
 ; ELp4y2oQ4YwViGJ2UrnBE9CwP6uNVJ7nGnqIunjYuNh5Dk6Voz36DST7k6caZmasqgpFUWC1WhnQzq
 ; 8hL4nC5rxdAxhM2VlpopmQsiwNYLFY6JPKNcwJeL+vbQvHdRePm66BUAQQRgDfqQGw3+C+cvGatvB9
 ; 2dIQGkQC4wkYa95ACoYL8ivvShefW6WDKWaVzPI1f0EqT4qIkH3QwceFwm3hmLrgutSBXQtKKusv6C
 ; ZvN4LtKmQsxT3FRrLrXPrB7gmZ241FM72KbcmOlOaQRrG7UubsRBE99P4CA3X9CEyAaMAAAAAASUVO
 
 ; thumbnail end
 ;
 
 ;
 ; thumbnail begin 220x124 9560
 ; iVBORw0KGgoAAAANSUhEUgAAANwAAAB8CAYAAAACRt5vAAAbx0lEQVR4Ae2dWbMVxZbHt19H0Oh+6I
 ; j71MON28qMqIAzgyAqw2ESkFmUUUFlkkFkMJgUDUcQ1NAIjUBD2o5+Ut/8JtX80ljn5imyqnKuqn14
 ; WHHO2ad2DVn5q7XWf2VmDR544IECe/DBB402adKkSps8eXIxbdq0Yv/+/cWpU6eKzZs3F9OnT1efT5
 ; kyxWhTp06tNPal2xNPPFHs2rWr+P7774vnn3++mDFjhtp/lfH/Jps5c6aVPfTQQ942a9asobCQNrBt
 ; Z5t7VnfPsUceeUT1vV9//bVYu3at+kzvR3V9rqqfij311FPFuXPnirfffrtYvHix+qyOiSqOhLOBD2
 ; wApRsnsXz58mJkZEQ1dtWF2IKG0Whz5sxRMHPz5TMf0FJClqPjP/zww1bWVQhjwdf0sF2wYEHxzjvv
 ; FAsXLjT2KVfo2Oe8efNU3+bay/3eB7pBKGw6dNiiRYuKZ5999o4LsYWNxnv00UeLnTt3Bnu0FJDlBC
 ; i1tQFgDvCefPLJYs+ePU7Qlfvr448/XsyfP1+dc1Wf94Fu4BpC1sGmw/Xiiy8qaB577DHjhZoagyfU
 ; jh07lBvvCmjDAFZOELsCHt8HvJdffln9bgMen69bt644cOCAAq4MoSt0JvAGIV6tLlcDmvfff784fP
 ; hwsXTpUtUIVbBxowhHr127Vuzbt0/dkBSgpYSsT0DlgjAWfL7gAdzJkyeLr7/+upg7d24tdByHvnri
 ; xIliw4YN6vumfh3q7QahIWRdrsZJ47FWrVqlbkA5mdVDyEOHDql4uS3Q2gSMpD+HtQlgW+DRtxBSjh
 ; 07ps7bFFnxXTwa2xFl8VmTmOIL3SAmbHU52rJly4rZs2ffAdv69etV2NkH0PoAVRsw9gE8PkdbQGnU
 ; +yBAIrLgAV1FFR/oBilhK4ePXPjq1auLTZs2FVu3bq3N1VKClhqwrsOVGsJY8IWAV9Wv2C/6wooVK4
 ; o333yzeO6559T2vuUDV+gGuWAT142QcuvWreLmzZvqiVNunD6ClrLT8wR2sS4B2EXwpA/+8ccfxY0b
 ; N9RDP7R84ALdIBdsXCwh5e7du5WhBFFCkAargy0HaLkBcwUptuUGsE3wdOWScyGNeemll5RucPDgQa
 ; O2kAq6QQ7YMOBauXLlHSMEcO0krD6whYKWA7K2wcoFYkz4QsCr6kd8D/EOvUCHkN8RSp555pks0A18
 ; YLMFjYskRn7hhRcq3TsNzI2mMdiW7zTBlgu0YYcrFYRdAo/9oJRTmuJ3/mdSMom+yO3Ybwh4TdANUs
 ; HGOMhXX31VjYNcsmRJrSjCRZLAnj59WokpNIAPbDFAaxMybnoK6zp8IeDVQYdGcP78+eLIkSMKJh3E
 ; cn/kONTfGI8pkVgK6AYpQkgujBj53XffVQ1qo0DSeNRB3nrrLRV+lhuzK6B1Faq2YOwyeAD0yiuvjI
 ; aRTYIK36FE8Mknn6jvpggxrYGzhY0BxySldSpRU65GTke9BC/ZBFwIaKkhywXN/70wUHZo3oRWIYwF
 ; X2iYyYMb9dFHxZTSgZQPOGZMTzeIBdvTTz+titucYF3x0UYY4WIBl2QWT0njlRu7i6DlAkwMwAS22N
 ; CFANgGeHwGaIhw9B3276pilk2uX9T0GNANQmHjQrnIq1evqrlrpqTUV4FkqNeFCxfUlAvGWnITQmCL
 ; DVmsDk0HcbUyaGOgmz9BWfk7bQAYCp5NmMlxyNPee++9YsuWLep7PkqmCTqOwXjMr776SrVhKHSDUM
 ; 9G6Hf58mUV+/qGkHW5GjfkjTfeULkdIWbVTcgFWm6wXGErg2ezvxzwpQRPRo0wSbns/WJAx/mTJlEo
 ; p72EAR/oBr6w0QiEkDRUlUsOhU0PFzgerp24mhsdK3xMBVosuHT7+plBceGRgTVwLtCFQhgLPJcwk5
 ; SDkpNEPq5Kpgt0IuzxPR78vp5u4AobjYs3kwbKAZsYNwxBBblXBkNXQRcDtC5AtnX2BAWZmAtsMcBL
 ; BV8IeIC2Zs0apT7qD986USUGdBJiUiTnHDm2K3TWwLFjQCOevXTpkrpwGbKVAzbdo5Eccw4MD6Px9R
 ; uUG7QYUDFS3WQxQIsFnQ98scHj723bthUXL15US28w381FyYwFHf2eB/93332nhoexD2/gqmDjaUJS
 ; ysBPUWxyw6Z7M0BjcRfOhxvXBFtM0GKDlQM2scPzJ95xrNTwhYIn95xQjkmiGzduvMOz5YROwkmAP3
 ; 78uBJUqjxdLXCmL3AyuFAuVj9gKGwx6mpyQ3gYMHTHF7ZUkLkAZgKNnM0WpJV/GxRnZoWBFwJgDPCq
 ; 7h/nxFIJ7CO0fFAHng908j0+w+uZwDMCV96InVD/gmIaVD9IbtiaRBHOk4sFOoaRcWPaAs0HslCvBm
 ; yuwDVB5wtfTPDYHyM+qPFyLlXANYGXGjphAlY4T1OIOQa48j/xGAyJIUZFGSzvuEuw6TeHtQPPnDmj
 ; zp0LzwVaCGTYttkTvWAT0HyBE+hswHOFLxQ8HpzkaoRsPEh1ELsMHeMwf/nlFyXqlb2dEThOgoV8zp
 ; 49OyqMdA22qtCDm0h8j6DCCBUf2FJDxsNMt1CvFgqci7fzgc8HOjwFdVf6Id6tKtzsInRsg4rOglh7
 ; 9+5V/x8DnPzBP6RD8CXTBFJb4NqArRxCcrO5cDy0DWypQCsDFgobUJlgCwVOQbdgovP1xQaPEBLNQE
 ; JI3/JBKujqlEvdxAFwHZyPcKaAo0EQRciDOHhs2KqASwWbGAt5St2Om+gLWkzIYnu1mMB9NPcvWzlj
 ; ojrPFPBV3QPCRu4Vf3NsHxUzBLqZDuqlLXRSPmD/o8ARa37++edqDFrVl7oMW5MownhMhp6x3iALGM
 ; mT0wa2mJClhg27MvcvC4Vuzz/+MsDzgc8FOjokY2Up8Wzfvr0xt+sydCZ2JHo8evRo8eWXXxaD69ev
 ; 37F02LDAJkaHoX7DTaV43wRbatBc5X4bk+1doKvbrgyeXEcs8OS+UEelMzI4XYdx2KDjvNEXBvJBCG
 ; wueVtu2EzejPCFENoXNlvIcni1ujCyDij+t/sfftC5wFcFHGMgGRfLfZAhWi4qZm7ofEWUsqcbmGYA
 ; xPBuLiJJLNhsRBFuLqNUCGUIN/lpC5sraNvn3BddGDF5tTqoqoAS4GygiwUeP8mriTL4HvVTXyUzFn
 ; QpRJQq4EZFk/ECm27krpQPZEmHmKABcUqvZgNbk5fTgbMFrw66JvDUA+h2jvbBBx8Ur7/++pgHnY2S
 ; OSzQDdrM29qCTZ62FFeBjrUJ8XYhsNGBxFLC5rK/Om9nAs4VOhdvhyjHWFygM8HWRehS5HPRgQvN23
 ; LApoePdBJKBhgTGPVOEwJaSmEkBLom4AS6WN6OdkUQoZgtDzWf0kFM6FLkc97AjSfYdKMz0CnoLFK/
 ; q4NOBy21Vwutr5ls879XAxcaYtJuiCGo34wUoT1N3m88QtcKcC6hZOwwssnI6XivHWtqktQ3gda2MO
 ; JjHHvVzPsagWvydlWCCuojtU/migGdr5IZC7oUoWUU4MYzbDpQ5BlXrlxRNSIdupxeLRVs7BfvI+YC
 ; no23e3nuv6lcjTVGGOFjq2SOF+hqgetiKJkSNt0IgxBVWH5dcjsdur55NUwHLQV0At5Lj/yr2qdr+S
 ; AWdF0LLY3AteXdYuVtPrDZCCIAh5cjF0EA6LowYuPVqqCL7e18ygeu0KXK51J5uUEu75YylEwFmxhi
 ; Csu2d1HubzLO3WSpvV1XoWsrtBwDXB+8W1uwlYWRvng1wtcq2JrgiyGo2ICXGrouejlr4Nr0brGkfx
 ; /Y+ib3Y89Nud8atljgxYau7t6GQpfDy1UC1yXvljqUdIGtj3J/XQjpC15sQaWqbteF0DKHl7MCbjyE
 ; kn33auw7Bmwm8FY/dH+x89n/SubthjW0tAKuD96tj7ClgEwMFbXKQoHjJzU1tQboor9bQ3dptvlcr8
 ; wdO7PcZoKrC3Rd93JewPXNu9nAllLuTwUa+66DLRQ+pjFhjBZh/hqf2ZQPXv37oNj2n38Z4FXBJwCy
 ; lgrg9d3LRQGu797NFbaYXi1V+IghjLjA5gKfjH9koi7DtNjeRVDRgdPNBj5s5DZ8IyUA++rlaoGLGU
 ; 7mVCZ9Q8mUwkgq0Dh2CGh14PE3kH344YdqiTcmitbldlXQVQEXCl+bimWssHLQdjjZlnfrYxHbNYR0
 ; hW7r1q2jg44Z1uarZNoA5wKfAMjLSEamT+i0lwsCrq1wMrV365tXw1KAJsaQNfnJysGElCHlA1fgTP
 ; A1eT+BD0vh5VKFlYNc4WQXvNt4EEZcTHI18jRWlLIFzQScPh4zBDjf0HPFbfBWlOCL7eVihJXBwLXp
 ; 3VyA6/p6kKbjhgojdcaEW9aDZPlAUSCrcjsX6LDl0++LBpwPfIfm/RO+1F4uKXBthZMhsG2bE+dFGU
 ; 2eLRZ0ErqWPZGN2cIGYCzmc+rUqdG30zzVIKi4QifgtQWf3JOD8+4tVky7tzN53CBH/hZae/MFLveI
 ; EYHOFzzdq9lC5gKfTDHC1q1bp1Yra4IzFDqxZbfBW9YCfPo9Y1mJhQ/cWyy/DaANdCnyuEGX8rcYYk
 ; lqYcQmX/OBTvdqobCVwRPQyNc2b96sitm23jAWcOVB4akAFPia7iHgtZHHDfqav1UB17X1IJvAk/3y
 ; bjukeB2SGLABGu/Lu3DhglqL0yX0TA3dGPimTYwKXirgQvO4wTDlb31YD7J8XABAiv/oo4/UWiC81y
 ; 6Wd0MYOXnypIJtz549ysP5iiwpgcMkMgG8GPC5wpYrjxsK4HTQ3pnWnlezhU5C1zIcO3bsUAvvxIBN
 ; QkjeGLRmzZrRWpuPh4vl5WyA0y0Evqp72bZwkhy4FPW3MmxAZjtFxAW22GMhOS8RRupg2bVrl1q4SA
 ; QOlxCT7YF3/fr1oyGkrajSFS9nmqS69DZ4Sx3gq4PNBboswPVFMPGZ/t/2epC2wgiLF7EGP+tjSijY
 ; 9B3GQSL3U8TmO035XZ+A003gWzp1ghVwsetxIUplb4HjndR1y3WbvF2uELLKo7qokHiq3bt3q9yO4j
 ; QA1m372muvqbU0jxw5okaO2ByjD2GlzYxwwCvDp8N2F7jA/M2UHzVB1xZomKkeZmuEhSJ4AFZVrrZ8
 ; +XI1+Jhw0nbfbXi5FMDpBngv3rZnH2we5nUXuAbgGLBalx/VQde2V/OBTTeK1Mj7AKWDB2gyDtLHhg
 ; 04l9kDvQIut0JpK0q4Apdy5SxTh/UFQ2zt2rVqjUzef0DI2ZSr3QUuz8yBoQLOtbObwGtDGEkB3KpV
 ; q4pbt24VP//8s6qxMWqkT8DVQXcXuJaBC+n4ZejaCiFjAkcoiSCCZ8MIManbmXK7u8DdBc4JuBgj73
 ; VBJbcwEhs4ljugMF72aISYmGu97m5I2TPgUosmzGeKNceM/aRcD9K107p4NJRHygJ1oSPbUehmObu6
 ; 8kEobHeBG3KVUqCLPbkzltG5fDqtDQyIISdOnBgzDrJue4Zwffzxx2qOG/DZhJnDCFxVPfcucA6F75
 ; GI3i6GlV+UkQI6ACJPY96abY4GlAcPHlTv1K6q27UJ213gIgOXcixlV6AzvSgjBnDyObkakDGW0jY0
 ; NIWYjMdkZre+7/EKXFV/swHOJn8LBq6rswVklaa2wKvraKHQAQe5Giqky2iRJmPIF2JLyNQcW9hShJ
 ; NVwHVJMAkevNxV4FJ4u/9Zco+y/33+HusQMhZwAh0DlMm/jh49OuqVYtm+fftGx2PqE1yH0bsNFXBd
 ; GG0yBroZE6MIKgJcE3RHF94fHTo6P6oi4R/Q4dlM4WaorVixQgkwzIvzCSljeLfxXhLoDXBV0EnDC3
 ; ihsMUAz6UTAxf1M2DQIYgNm75fiuT6dJ+ue7cuCiZRgOuLcNIEnSt4VcClhA7QkPkRRkRJrMvtQkEz
 ; GQOhUUAZJsbx6857GL1bW4JJNuBShZX6TZCXPthCVwebDp0PeFWdl6k2vCjj9OnTqlZmE9rFgkw3iu
 ; isn3L+/Pli586d6iFgOu8csA1j/uYFXJeEk6awsgxeE3RAZANciLczgUOutn//fiVeuIR0KUwUTFYL
 ; Y6Z4KtiGPZx0EUw6udR5iJfToatb28QFNlvo6sCjEC25WtugVXleVg4TT+diXYAtRTiZIn8b6rfncN
 ; NWGrydD2w+3o6OTJ7GWEhytdA6WGojl6MksWnTJpXjtRlK9tm71YWTnX0/nAtwttAJeKHA2UCHJzt2
 ; 7JgaB0mO1CRMdME4P2aPU7NjgivrY9aFll0JJfsUTkZ7A2oIcLHFExN0Ah5h5gdz7okGXR14n26drD
 ; wc8LmomG2Appu8VQclFXElBWw+QkkqsSRnOBkNuK57ORN0McFLXbPLAZrp/CjKL168eHR7G9ByhpJ9
 ; CCdrgWsrrMwNXQpv5yOotAGeiyDC9vJWVIr0eOthgi13OOkNXN+8XBm6rnm71PC5Ko9lYykHFpilhI
 ; DHywnbMHk3I3BtqZU5vVwZupzezrWz54bLlKvxO2WNixcvqtWgTeFlCGzD4N2a1Ekn4Nr0cq4Ciit0
 ; uQWVmECktCovBtQUyplGZANaCtjarLuFeDcF3LRp0zoDXBuhZW5v5+PlugCabkySpa5Ibgd8fC82bH
 ; 33bibgYM0IXF+8XArocni7rkFnqz7q4SNiCutinjt3Tk1wxfN1DbauebdR4Nrycl2ELoWgcmtJN72c
 ; K2jlEJJ9MB7zzJkzSsW0gayLsOXybrXA9Sm0TAldqLe7uWigrAzdkYX3jRElugqYjTAiuR2DsrGcsP
 ; UhlGwNuDZCSx/o6ESIAoy0WPPwv3hDJ7DZQKdbVwCzVSDFKJTTZiiajFiJBVvuUDILcG16ubah08Gj
 ; o7L+B3PFNm/erDqcr7fzBa4rZguaHkri4XhPHUs6MMGV/TS1fVuw5fZudwAXO5dLFVqmhI6FfBADGL
 ; xLZ/EVVMqw9QU6F8iqcjZGpIigwrIObcMWGkrGyN2sgWs7tMwFHSPlUd6kw4QIKlWwiZVLBW1D5wqZ
 ; rTgi2xGeEzl0HbbU3s0IXBdDy9jQ6eCRa1BXIuln2JKtoFLl7Zpg64qX84HMR4UENHI72pmf7KPp3q
 ; SGrY1QMitwbUHXpF4y2ZJ8g5dg4NVcVMyyt3MBzgjdgnTQ+cLlA5pJGOEzpioxP5AlJhBWqrzbbEc1
 ; MiVsSYCbOnVqMd6g42Zv2bKlOHv2rFo2rirccS0fXJ49sAbOGFrehq6p46eAKRVoprD98uXLahA024
 ; 832GCtEri287lU0JGnySI+DE+SJ62NktYEnitwJi+XGqDYkNmApnszaUcecizp0DZsuULJUeD4Ugov
 ; 1zXouNGSP4hy5qpiNoG3amZ/oXOFzBa0qtBR1k0hlCeHroKuK7DF8G5q8PKNGzfUxfOHCbw+QlcGD8
 ; DIH1irg+Q9tHxQB96+/w4PLbsKWAzQyu1MzZOhYYT4nJfcu7p720fYOB6sDYirP/vss2Ljxo3ZQsuc
 ; 0BE+Mo+LvIEHizxJbZQy246lw9dFLxcClytkNqDp3oztyaPJ7VjhjL/bgi1V3kb6cvPmTTUCR6mUNC
 ; g3hhNnZzbAdR06biY5AteFV6sKWVKAFwO6wwsmRgGlq6CVjdBSf09532AzAcdn9D/2A3ijoomEkpwk
 ; DSc79fFybUPHzRMFTNbubxJUYoO36raAQmjpApwptOwDZKGglXM1eTjKw6sOtDZgs/Vucm7kqcLYGO
 ; DE2IgXPRBX86U+QceNoqZGrkao7KJi2kJnC96qGf3xcq6AuYDmApsY+7506VJx5MgRtSo02/QFNr5L
 ; +vLjjz+qY5b5GkyZMmXMB3wJKplUeP36dVWk7AN0hCI8JI4fP67eg1aXeMcCrwm+LkLnC5crZD6g6U
 ; aNkXvJS0d4/XLZ03URNv7+4osv1HlL/qYbrCngytBhnAzgcXGcsL7zFMqlD3QCHg8FYmWGDgGe3Bxb
 ; FTMGeCb4fELLMnAuoWUoTDEgswHNVoXkdxnfKoJXXV+IAZuPSMLvnJsulJhgGwOcCTqMg3GxkvzJgb
 ; oAnUDBTQE6VxXTFrwQ+KJ4ufkTk8GUE7Im0KryNfZPrY7fOTe2K/eJ3LAJB+yL80INb4LtDuCqoGNH
 ; AEfIRqjJQdqATowLZGwe0z8oZ9Ql1W2Dh62cMSEYuq4BlgO0cvjI4HJCzL1796pIpg601J6Nn0D2++
 ; +/q/Oygc0aOKmS4+kQJOjoXFDKnK4KPF3UAX46i42gEhs8F/gAzje0PDNrUKz8W1zgfOFyhSwUtHKu
 ; xt+sEkbN7uDBg0rRdAEtVs7GTwSdH374QV1DFWxWwNVBJzU7ciUJL6vMBTpbb8exSaZlzfu65DkEuh
 ; Tw+Xg5QBPLBVMOyFy8msn4Lt6F86L0IzpDLK9WF0bKd/hZl7OZYFPATZ48uXCFDuPiGI7DxUixPCV0
 ; NKrkanoo0SSo5AavDkBX6HTgUoEUA7CYoDXBpj+A6QsMbuBBzPFnRRiuZYKNvs3n7Ese9D6wwZoCzh
 ; c6TgbJ9tNPP1XhpulkQ6Fj1AHvxGZ9e2lUHyWzTfgEQJfQUoctB3C+1xULMhfQyrZ9+3YV4m3YsEEd
 ; KzZsnNu1a9fUK6PLw7ZcYGsEzgY6ToYVeK9evaqS2RjQCXiynv2BAwfU06xJTKm7YbHB84Vv5fRmL1
 ; eGLTZwvnC5QhYDNBthhG3I51n4iXGZXGNd33IJI0UYYd1NX9iMwIVAx4kh23JyMXI6GpF8hBCSkQbc
 ; FBclMzd4rvA1zSjwAS4UopiQ5QKtbIgojDCi76CqmzycLWzSNzlPSZlCYbsDuBDoxCiW49rrLqQOPB
 ; pT1hnhYkPKBzHA84GvCcA6L2eCDUsNVChgtpCFgtakQmJMx6IPyf5cvRr74CFGumQa/e8LmxG4GNBx
 ; gYSDlBBoYBvoaEhC0n379qnGCi0fpADPFz4TgCboTs5oDzbf63Jpu5SglfsL25NzkY6gaou4Vwcb27
 ; A9Qxp1FTIWbAq4SZMmFbGh4+QpTPJC+W+//dYYauoXjvtnfRHeLU0+WJXsNj3ZQsHLBZ9YObRMDVro
 ; +aaALIZHq8rV8FKMa+TBPzIyMsbTlfsjx/nmm2+KU6dOjRm2FRM2WFPApYBOpvvglgkzq8JLtqFhVq
 ; 9erWps0ihNgoovdCnA84VvZPq9o8CVYYsFRxuQxQLN1auZcjV+p1hO1MR1cNxyX2Qb+h5OomoSaQzY
 ; xgCXCjrxeIgfXLTu3aifsEgoDeGqYuYCzwc+FwgFOgFt4QP39g4uF8hSg1aVr/E9anao3bIf6ZsILS
 ; avFhu2O4CLBV0VeDQGQ3Jw8yyFzcXrLt63fJALvBD46iDc8h/tebXQ63Fpu1DQbL1anTjCQx6d4Nix
 ; Y8Vvv/2mzssFtBDYjMBVQRfD29FgwPbTTz+p3I6Lt1Uxc4DnCl8MADG8motXzAlUCGC2kOUATQ8fqd
 ; f9+eefCjoGbKTwaibYKoFLCR0vycAY7c8oEpeaXWiYmRq+WAB2yXzaIBZkvuFjXUmKGh2hJefJ0EQe
 ; ShJexvJqVbBh/w/xx/KxgdoRugAAAABJRU5ErkJggg==
 ; thumbnail end
 ;
 ; 
 
 ; external perimeters extrusion width = 0.45mm
 ; perimeters extrusion width = 0.45mm
 ; infill extrusion width = 0.45mm
 ; solid infill extrusion width = 0.45mm
 ; top infill extrusion width = 0.40mm
 ; first layer extrusion width = 0.42mm
 
 M73 P0 R7
 M201 X179 Y179 Z400 E5000 ; sets maximum accelerations, mm/sec^2
 M203 X178.622950826896 Y179 Z12 E80 ; sets maximum feedrates, mm / sec
 M204 P2000 R1250 T2500 ; sets acceleration (P, T) and retract acceleration (R), mm/sec^2
 M205 X6.622950826895996 Y8.0 Z2.00 E10.00 ; sets the jerk limits, mm/sec
 M205 S0 T0 ; sets the minimum extruding and travel feed rate, mm/sec
 ;TYPE:Custom
 M862.3 P "MINI" ; printer model check
 G90 ; use absolute coordinates
 M83 ; extruder relative mode
 M104 S170 ; set extruder temp for bed leveling
 M140 S60 ; set bed temp
 M109 R170 ; wait for bed leveling temp
 M190 S60 ; wait for bed temp
 M204 T1250 ; set travel acceleration
 G28 ; home all without mesh bed level
 G29 ; mesh bed leveling 
 M204 T2500 ; restore travel acceleration
 M104 S215 ; set extruder temp
 G92 E0
 G1 Y-2.0 X177.622950826896 F2400
 G1 Z3 F720
 M109 S215 ; wait for extruder temp
 
 ; intro line
 M73 P1 R7
 G1 X168.622950826896 F1000
 G1 Z0.2 F720
 G1 X108.622950826896 E8 F900
 G1 X38.622950826895995 E10 F700
 G92 E0
 
 M221 S95 ; set flow
 G21 ; set units to millimeters
 G90 ; use absolute coordinates
 M83 ; use relative distances for extrusion
 M900 K0.2 ; Filament gcode LA 1.5
 G0 X90 Y90 Z15; ; Filament gcode LA 1.0
 M107
 ;LAYER_CHANGE
 ;Z:0.3
 ;HEIGHT:0.3
 ;BEFORE_LAYER_CHANGE
 G92 E0.0
 ;0.3
 
 
 M73 P2 R7
 G1 E-3.2 F4200
 M73 P3 R7
 G1 Z.2 F720
 G1 Z.3
 ;AFTER_LAYER_CHANGE
 ;0.3
 ; printing object toio_dock_attempt3v3.stl id:0 copy 0
 G1 Z.5
 G1 X105.048950826896 Y97.762 F9000
 G1 Z.3 F720
 M73 P3 R6
 G1 E3.2 F2400
 M204 P600
 ;TYPE:Perimeter
 ;WIDTH:0.42
 G1 F1200
 G1 X105.104950826896 Y97.757 E.00249
 G1 X105.328950826896 Y97.659 E.01084
 G1 X105.512950826896 Y97.405 E.01391
 G1 X105.541950826896 Y97.232 E.00778
 G1 X105.541950826896 Y84.142 E.5806
 G1 X110.301950826896 Y71.766 E.58814
 G1 X113.396950826896 Y71.766 E.13728
 M73 P4 R6
 G1 X109.048950826896 Y82.662 E.52035
 G1 X109.010950826896 Y82.86 E.00894
 G1 X109.010950826896 Y103.0 E.8933
 G1 X109.02295082689601 Y103.343 E.01522
 G1 X109.110950826896 Y103.415 E.00504
 G1 X109.110950826896 Y108.234 E.21375
 G1 X68.241950826896 Y108.234 E1.81273
 G1 X68.241950826896 Y83.843 E1.08186
 M73 P5 R6
 G1 X68.208950826896 Y83.658 E.00834
 G1 X63.81795082689599 Y71.766 E.56228
 G1 X66.942950826896 Y71.766 E.13861
 G1 X71.603950826896 Y84.388 E.5968
 G1 X71.710950826896 Y84.484 E.00638
 G1 X71.710950826896 Y97.232 E.56543
 G1 X71.718950826896 Y97.324 E.0041
 G1 X71.817950826896 Y97.552 E.01103
 G1 X72.038950826896 Y97.725 E.01245
 G1 X72.243950826896 Y97.766 E.00927
 G1 X104.988950826896 Y97.766 E1.4524
 M204 P1000
 G1 X105.008950826896 Y97.41 F9000
 M204 P600
 ;TYPE:External perimeter
 M73 P6 R6
 G1 F1200
 G1 X105.115950826896 Y97.374 E.00501
 G1 X105.186950826896 Y97.232 E.00704
 G1 X105.186950826896 Y84.076 E.58353
 G1 X110.057950826896 Y71.41 E.60191
 G1 X113.92195082689601 Y71.41 E.17139
 G1 X109.378950826896 Y82.794 E.54366
 G1 X109.366950826896 Y82.86 E.00298
 G1 X109.366950826896 Y103.232 E.9036
 G1 X109.466950826896 Y103.347 E.00676
 G1 X109.466950826896 Y108.59 E.23255
 G1 X67.886950826896 Y108.59 E1.84427
 M73 P7 R6
 G1 X67.886950826896 Y83.843 E1.09765
 G1 X63.307950826896 Y71.41 E.58767
 G1 X67.190950826896 Y71.41 E.17223
 G1 X71.936950826896 Y84.265 E.6078
 M73 P8 R6
 G1 X72.066950826896 Y84.376 E.00758
 G1 X72.066950826896 Y97.232 E.57022
 G1 X72.101950826896 Y97.339 E.00499
 G1 X72.243950826896 Y97.41 E.00704
 G1 X104.948950826896 Y97.41 E1.45062
 M204 P1000
 G1 X105.083950826896 Y97.493 F9000
 G1 E-2.24 F4200
 ;WIPE_START
 G1 F7200
 G1 X105.115950826896 Y97.374 E-.09467
 G1 X105.186950826896 Y97.232 E-.08798
 G1 X105.186950826896 Y95.829 E-.77735
 ;WIPE_END
 G1 Z.5 F720
 G1 X112.449950826896 Y71.926 F9000
 G1 Z.3 F720
 G1 E3.2 F2400
 M204 P600
 ;TYPE:Solid infill
 ;WIDTH:0.420071
 G1 F1200
 G1 X112.834950826896 Y72.311 E.02415
 G1 X112.691950826896 Y72.671 E.01718
 G1 X112.106950826896 Y72.086 E.0367
 G1 X111.603950826896 Y72.086 E.02231
 G1 X112.548950826896 Y73.031 E.05929
 G1 X112.405950826896 Y73.39 E.01714
 G1 X111.100950826896 Y72.086 E.08184
 G1 X110.597950826896 Y72.086 E.02231
 G1 X112.262950826896 Y73.75 E.10443
 G1 X112.118950826896 Y74.11 E.0172
 G1 X110.40395082689601 Y72.394 E.10763
 G1 X110.26395082689601 Y72.758 E.0173
 G1 X111.975950826896 Y74.47 E.10741
 G1 X111.832950826896 Y74.83 E.01718
 M73 P9 R6
 G1 X110.123950826896 Y73.121 E.10722
 G1 X109.983950826896 Y73.484 E.01726
 G1 X111.689950826896 Y75.19 E.10703
 G1 X111.54695082689601 Y75.55 E.01718
 G1 X109.844950826896 Y73.847 E.10681
 G1 X109.704950826896 Y74.211 E.0173
 G1 X111.40395082689601 Y75.91 E.10659
 G1 X111.260950826896 Y76.269 E.01714
 G1 X109.564950826896 Y74.574 E.10638
 G1 X109.42495082689601 Y74.937 E.01726
 G1 X111.116950826896 Y76.629 E.10616
 G1 X110.973950826896 Y76.989 E.01718
