; generated by PrusaSlicer 2.4.2+arm64 on 2023-07-20 at 15:26:01 UTC


;
;

;
;
; 

; external perimeters extrusion width = 0.45mm
; perimeters extrusion width = 0.45mm
; infill extrusion width = 0.45mm
; solid infill extrusion width = 0.45mm
; top infill extrusion width = 0.40mm
; first layer extrusion width = 0.42mm

M73 P0 R12
M201 X2500 Y2500 Z400 E5000 ; sets maximum accelerations, mm/sec^2
M203 X180 Y180 Z12 E80 ; sets maximum feedrates, mm / sec
M204 P1250 R1250 T2500 ; sets acceleration (P, T) and retract acceleration (R), mm/sec^2
M205 X8.00 Y8.00 Z2.00 E10.00 ; sets the jerk limits, mm/sec
M205 S0 T0 ; sets the minimum extruding and travel feed rate, mm/sec
M107
;TYPE:Custom
M862.3 P "MINI" ; printer model check
G90 ; use absolute coordinates
M83 ; extruder relative mode
M104 S170 ; set extruder temp for bed leveling
M140 S60 ; set bed temp
M109 R170 ; wait for bed leveling temp
M190 S60 ; wait for bed temp
M204 T1250 ; set travel acceleration
G28 ; home all without mesh bed level
G29 ; mesh bed leveling 
M204 T2500 ; restore travel acceleration
M104 S215 ; set extruder temp
G92 E0
G1 Y-2 X179 F2400
G1 Z3 F720
M109 S215 ; wait for extruder temp

; intro line
G1 X170 F1000
G1 Z0.2 F720
G1 X110 E8 F900
G1 X40 E10 F700
G92 E0

M221 S95 ; set flow
G21 ; set units to millimeters
G90 ; use absolute coordinates
M83 ; use relative distances for extrusion
M900 K0.2 ; Filament gcode LA 1.5
; ; Filament gcode LA 1.0
M107
;LAYER_CHANGE
;Z:0.2
;HEIGHT:0.2
;BEFORE_LAYER_CHANGE
G92 E0.0
;0.2


M73 P1 R12
G1 E-3.2 F4200
G1 Z.2 F720
;AFTER_LAYER_CHANGE
;0.2
M73 P2 R12
G1 Z.4
G1 X83.697 Y83.244 F9000
G1 Z.2 F720
G1 E3.2 F2400
M204 P800
;TYPE:Skirt/Brim
;WIDTH:0.42
G1 F1200
G1 X84.413 Y82.64 E.02935
G1 X85.259 Y82.072 E.03197
G1 X86.861 Y81.308 E.05566
G1 X88.664 Y80.856 E.05828
G1 X90.296 Y80.763 E.05123
G1 X92.138 Y81.009 E.05828
G1 X93.688 Y81.525 E.05123
G1 X95.309 Y82.434 E.05828
G1 X96.048 Y83.01 E.02935
G1 X96.779 Y83.72 E.03197
G1 X97.857 Y85.131 E.05566
G1 X98.672 Y86.801 E.05828
G1 X99.1 Y88.378 E.05123
G1 X99.241 Y90.231 E.05828
G1 X99.056 Y91.855 E.05123
G1 X98.502 Y93.629 E.05828
G1 X98.091 Y94.47 E.02935
G1 X97.466 Y95.449 E.03642
G1 X96.39 Y96.679 E.05123
G1 X94.924 Y97.822 E.05828
G1 X93.47 Y98.566 E.05124
G1 X91.685 Y99.087 E.05828
G1 X90.757 Y99.211 E.02935
G1 X89.596 Y99.233 E.03642
G1 X87.976 Y99.017 E.05123
G1 X86.213 Y98.429 E.05828
G1 X85.38 Y98.003 E.02935
G1 X84.413 Y97.36 E.03642
G1 X83.204 Y96.26 E.05123
G1 X82.089 Y94.773 E.05828
G1 X81.372 Y93.305 E.05123
G1 X80.885 Y91.511 E.05828
G1 X80.761 Y89.882 E.05123
G1 X80.972 Y88.035 E.05828
G1 X81.217 Y87.131 E.02935
G1 X81.589 Y86.182 E.03197
G1 X82.472 Y84.642 E.05566
G1 X83.657 Y83.289 E.0564
M204 P1000
G1 X83.94 Y83.537 F9000
M204 P800
G1 F1200
G1 X85.182 Y82.56 E.04952
G1 X86.786 Y81.74 E.05649
G1 X87.62 Y81.462 E.02757
G1 X88.588 Y81.251 E.03108
G1 X90.274 Y81.14 E.05298
G1 X92.06 Y81.377 E.05649
G1 X93.529 Y81.867 E.04856
G1 X95.101 Y82.748 E.05649
G1 X95.794 Y83.289 E.02757
G1 X96.505 Y83.979 E.03108
G1 X97.532 Y85.321 E.05298
G1 X98.322 Y86.94 E.05649
G1 X98.728 Y88.435 E.04856
G1 X98.864 Y90.231 E.05649
G1 X98.688 Y91.77 E.04856
G1 X98.151 Y93.49 E.05649
G1 X97.765 Y94.28 E.02757
G1 X97.156 Y95.235 E.03552
G1 X96.136 Y96.4 E.04856
G1 X94.715 Y97.508 E.05649
G1 X93.337 Y98.214 E.04856
G1 X92.262 Y98.572 E.03552
G1 X91.402 Y98.753 E.02756
G1 X89.603 Y98.856 E.05649
G1 X88.728 Y98.773 E.02757
G1 X87.62 Y98.538 E.03552
G1 X86.17 Y97.994 E.04856
G1 X84.633 Y97.054 E.05649
G1 X83.487 Y96.012 E.04856
G1 X82.407 Y94.57 E.05649
G1 X81.727 Y93.179 E.04856
G1 X81.255 Y91.44 E.05649
G1 X81.138 Y89.896 E.04856
G1 X81.342 Y88.106 E.05649
G1 X81.573 Y87.257 E.02757
G1 X81.934 Y86.334 E.03108
G1 X82.774 Y84.868 E.05298
G1 X83.901 Y83.582 E.05362
M204 P1000
G1 X84.183 Y83.829 F9000
M204 P800
G1 F1200
G1 X85.379 Y82.882 E.04782
G1 X86.932 Y82.087 E.0547
G1 X87.711 Y81.827 E.02578
G1 X88.792 Y81.599 E.03463
G1 X90.253 Y81.516 E.04588
G1 X91.982 Y81.746 E.0547
G1 X93.37 Y82.209 E.04588
G1 X94.892 Y83.062 E.0547
G1 X96.231 Y84.238 E.05588
G1 X97.206 Y85.512 E.0503
G1 X97.972 Y87.08 E.0547
G1 X98.355 Y88.492 E.04588
G1 X98.487 Y90.231 E.0547
G1 X98.321 Y91.685 E.04588
G1 X97.801 Y93.35 E.0547
G1 X96.927 Y94.903 E.05588
M73 P3 R12
G1 X95.882 Y96.121 E.0503
G1 X94.507 Y97.194 E.0547
G1 X93.204 Y97.861 E.04588
G1 X91.53 Y98.349 E.0547
G1 X90.715 Y98.458 E.02578
G1 X89.61 Y98.479 E.03463
G1 X88.16 Y98.285 E.04588
G1 X86.505 Y97.734 E.0547
G1 X85.229 Y97.018 E.04588
G1 X83.895 Y95.894 E.0547
G1 X82.973 Y94.758 E.04588
G1 X82.415 Y93.805 E.03463
G1 X82.083 Y93.053 E.02578
G1 X81.626 Y91.369 E.0547
G1 X81.515 Y89.91 E.04588
G1 X81.713 Y88.177 E.0547
G1 X82.279 Y86.487 E.05588
G1 X83.076 Y85.095 E.0503
G1 X84.144 Y83.875 E.05085
M204 P1000
; printing object Body1.stl id:0 copy 0
G1 E-2.24 F4200
;WIPE_START
G1 F7200
G1 X85.379 Y82.882 E-.87783
G1 X85.433 Y82.854 E-.03417
;WIPE_END
G1 E-.048 F4200
G1 Z.4 F720
G1 X86.658 Y86.437 F9000
G1 Z.2 F720
G1 E3.2 F2400
M204 P800
;TYPE:Perimeter
G1 F1200
G1 X86.996 Y86.145 E.01399
G1 X87.296 Y85.929 E.0116
G1 X87.611 Y85.736 E.0116
G1 X87.941 Y85.567 E.0116
G1 X88.282 Y85.424 E.0116
G1 X88.633 Y85.307 E.0116
G1 X88.992 Y85.217 E.0116
G1 X89.356 Y85.154 E.0116
G1 X89.718 Y85.12 E.0114
G1 X90.245 Y85.121 E.01652
G1 X90.839 Y85.184 E.01872
G1 X91.193 Y85.258 E.01134
G1 X91.548 Y85.362 E.0116
G1 X91.894 Y85.492 E.0116
G1 X92.23 Y85.648 E.0116
G1 X92.553 Y85.829 E.0116
G1 X92.861 Y86.034 E.0116
G1 X93.153 Y86.262 E.0116
G1 X93.426 Y86.511 E.0116
G1 X93.68 Y86.779 E.0116
G1 X93.913 Y87.067 E.0116
G1 X94.124 Y87.371 E.0116
G1 X94.311 Y87.69 E.0116
G1 X94.473 Y88.023 E.0116
G1 X94.61 Y88.367 E.0116
G1 X94.72 Y88.72 E.0116
G1 X94.802 Y89.074 E.0114
G1 X94.87 Y89.597 E.01652
G1 X94.887 Y90.193 E.01871
G1 X94.86 Y90.554 E.01134
G1 X94.804 Y90.92 E.0116
G1 X94.72 Y91.28 E.0116
G1 X94.61 Y91.633 E.0116
G1 X94.473 Y91.977 E.0116
G1 X94.311 Y92.31 E.0116
G1 X94.124 Y92.629 E.0116
G1 X93.917 Y92.928 E.0114
G1 X93.576 Y93.33 E.01652
G1 X93.146 Y93.743 E.01872
G1 X92.861 Y93.966 E.01134
G1 X92.553 Y94.171 E.0116
G1 X92.23 Y94.352 E.0116
G1 X91.894 Y94.508 E.0116
G1 X91.548 Y94.638 E.0116
G1 X91.193 Y94.742 E.0116
G1 X90.831 Y94.818 E.0116
G1 X90.464 Y94.867 E.0116
G1 X90.095 Y94.888 E.0116
G1 X89.731 Y94.881 E.0114
G1 X89.208 Y94.82 E.01652
G1 X88.625 Y94.691 E.01871
G1 X88.282 Y94.576 E.01134
G1 X87.941 Y94.433 E.0116
G1 X87.611 Y94.264 E.0116
G1 X87.296 Y94.071 E.0116
G1 X86.996 Y93.855 E.0116
G1 X86.718 Y93.621 E.0114
G1 X86.35 Y93.243 E.01652
G1 X85.978 Y92.776 E.01872
G1 X85.784 Y92.471 E.01134
G1 X85.609 Y92.145 E.0116
G1 X85.459 Y91.807 E.0116
G1 X85.336 Y91.458 E.0116
G1 X85.239 Y91.101 E.0116
G1 X85.169 Y90.737 E.0116
G1 X85.127 Y90.37 E.0116
G1 X85.113 Y90 E.0116
G1 X85.127 Y89.63 E.0116
G1 X85.169 Y89.263 E.0116
G1 X85.239 Y88.899 E.0116
G1 X85.336 Y88.542 E.0116
G1 X85.459 Y88.193 E.0116
G1 X85.609 Y87.855 E.0116
G1 X85.784 Y87.529 E.0116
G1 X85.983 Y87.217 E.0116
G1 X86.205 Y86.921 E.0116
G1 X86.615 Y86.479 E.01892
M204 P1000
G1 X86.394 Y86.168 F9000
M204 P800
;TYPE:External perimeter
G1 F1200
G1 X86.764 Y85.847 E.01533
G1 X87.087 Y85.614 E.0125
G1 X87.427 Y85.407 E.0125
G1 X87.782 Y85.225 E.0125
G1 X88.149 Y85.071 E.0125
G1 X88.527 Y84.945 E.0125
G1 X88.914 Y84.848 E.0125
G1 X89.307 Y84.78 E.0125
G1 X89.701 Y84.743 E.01242
G1 X90.266 Y84.744 E.0177
G1 X90.898 Y84.811 E.01993
G1 X91.285 Y84.892 E.0124
G1 X91.667 Y85.004 E.0125
G1 X92.041 Y85.144 E.0125
G1 X92.402 Y85.312 E.0125
G1 X92.75 Y85.507 E.0125
G1 X93.081 Y85.728 E.0125
G1 X93.396 Y85.973 E.0125
G1 X93.691 Y86.241 E.0125
G1 X93.964 Y86.531 E.0125
G1 X94.215 Y86.84 E.0125
G1 X94.442 Y87.168 E.0125
G1 X94.644 Y87.512 E.0125
G1 X94.819 Y87.87 E.0125
G1 X94.966 Y88.241 E.0125
G1 X95.085 Y88.621 E.0125
G1 X95.174 Y89.007 E.01242
G1 X95.247 Y89.567 E.0177
G1 X95.264 Y90.202 E.01993
G1 X95.234 Y90.597 E.0124
G1 X95.174 Y90.991 E.0125
G1 X95.085 Y91.379 E.0125
G1 X94.966 Y91.759 E.0125
G1 X94.819 Y92.13 E.0125
G1 X94.644 Y92.488 E.0125
G1 X94.442 Y92.832 E.0125
G1 X94.217 Y93.158 E.01242
G1 X93.851 Y93.588 E.0177
G1 X93.393 Y94.029 E.01993
G1 X93.081 Y94.272 E.0124
G1 X92.75 Y94.493 E.0125
G1 X92.402 Y94.688 E.0125
G1 X92.04 Y94.856 E.0125
G1 X91.667 Y94.996 E.0125
G1 X91.285 Y95.108 E.0125
G1 X90.895 Y95.19 E.0125
G1 X90.5 Y95.243 E.0125
G1 X90.102 Y95.265 E.0125
G1 X89.706 Y95.258 E.01242
G1 X89.145 Y95.192 E.0177
G1 X88.524 Y95.054 E.01993
G1 X88.149 Y94.929 E.0124
G1 X87.782 Y94.775 E.0125
G1 X87.427 Y94.593 E.0125
G1 X87.087 Y94.386 E.0125
G1 X86.764 Y94.153 E.0125
G1 X86.461 Y93.897 E.01242
G1 X86.066 Y93.493 E.0177
G1 X85.671 Y92.995 E.01993
G1 X85.458 Y92.662 E.0124
G1 X85.27 Y92.311 E.0125
G1 X85.109 Y91.946 E.0125
G1 X84.976 Y91.57 E.0125
G1 X84.871 Y91.186 E.0125
G1 X84.796 Y90.794 E.0125
G1 X84.751 Y90.398 E.0125
G1 X84.736 Y90 E.0125
G1 X84.751 Y89.602 E.0125
G1 X84.796 Y89.206 E.0125
G1 X84.871 Y88.814 E.0125
G1 X84.976 Y88.43 E.0125
G1 X85.109 Y88.054 E.0125
G1 X85.27 Y87.689 E.0125
G1 X85.458 Y87.338 E.0125
G1 X85.673 Y87.002 E.0125
G1 X85.912 Y86.683 E.0125
G1 X86.351 Y86.21 E.02026
M204 P1000
G1 X86.778 Y86.28 F9000
G1 E-2.24 F4200
;WIPE_START
G1 F7200
G1 X86.764 Y85.847 E-.30415
G1 X87.087 Y85.614 E-.22087
G1 X87.427 Y85.407 E-.22088
G1 X87.694 Y85.27 E-.16611
;WIPE_END
G1 E-.048 F4200
G1 Z.4 F720
G1 X94.149 Y87.638 F9000
G1 Z.2 F720
G1 E3.2 F2400
M204 P800
;TYPE:Solid infill
;WIDTH:0.42623
G1 F1200
G1 X92.97 Y86.478 E.05272
G1 X92.695 Y86.264 E.01111
G1 X92.405 Y86.071 E.01111
G1 X92.101 Y85.9 E.01111
G1 X91.685 Y85.715 E.01452
G1 X94.286 Y88.317 E.11725
G1 X94.447 Y88.794 E.01605
G1 X94.515 Y89.088 E.00963
G1 X90.916 Y85.489 E.16224
G1 X90.296 Y85.411 E.01992
G1 X94.59 Y89.705 E.19356
G1 X94.599 Y90.256 E.01754
G1 X89.745 Y85.403 E.21875
G1 X89.259 Y85.458 E.01562
G1 X94.545 Y90.744 E.23826
G1 X94.451 Y91.192 E.01459
G1 X88.812 Y85.553 E.25415
G1 X88.399 Y85.683 E.01379
G1 X94.318 Y91.602 E.26679
M73 P4 R12
G1 X94.156 Y91.982 E.01317
G1 X88.019 Y85.845 E.27663
G1 X87.666 Y86.034 E.01276
G1 X93.968 Y92.336 E.28406
G1 X93.755 Y92.665 E.0125
G1 X87.338 Y86.247 E.28927
G1 X87.032 Y86.484 E.01231
G1 X93.514 Y92.966 E.29216
G1 X93.254 Y93.247 E.01223
G1 X86.75 Y86.743 E.29317
G1 X86.489 Y87.025 E.01223
G1 X92.977 Y93.513 E.29244
G1 X92.673 Y93.751 E.01231
G1 X86.252 Y87.33 E.28944
G1 X86.037 Y87.657 E.01248
G1 X92.344 Y93.964 E.28425
G1 X91.99 Y94.152 E.01278
G1 X85.849 Y88.011 E.27677
G1 X85.689 Y88.393 E.0132
G1 X91.609 Y94.313 E.26684
G1 X91.199 Y94.445 E.01373
G1 X85.558 Y88.804 E.25427
G1 X85.46 Y89.248 E.0145
G1 X90.755 Y94.543 E.23865
G1 X90.265 Y94.595 E.01571
G1 X85.406 Y89.737 E.21898
G1 X85.407 Y90.279 E.0173
G1 X89.723 Y94.595 E.19453
G1 X89.255 Y94.54 E.01501
G1 X89.089 Y94.504 E.00542
G1 X85.489 Y90.904 E.16227
G1 X85.606 Y91.373 E.01543
G1 X85.71 Y91.666 E.00991
G1 X88.335 Y94.292 E.11833
G1 X87.75 Y94.017 E.0206
G1 X87.452 Y93.836 E.01111
G1 X87.17 Y93.632 E.01111
G1 X86.937 Y93.436 E.00969
G1 X85.843 Y92.342 E.04933
M204 P1000
; stop printing object Body1.stl id:0 copy 0
M106 S84.15
;LAYER_CHANGE
;Z:0.4
;HEIGHT:0.2
;BEFORE_LAYER_CHANGE
G92 E0.0
;0.4


G1 E-2.24 F4200
;WIPE_START
G1 F7200
G1 X86.937 Y93.436 E-.85765
G1 X87.012 Y93.499 E-.05435
;WIPE_END
G1 E-.048 F4200
G1 Z.4 F720
;AFTER_LAYER_CHANGE
;0.4
G1 Z.6
G1 X83.914 Y96.906 F9000
G1 Z.4 F720
G1 E3.2 F2400
;TYPE:Skirt/Brim
;WIDTH:0.42
G1 F1993
M73 P5 R12
G1 X83.204 Y96.26 E.03008
G1 X82.089 Y94.773 E.05828
G1 X81.372 Y93.305 E.05123
G1 X80.885 Y91.511 E.05828
G1 X80.761 Y89.882 E.05123
G1 X80.972 Y88.035 E.05828
G1 X81.217 Y87.131 E.02935
G1 X81.589 Y86.182 E.03197
G1 X82.472 Y84.642 E.05566
G1 X83.697 Y83.244 E.05828
G1 X84.413 Y82.64 E.02935
G1 X85.259 Y82.072 E.03197
G1 X86.861 Y81.308 E.05566
G1 X88.664 Y80.856 E.05828
G1 X90.296 Y80.763 E.05123
G1 X92.138 Y81.009 E.05828
G1 X93.688 Y81.525 E.05123
G1 X95.309 Y82.434 E.05828
G1 X96.048 Y83.01 E.02935
G1 X96.779 Y83.72 E.03197
G1 X97.857 Y85.131 E.05566
G1 X98.672 Y86.801 E.05828
G1 X99.1 Y88.378 E.05123
G1 X99.241 Y90.231 E.05828
G1 X99.056 Y91.855 E.05123
G1 X98.502 Y93.629 E.05828
G1 X98.091 Y94.47 E.02935
G1 X97.466 Y95.449 E.03642
G1 X96.39 Y96.679 E.05123
G1 X94.924 Y97.822 E.05828
G1 X93.47 Y98.566 E.05124
G1 X91.685 Y99.087 E.05828
G1 X90.757 Y99.211 E.02935
G1 X89.596 Y99.233 E.03642
G1 X87.976 Y99.017 E.05123
G1 X86.213 Y98.429 E.05828
G1 X85.38 Y98.003 E.02935
G1 X84.413 Y97.36 E.03642
G1 X83.958 Y96.946 E.01927
G1 X84.21 Y96.669 F9000
G1 F1993
G1 X83.487 Y96.012 E.03063
G1 X82.407 Y94.57 E.05649
G1 X81.727 Y93.179 E.04856
G1 X81.255 Y91.44 E.05649
G1 X81.138 Y89.896 E.04856
G1 X81.342 Y88.106 E.05649
G1 X81.573 Y87.257 E.02757
G1 X81.934 Y86.334 E.03108
G1 X82.774 Y84.868 E.05298
G1 X83.961 Y83.513 E.05649
G1 X85.182 Y82.56 E.04855
G1 X86.786 Y81.74 E.05649
G1 X87.62 Y81.462 E.02757
G1 X88.588 Y81.251 E.03108
G1 X90.274 Y81.14 E.05298
G1 X92.06 Y81.377 E.05649
G1 X93.529 Y81.867 E.04856
G1 X95.101 Y82.748 E.05649
G1 X95.794 Y83.289 E.02757
G1 X96.505 Y83.979 E.03108
G1 X97.532 Y85.321 E.05298
G1 X98.322 Y86.94 E.05649
G1 X98.728 Y88.435 E.04856
G1 X98.864 Y90.231 E.05649
G1 X98.688 Y91.77 E.04856
G1 X98.151 Y93.49 E.05649
G1 X97.765 Y94.28 E.02757
G1 X97.156 Y95.235 E.03552
G1 X96.136 Y96.4 E.04856
G1 X94.715 Y97.508 E.05649
G1 X93.337 Y98.214 E.04856
G1 X92.262 Y98.572 E.03552
G1 X91.402 Y98.753 E.02756
G1 X89.603 Y98.856 E.05649
G1 X88.728 Y98.773 E.02757
G1 X87.62 Y98.538 E.03552
G1 X86.17 Y97.994 E.04856
G1 X84.633 Y97.054 E.05649
G1 X84.254 Y96.709 E.01605
G1 X84.507 Y96.41 F9000
G1 F1993
G1 X83.895 Y95.894 E.0251
G1 X82.973 Y94.758 E.04588
G1 X82.415 Y93.805 E.03463
G1 X82.083 Y93.053 E.02578
G1 X81.626 Y91.369 E.0547
G1 X81.515 Y89.91 E.04588
G1 X81.713 Y88.177 E.0547
G1 X82.279 Y86.487 E.05588
G1 X83.076 Y85.095 E.0503
G1 X84.225 Y83.782 E.0547
G1 X85.379 Y82.882 E.04587
G1 X86.932 Y82.087 E.0547
G1 X87.711 Y81.827 E.02578
G1 X88.792 Y81.599 E.03463
G1 X90.253 Y81.516 E.04588
G1 X91.982 Y81.746 E.0547
G1 X93.37 Y82.209 E.04588
G1 X94.892 Y83.062 E.0547
G1 X96.231 Y84.238 E.05588
G1 X97.206 Y85.512 E.0503
G1 X97.972 Y87.08 E.0547
G1 X98.355 Y88.492 E.04588
G1 X98.487 Y90.231 E.0547
G1 X98.321 Y91.685 E.04588
G1 X97.801 Y93.35 E.0547
G1 X96.927 Y94.903 E.05588
G1 X95.882 Y96.121 E.0503
G1 X94.507 Y97.194 E.0547
G1 X93.204 Y97.861 E.04588
G1 X91.53 Y98.349 E.0547
G1 X90.715 Y98.458 E.02578
G1 X89.61 Y98.479 E.03463
G1 X88.16 Y98.285 E.04588
G1 X86.505 Y97.734 E.0547
G1 X85.229 Y97.018 E.04588
G1 X84.553 Y96.448 E.02772
; printing object Body1.stl id:0 copy 0
G1 E-2.24 F4200
;WIPE_START
G1 F7200
G1 X83.895 Y95.894 E-.47682
G1 X83.4 Y95.284 E-.43518
;WIPE_END
G1 E-.048 F4200
G1 Z.6 F720
G1 X86.563 Y94.063 F9000
G1 Z.4 F720
G1 E3.2 F2400
M204 P800
;TYPE:Perimeter
;WIDTH:0.45
G1 F1500
G1 X86.423 Y93.944 E.00623
G1 X85.865 Y93.355 E.02747
G1 X85.623 Y93.032 E.01365
G1 X85.409 Y92.697 E.01345
G1 X85.16 Y92.212 E.01846
G1 X84.918 Y91.588 E.02264
G1 X84.812 Y91.199 E.01365
G1 X84.737 Y90.803 E.01365
G1 X84.691 Y90.403 E.01364
G1 X84.676 Y90 E.01365
G1 X84.691 Y89.597 E.01365
G1 X84.737 Y89.197 E.01364
G1 X84.812 Y88.801 E.01365
G1 X84.918 Y88.412 E.01365
G1 X85.053 Y88.032 E.01364
G1 X85.216 Y87.663 E.01365
G1 X85.406 Y87.308 E.01365
G1 X85.62 Y86.973 E.01345
G1 X85.955 Y86.542 E.01846
G1 X86.418 Y86.06 E.02264
G1 X86.726 Y85.8 E.01365
G1 X87.053 Y85.564 E.01364
G1 X87.397 Y85.354 E.01365
G1 X87.756 Y85.17 E.01365
G1 X88.128 Y85.014 E.01365
G1 X88.51 Y84.887 E.01365
G1 X88.901 Y84.788 E.01365
G1 X89.299 Y84.72 E.01365
G1 X89.694 Y84.683 E.01345
G1 X90.506 Y84.697 E.02746
G1 X90.905 Y84.751 E.01365
G1 X91.3 Y84.834 E.01365
G1 X91.687 Y84.947 E.01364
G1 X92.064 Y85.089 E.01365
G1 X92.429 Y85.259 E.01365
G1 X92.781 Y85.456 E.01364
G1 X93.117 Y85.679 E.01365
G1 X93.435 Y85.927 E.01365
G1 X93.733 Y86.198 E.01364
G1 X94.01 Y86.491 E.01365
G1 X94.26 Y86.8 E.01345
G1 X94.697 Y87.484 E.02747
G1 X94.874 Y87.846 E.01365
G1 X95.023 Y88.22 E.01365
G1 X95.143 Y88.605 E.01365
G1 X95.232 Y88.992 E.01345
G1 X95.305 Y89.533 E.01846
