; generated by PrusaSlicer 2.6.0+MacOS-arm64 on 2023-07-07 at 15:32:08 UTC


;
;

;
;
; 

; external perimeters extrusion width = 0.45mm
; perimeters extrusion width = 0.45mm
; infill extrusion width = 0.45mm
; solid infill extrusion width = 0.45mm
; top infill extrusion width = 0.40mm
; first layer extrusion width = 0.42mm

M73 P0 R2
M201 X2500 Y2500 Z400 E5000 ; sets maximum accelerations, mm/sec^2
M203 X180 Y180 Z12 E80 ; sets maximum feedrates, mm / sec
M204 P2000 R1250 T2500 ; sets acceleration (P, T) and retract acceleration (R), mm/sec^2
M205 X8.00 Y8.00 Z2.00 E10.00 ; sets the jerk limits, mm/sec
M205 S0 T0 ; sets the minimum extruding and travel feed rate, mm/sec
;TYPE:Custom
M862.3 P "MINI" ; printer model check
G90 ; use absolute coordinates
M83 ; extruder relative mode
M104 S170 ; set extruder temp for bed leveling
M140 S100 ; set bed temp
M109 R170 ; wait for bed leveling temp
M190 S100 ; wait for bed temp
M204 T1250 ; set travel acceleration
G28 ; home all without mesh bed level
G29 ; mesh bed leveling 
M204 T2500 ; restore travel acceleration
M104 S255 ; set extruder temp
G92 E0
G1 Y-2 X179 F2400
G1 Z3 F720
M109 S255 ; wait for extruder temp

; intro line
M73 P3 R2
G1 X170 F1000
G1 Z0.2 F720
G1 X110 E8 F900
G1 X40 E10 F700
G92 E0

M221 S95 ; set flow
G21 ; set units to millimeters
G90 ; use absolute coordinates
M83 ; use relative distances for extrusion
M900 K0.2 ; Filament gcode
M107
;LAYER_CHANGE
;Z:0.2
;HEIGHT:0.2
;BEFORE_LAYER_CHANGE
G92 E0.0
;0.2


M73 P6 R2
G1 E-2.7 F4200
M73 P10 R2
G1 Z.2 F720
;AFTER_LAYER_CHANGE
;0.2
G1 Z.4
G1 X85.48 Y84.631 F9000
G1 Z.2 F720
G1 E2.7 F2400
M204 P600
;TYPE:Skirt/Brim
;WIDTH:0.42
G1 F900
M73 P11 R2
G1 X87.5 Y83.992 E.06643
G1 X92.5 Y83.992 E.15677
G1 X94.116 Y84.386 E.05215
G1 X95.369 Y85.48 E.05215
G1 X96.008 Y87.5 E.06643
G1 X96.008 Y92.5 E.15677
G1 X95.614 Y94.116 E.05215
G1 X94.52 Y95.369 E.05215
G1 X92.5 Y96.008 E.06643
G1 X87.5 Y96.008 E.15677
M73 P12 R2
G1 X85.884 Y95.614 E.05215
G1 X84.631 Y94.52 E.05215
G1 X83.992 Y92.5 E.06643
G1 X83.992 Y87.5 E.15677
G1 X84.386 Y85.884 E.05215
G1 X85.441 Y84.677 E.05026
M204 P1000
G1 X85.735 Y84.957 F9000
M204 P600
G1 F900
G1 X85.844 Y84.842 E.00497
G1 X87.5 Y84.369 E.054
G1 X92.5 Y84.369 E.15677
M73 P13 R2
G1 X94.02 Y84.762 E.04923
G1 X95.158 Y85.844 E.04923
G1 X95.631 Y87.5 E.054
G1 X95.631 Y92.5 E.15677
G1 X95.238 Y94.02 E.04923
G1 X94.156 Y95.158 E.04923
G1 X92.5 Y95.631 E.054
G1 X87.5 Y95.631 E.15677
G1 X85.98 Y95.238 E.04923
M73 P14 R2
G1 X84.842 Y94.156 E.04923
G1 X84.369 Y92.5 E.054
G1 X84.369 Y87.5 E.15677
G1 X84.762 Y85.98 E.04923
G1 X85.694 Y85 E.0424
M204 P1000
G1 X85.971 Y85.292 F9000
M204 P600
G1 F900
G1 X86.205 Y85.069 E.01014
G1 X87.5 Y84.746 E.04185
G1 X92.5 Y84.746 E.15677
G1 X93.917 Y85.139 E.04611
G1 X94.931 Y86.205 E.04613
M73 P15 R2
G1 X95.254 Y87.5 E.04185
G1 X95.254 Y92.5 E.15677
G1 X94.861 Y93.917 E.04611
G1 X93.795 Y94.931 E.04613
G1 X92.5 Y95.254 E.04185
G1 X87.5 Y95.254 E.15677
G1 X86.083 Y94.861 E.04611
G1 X85.069 Y93.795 E.04613
G1 X84.746 Y92.5 E.04185
G1 X84.746 Y87.5 E.15677
M73 P16 R2
G1 X85.139 Y86.083 E.04611
G1 X85.927 Y85.333 E.03411
M204 P1000
G1 X86.18 Y85.635 F9000
M204 P600
G1 F900
G1 X86.56 Y85.317 E.01554
G1 X87.5 Y85.123 E.03009
G1 X92.5 Y85.123 E.15677
G1 X93.807 Y85.515 E.04278
G1 X94.683 Y86.56 E.04275
G1 X94.877 Y87.5 E.03009
G1 X94.877 Y92.5 E.15677
G1 X94.485 Y93.807 E.04278
M73 P17 R2
G1 X93.44 Y94.683 E.04275
G1 X92.5 Y94.877 E.03009
G1 X87.5 Y94.877 E.15677
G1 X86.193 Y94.485 E.04278
G1 X85.317 Y93.44 E.04275
G1 X85.123 Y92.5 E.03009
G1 X85.123 Y87.5 E.15677
G1 X85.515 Y86.193 E.04278
G1 X86.134 Y85.673 E.02535
M204 P1000
; printing object tester_mini_cube v1.stl id:0 copy 0
G1 E-2.7 F4200
G1 Z.4 F720
G1 X91.713 Y91.713 F9000
G1 Z.2 F720
M73 P18 R2
G1 E2.7 F2400
M204 P600
;TYPE:Perimeter
;WIDTH:0.419999
G1 F900
G1 X88.287 Y91.713 E.10742
G1 X88.287 Y88.287 E.10742
G1 X91.713 Y88.287 E.10742
G1 X91.713 Y91.653 E.10554
M204 P1000
G1 X92.09 Y92.09 F9000
M204 P600
;TYPE:External perimeter
G1 F900
G1 X87.91 Y92.09 E.13106
G1 X87.91 Y87.91 E.13106
G1 X92.09 Y87.91 E.13106
M73 P19 R2
G1 X92.09 Y92.03 E.12918
M204 P1000
G1 X91.704 Y91.986 F9000
G1 E-2.7 F4200
G1 Z.4 F720
G1 X90.729 Y88.457 F9000
G1 Z.2 F720
G1 E2.7 F2400
M204 P600
;TYPE:Solid infill
;WIDTH:0.444579
G1 F900
G1 X91.374 Y89.101 E.03044
G1 X91.374 Y89.67 E.019
G1 X90.33 Y88.626 E.04931
G1 X89.762 Y88.626 E.01897
G1 X91.374 Y90.238 E.07614
M73 P19 R1
G1 X91.374 Y90.806 E.01897
M73 P20 R1
G1 X89.194 Y88.626 E.10297
G1 X88.626 Y88.627 E.01897
G1 X91.373 Y91.374 E.12975
G1 X90.805 Y91.374 E.01897
G1 X88.626 Y89.195 E.10292
G1 X88.626 Y89.763 E.01897
G1 X90.237 Y91.374 E.07609
G1 X89.669 Y91.374 E.01897
G1 X88.626 Y90.331 E.04926
G1 X88.626 Y90.899 E.01897
G1 X89.271 Y91.543 E.03044
M204 P1000
; stop printing object tester_mini_cube v1.stl id:0 copy 0
;LAYER_CHANGE
;Z:0.4
;HEIGHT:0.2
;BEFORE_LAYER_CHANGE
G92 E0.0
;0.4


G1 E-2.7 F4200
G1 Z.4 F720
;AFTER_LAYER_CHANGE
;0.4
G1 Z.6
G1 X89.271 Y96.008 F9000
G1 Z.4 F720
M73 P21 R1
G1 E2.7 F2400
;TYPE:Skirt/Brim
;WIDTH:0.42
G1 F900
G1 X87.5 Y96.008 E.05553
G1 X85.884 Y95.614 E.05215
G1 X84.631 Y94.52 E.05215
G1 X83.992 Y92.5 E.06643
G1 X83.992 Y87.5 E.15677
G1 X84.386 Y85.884 E.05215
G1 X85.48 Y84.631 E.05215
G1 X87.5 Y83.992 E.06643
G1 X92.5 Y83.992 E.15677
G1 X94.116 Y84.386 E.05215
M73 P22 R1
G1 X95.369 Y85.48 E.05215
G1 X96.008 Y87.5 E.06643
G1 X96.008 Y92.5 E.15677
G1 X95.614 Y94.116 E.05215
G1 X94.52 Y95.369 E.05215
G1 X92.5 Y96.008 E.06643
G1 X89.331 Y96.008 E.09936
G1 X89.331 Y95.631 F9000
G1 F900
G1 X87.5 Y95.631 E.05741
G1 X85.98 Y95.238 E.04923
M73 P23 R1
G1 X84.842 Y94.156 E.04923
G1 X84.369 Y92.5 E.054
G1 X84.369 Y87.5 E.15677
G1 X84.762 Y85.98 E.04923
G1 X85.844 Y84.842 E.04923
G1 X87.5 Y84.369 E.054
G1 X92.5 Y84.369 E.15677
G1 X94.02 Y84.762 E.04923
G1 X95.158 Y85.844 E.04923
G1 X95.631 Y87.5 E.054
M73 P24 R1
G1 X95.631 Y92.5 E.15677
G1 X95.238 Y94.02 E.04923
G1 X94.156 Y95.158 E.04923
G1 X92.5 Y95.631 E.054
G1 X89.391 Y95.631 E.09748
G1 X89.391 Y95.254 F9000
G1 F900
G1 X87.5 Y95.254 E.05929
G1 X86.083 Y94.861 E.04611
G1 X85.069 Y93.795 E.04613
G1 X84.746 Y92.5 E.04185
G1 X84.746 Y87.5 E.15677
M73 P25 R1
G1 X85.139 Y86.083 E.04611
G1 X86.205 Y85.069 E.04613
G1 X87.5 Y84.746 E.04185
G1 X92.5 Y84.746 E.15677
G1 X93.917 Y85.139 E.04611
G1 X94.931 Y86.205 E.04613
G1 X95.254 Y87.5 E.04185
G1 X95.254 Y92.5 E.15677
G1 X94.861 Y93.917 E.04611
M73 P26 R1
G1 X93.795 Y94.931 E.04613
G1 X92.5 Y95.254 E.04185
G1 X89.451 Y95.254 E.0956
G1 X89.451 Y94.877 F9000
G1 F900
G1 X87.5 Y94.877 E.06117
G1 X86.193 Y94.485 E.04278
G1 X85.317 Y93.44 E.04275
G1 X85.123 Y92.5 E.03009
G1 X85.123 Y87.5 E.15677
G1 X85.515 Y86.193 E.04278
G1 X86.56 Y85.317 E.04275
G1 X87.5 Y85.123 E.03009
M73 P27 R1
G1 X92.5 Y85.123 E.15677
G1 X93.807 Y85.515 E.04278
G1 X94.683 Y86.56 E.04275
G1 X94.877 Y87.5 E.03009
G1 X94.877 Y92.5 E.15677
G1 X94.485 Y93.807 E.04278
G1 X93.44 Y94.683 E.04275
G1 X92.5 Y94.877 E.03009
G1 X89.511 Y94.877 E.09372
; printing object tester_mini_cube v1.stl id:0 copy 0
G1 E-2.7 F4200
G1 Z.6 F720
M73 P28 R1
G1 X91.868 Y91.868 F9000
G1 Z.4 F720
G1 E2.7 F2400
M204 P900
;TYPE:Perimeter
;WIDTH:0.449999
G1 F900
G1 X88.132 Y91.868 E.12646
G1 X88.132 Y88.132 E.12646
G1 X91.868 Y88.132 E.12646
G1 X91.868 Y91.808 E.12443
M204 P1000
G1 X92.275 Y92.275 F9000
M204 P800
;TYPE:External perimeter
G1 F900
G1 X87.725 Y92.275 E.15401
G1 X87.725 Y87.725 E.15401
M73 P29 R1
G1 X92.275 Y87.725 E.15401
G1 X92.275 Y92.215 E.15198
M204 P1000
G1 X91.889 Y92.171 F9000
G1 E-2.7 F4200
G1 Z.6 F720
G1 X91.502 Y88.498 F9000
G1 Z.4 F720
G1 E2.7 F2400
M204 P1500
;TYPE:Solid infill
G1 F900
G1 X88.498 Y88.498 E.10168
G1 X88.498 Y91.502 E.10168
M73 P30 R1
G1 X91.502 Y91.502 E.10168
G1 X91.502 Y88.702 E.09478
G1 X91.094 Y88.906 E.01544
G1 X88.906 Y88.906 E.07406
G1 X88.906 Y91.094 E.07406
G1 X91.094 Y91.094 E.07406
G1 X91.094 Y89.109 E.06719
G1 X90.687 Y89.313 E.01541
G1 X89.313 Y89.313 E.04651
G1 X89.313 Y90.687 E.04651
G1 X90.687 Y90.687 E.04651
G1 X90.687 Y89.516 E.03964
M73 P31 R1
G1 X90.242 Y89.758 E.01715
;WIDTH:0.526773
G1 X89.758 Y89.758 E.01947
G1 X89.758 Y90.242 E.01947
G1 X90.242 Y90.242 E.01947
G1 X90.242 Y89.962 E.01127
M204 P1000
; stop printing object tester_mini_cube v1.stl id:0 copy 0
;LAYER_CHANGE
;Z:0.6
;HEIGHT:0.2
;BEFORE_LAYER_CHANGE
G92 E0.0
;0.6


G1 E-2.7 F4200
G1 Z.6 F720
;AFTER_LAYER_CHANGE
;0.6
G1 Z.8
G1 X96.008 Y89.962 F9000
G1 Z.6 F720
G1 E2.7 F2400
;TYPE:Skirt/Brim
;WIDTH:0.42
G1 F900
G1 X96.008 Y92.5 E.07958
G1 X95.614 Y94.116 E.05215
G1 X94.52 Y95.369 E.05215
G1 X92.5 Y96.008 E.06643
G1 X87.5 Y96.008 E.15677
G1 X85.884 Y95.614 E.05215
M73 P32 R1
G1 X84.631 Y94.52 E.05215
G1 X83.992 Y92.5 E.06643
G1 X83.992 Y87.5 E.15677
G1 X84.386 Y85.884 E.05215
G1 X85.48 Y84.631 E.05215
G1 X87.5 Y83.992 E.06643
G1 X92.5 Y83.992 E.15677
G1 X94.116 Y84.386 E.05215
G1 X95.369 Y85.48 E.05215
M73 P33 R1
G1 X96.008 Y87.5 E.06643
G1 X96.008 Y89.902 E.07531
G1 X95.631 Y89.902 F9000
G1 F900
G1 X95.631 Y92.5 E.08146
G1 X95.238 Y94.02 E.04923
G1 X94.156 Y95.158 E.04923
G1 X92.5 Y95.631 E.054
G1 X87.5 Y95.631 E.15677
G1 X85.98 Y95.238 E.04923
G1 X84.842 Y94.156 E.04923
G1 X84.369 Y92.5 E.054
M73 P34 R1
G1 X84.369 Y87.5 E.15677
G1 X84.762 Y85.98 E.04923
G1 X85.844 Y84.842 E.04923
G1 X87.5 Y84.369 E.054
G1 X92.5 Y84.369 E.15677
G1 X94.02 Y84.762 E.04923
G1 X95.158 Y85.844 E.04923
G1 X95.631 Y87.5 E.054
G1 X95.631 Y89.842 E.07343
G1 X95.254 Y89.842 F9000
M73 P35 R1
G1 F900
G1 X95.254 Y92.5 E.08334
G1 X94.861 Y93.917 E.04611
G1 X93.795 Y94.931 E.04613
G1 X92.5 Y95.254 E.04185
G1 X87.5 Y95.254 E.15677
G1 X86.083 Y94.861 E.04611
G1 X85.069 Y93.795 E.04613
G1 X84.746 Y92.5 E.04185
G1 X84.746 Y87.5 E.15677
G1 X85.139 Y86.083 E.04611
M73 P36 R1
G1 X86.205 Y85.069 E.04613
G1 X87.5 Y84.746 E.04185
G1 X92.5 Y84.746 E.15677
G1 X93.917 Y85.139 E.04611
G1 X94.931 Y86.205 E.04613
G1 X95.254 Y87.5 E.04185
G1 X95.254 Y89.782 E.07155
G1 X94.877 Y89.782 F9000
G1 F900
G1 X94.877 Y92.5 E.08522
G1 X94.485 Y93.807 E.04278
G1 X93.44 Y94.683 E.04275
G1 X92.5 Y94.877 E.03009
G1 X87.5 Y94.877 E.15677
M73 P37 R1
G1 X86.193 Y94.485 E.04278
G1 X85.317 Y93.44 E.04275
G1 X85.123 Y92.5 E.03009
G1 X85.123 Y87.5 E.15677
G1 X85.515 Y86.193 E.04278
G1 X86.56 Y85.317 E.04275
G1 X87.5 Y85.123 E.03009
G1 X92.5 Y85.123 E.15677
G1 X93.807 Y85.515 E.04278
M73 P38 R1
G1 X94.683 Y86.56 E.04275
G1 X94.877 Y87.5 E.03009
G1 X94.877 Y89.722 E.06967
; printing object tester_mini_cube v1.stl id:0 copy 0
G1 E-2.7 F4200
G1 Z.8 F720
G1 X91.868 Y91.868 F9000
G1 Z.6 F720
G1 E2.7 F2400
M204 P900
;TYPE:Perimeter
;WIDTH:0.449999
G1 F900
G1 X88.132 Y91.868 E.12646
G1 X88.132 Y88.132 E.12646
G1 X91.868 Y88.132 E.12646
G1 X91.868 Y91.808 E.12443
M204 P1000
M73 P39 R1
G1 X92.275 Y92.275 F9000
M204 P800
;TYPE:External perimeter
G1 F900
G1 X87.725 Y92.275 E.15401
G1 X87.725 Y87.725 E.15401
G1 X92.275 Y87.725 E.15401
G1 X92.275 Y92.215 E.15198
M204 P1000
G1 X91.889 Y92.171 F9000
M73 P40 R1
G1 E-2.7 F4200
G1 Z.8 F720
G1 X88.498 Y91.298 F9000
G1 Z.6 F720
G1 E2.7 F2400
M204 P1500
;TYPE:Solid infill
G1 F900
G1 X88.498 Y88.498 E.09478
G1 X91.502 Y88.498 E.10168
G1 X91.502 Y91.502 E.10168
G1 X88.498 Y91.502 E.10168
G1 X88.906 Y91.094 E.01953
G1 X91.094 Y91.094 E.07406
G1 X91.094 Y88.906 E.07406
G1 X88.906 Y88.906 E.07406
G1 X88.906 Y90.891 E.06719
M73 P41 R1
G1 X89.313 Y90.687 E.01541
G1 X90.687 Y90.687 E.04651
G1 X90.687 Y89.313 E.04651
G1 X89.313 Y89.313 E.04651
G1 X89.313 Y90.484 E.03964
G1 X89.758 Y90.242 E.01715
;WIDTH:0.526774
G1 X90.242 Y90.242 E.01947
G1 X90.242 Y89.758 E.01947
G1 X89.758 Y89.758 E.01947
G1 X89.758 Y90.038 E.01127
M204 P1000
; stop printing object tester_mini_cube v1.stl id:0 copy 0
;LAYER_CHANGE
;Z:0.8
;HEIGHT:0.2
;BEFORE_LAYER_CHANGE
G92 E0.0
;0.8


G1 E-2.7 F4200
G1 Z.8 F720
;AFTER_LAYER_CHANGE
;0.8
; printing object tester_mini_cube v1.stl id:0 copy 0
G1 X91.868 Y91.868 F9000
G1 E2.7 F2400
M204 P900
;TYPE:Perimeter
;WIDTH:0.449999
G1 F900
G1 X88.132 Y91.868 E.12646
G1 X88.132 Y88.132 E.12646
G1 X91.868 Y88.132 E.12646
M73 P42 R1
G1 X91.868 Y91.808 E.12443
M204 P1000
G1 X92.275 Y92.275 F9000
M204 P800
;TYPE:External perimeter
G1 F900
G1 X87.725 Y92.275 E.15401
G1 X87.725 Y87.725 E.15401
G1 X92.275 Y87.725 E.15401
G1 X92.275 Y92.215 E.15198
M204 P1000
M73 P43 R1
G1 X91.889 Y92.171 F9000
G1 E-2.7 F4200
G1 Z1 F720
G1 X91.502 Y88.498 F9000
G1 Z.8 F720
G1 E2.7 F2400
M204 P1500
;TYPE:Solid infill
G1 F900
G1 X88.498 Y88.498 E.10168
G1 X88.498 Y91.502 E.10168
G1 X91.502 Y91.502 E.10168
G1 X91.502 Y88.702 E.09478
G1 X91.094 Y88.906 E.01544
G1 X88.906 Y88.906 E.07406
G1 X88.906 Y91.094 E.07406
M73 P44 R1
G1 X91.094 Y91.094 E.07406
G1 X91.094 Y89.109 E.06719
G1 X90.687 Y89.313 E.01541
G1 X89.313 Y89.313 E.04651
G1 X89.313 Y90.687 E.04651
G1 X90.687 Y90.687 E.04651
G1 X90.687 Y89.516 E.03964
G1 X90.242 Y89.758 E.01715
;WIDTH:0.526773
G1 X89.758 Y89.758 E.01947
G1 X89.758 Y90.242 E.01947
G1 X90.242 Y90.242 E.01947
G1 X90.242 Y89.962 E.01127
M204 P1000
; stop printing object tester_mini_cube v1.stl id:0 copy 0
M106 S38.25
;LAYER_CHANGE
;Z:1
;HEIGHT:0.2
;BEFORE_LAYER_CHANGE
G92 E0.0
;1


G1 E-2.7 F4200
G1 Z1 F720
;AFTER_LAYER_CHANGE
;1
; printing object tester_mini_cube v1.stl id:0 copy 0
G1 X91.868 Y91.868 F9000
G1 E2.7 F2400
M204 P900
;TYPE:Perimeter
;WIDTH:0.449999
G1 F900
G1 X88.132 Y91.868 E.12646
G1 X88.132 Y88.132 E.12646
M73 P45 R1
G1 X91.868 Y88.132 E.12646
G1 X91.868 Y91.808 E.12443
M204 P1000
G1 X92.275 Y92.275 F9000
M204 P800
;TYPE:External perimeter
G1 F900
G1 X87.725 Y92.275 E.15401
G1 X87.725 Y87.725 E.15401
G1 X92.275 Y87.725 E.15401
M73 P46 R1
G1 X92.275 Y92.215 E.15198
M204 P1000
G1 X91.889 Y92.171 F9000
G1 X91.238 Y91.502
M204 P1500
;TYPE:Internal infill
;WIDTH:0.45
G1 F900
G1 X88.738 Y91.502 E.08462
G1 X88.69 Y91.451 E.00237
G1 X88.498 Y91.133 E.01257
G1 X88.498 Y89.435 E.05748
G1 X88.69 Y89.56 E.00775
G1 X89.126 Y89.549 E.01476
G1 X90 Y89.261 E.03115
G1 X90.437 Y88.998 E.01726
G1 X90.874 Y88.591 E.02021
G1 X90.938 Y88.498 E.00382
G1 X91.502 Y88.498 E.01909
G1 X91.502 Y90.434 E.06553
M204 P1000
; stop printing object tester_mini_cube v1.stl id:0 copy 0
;LAYER_CHANGE
;Z:1.2
;HEIGHT:0.2
;BEFORE_LAYER_CHANGE
G92 E0.0
;1.2


G1 E-2.7 F4200
G1 Z1.2 F720
;AFTER_LAYER_CHANGE
;1.2
; printing object tester_mini_cube v1.stl id:0 copy 0
G1 X91.868 Y91.868 F9000
G1 E2.7 F2400
M204 P900
;TYPE:Perimeter
;WIDTH:0.449999
M73 P47 R1
G1 F900
G1 X88.132 Y91.868 E.12646
G1 X88.132 Y88.132 E.12646
G1 X91.868 Y88.132 E.12646
G1 X91.868 Y91.808 E.12443
M204 P1000
G1 X92.275 Y92.275 F9000
M204 P800
;TYPE:External perimeter
G1 F900
G1 X87.725 Y92.275 E.15401
G1 X87.725 Y87.725 E.15401
G1 X92.275 Y87.725 E.15401
M73 P48 R1
G1 X92.275 Y92.215 E.15198
M204 P1000
G1 X91.889 Y92.171 F9000
G1 X91.502 Y90.515
M204 P1500
;TYPE:Internal infill
;WIDTH:0.45
G1 F900
G1 X91.502 Y88.498 E.06827
G1 X91.018 Y88.498 E.01638
G1 X90.874 Y88.671 E.00762
G1 X90.437 Y88.995 E.01841
G1 X90 Y89.196 E.01628
G1 X89.126 Y89.339 E.02998
G1 X88.69 Y89.233 E.01519
G1 X88.498 Y89.079 E.00833
G1 X88.498 Y91.502 E.08202
G1 X88.576 Y91.502 E.00264
M204 P1000
; stop printing object tester_mini_cube v1.stl id:0 copy 0
;LAYER_CHANGE
;Z:1.4
;HEIGHT:0.2
;BEFORE_LAYER_CHANGE
G92 E0.0
;1.4


G1 E-2.7 F4200
G1 Z1.4 F720
;AFTER_LAYER_CHANGE
;1.4
; printing object tester_mini_cube v1.stl id:0 copy 0
M73 P49 R1
G1 Z1.6
G1 X91.868 Y91.868 F9000
G1 Z1.4 F720
G1 E2.7 F2400
M204 P900
;TYPE:Perimeter
;WIDTH:0.449999
G1 F900
G1 X88.132 Y91.868 E.12646
G1 X88.132 Y88.132 E.12646
G1 X91.868 Y88.132 E.12646
G1 X91.868 Y91.808 E.12443
M204 P1000
G1 X92.275 Y92.275 F9000
M204 P800
;TYPE:External perimeter
G1 F900
G1 X87.725 Y92.275 E.15401
G1 X87.725 Y87.725 E.15401
M73 P50 R1
G1 X92.275 Y87.725 E.15401
G1 X92.275 Y92.215 E.15198
M204 P1000
G1 X91.889 Y92.171 F9000
G1 X91.502 Y90.631
M204 P1500
;TYPE:Internal infill
;WIDTH:0.45
G1 F900
G1 X91.502 Y88.498 E.0722
G1 X91.135 Y88.498 E.01242
G1 X90.874 Y88.759 E.01249
G1 X90.437 Y89.011 E.01708
G1 X90 Y89.154 E.01556
G1 X89.563 Y89.209 E.01491
