; generated by PrusaSlicer 2.4.2+arm64 on 2023-07-27 at 23:37:51 UTC


;
;

;
;
; 

; external perimeters extrusion width = 0.45mm
; perimeters extrusion width = 0.45mm
; infill extrusion width = 0.45mm
; solid infill extrusion width = 0.45mm
; top infill extrusion width = 0.40mm
; first layer extrusion width = 0.42mm

M73 P0 R18
M201 X2500 Y2500 Z400 E5000 ; sets maximum accelerations, mm/sec^2
M203 X180 Y180 Z12 E80 ; sets maximum feedrates, mm / sec
M204 P1250 R1250 T2500 ; sets acceleration (P, T) and retract acceleration (R), mm/sec^2
M205 X8.00 Y8.00 Z2.00 E10.00 ; sets the jerk limits, mm/sec
M205 S0 T0 ; sets the minimum extruding and travel feed rate, mm/sec
M107
;TYPE:Custom
M862.3 P "MINI" ; printer model check
G90 ; use absolute coordinates
M83 ; extruder relative mode
M104 S170 ; set extruder temp for bed leveling
M140 S60 ; set bed temp
M109 R170 ; wait for bed leveling temp
M190 S60 ; wait for bed temp
M204 T1250 ; set travel acceleration
G28 ; home all without mesh bed level
G29 ; mesh bed leveling 
M204 T2500 ; restore travel acceleration
M104 S215 ; set extruder temp
G92 E0
G1 Y-2 X179 F2400
G1 Z3 F720
M109 S215 ; wait for extruder temp

; intro line
G1 X170 F1000
G1 Z0.2 F720
G1 X110 E8 F900
G1 X40 E10 F700
G92 E0

M221 S95 ; set flow
G21 ; set units to millimeters
G90 ; use absolute coordinates
M83 ; use relative distances for extrusion
M900 K0.2 ; Filament gcode LA 1.5
; ; Filament gcode LA 1.0
M107
;LAYER_CHANGE
;Z:0.2
;HEIGHT:0.2
;BEFORE_LAYER_CHANGE
G92 E0.0
;0.2


M73 P0 R17
G1 E-3.2 F4200
M73 P1 R17
G1 Z.2 F720
;AFTER_LAYER_CHANGE
;0.2
; printing object Villian.stl id:0 copy 0
G1 Z.4
G1 X81.718 Y81.718 F9000
G1 Z.2 F720
G1 E3.2 F2400
M204 P800
;TYPE:Perimeter
;WIDTH:0.42
G1 F1200
G1 X82.33 Y81.148 E.02622
G1 X82.981 Y80.624 E.02621
G1 X83.667 Y80.147 E.02619
G1 X84.42 Y79.704 E.02739
G1 X85.134 Y79.346 E.02507
G1 X85.907 Y79.026 E.02622
G1 X86.7 Y78.762 E.02621
G1 X87.51 Y78.555 E.02621
G1 X88.333 Y78.407 E.02622
G1 X89.164 Y78.318 E.02619
G1 X90.037 Y78.289 E.02739
G1 X90.836 Y78.317 E.02507
G1 X91.667 Y78.407 E.02621
G1 X92.49 Y78.555 E.02622
G1 X93.3 Y78.762 E.02621
G1 X94.093 Y79.026 E.02621
G1 X94.866 Y79.346 E.02622
G1 X95.612 Y79.72 E.02619
G1 X96.362 Y80.168 E.02739
G1 X97.019 Y80.624 E.02507
G1 X97.67 Y81.148 E.02621
G1 X98.282 Y81.718 E.02621
G1 X98.852 Y82.33 E.02622
G1 X99.376 Y82.981 E.02621
G1 X99.853 Y83.667 E.02619
G1 X100.296 Y84.42 E.02739
G1 X100.654 Y85.134 E.02507
G1 X100.974 Y85.907 E.02622
G1 X101.238 Y86.7 E.02621
G1 X101.445 Y87.51 E.02621
G1 X101.593 Y88.333 E.02622
G1 X101.683 Y89.164 E.02621
G1 X101.712 Y90 E.02622
G1 X101.683 Y90.836 E.02622
G1 X101.593 Y91.667 E.02621
G1 X101.445 Y92.49 E.02622
G1 X101.238 Y93.3 E.02621
G1 X100.974 Y94.093 E.02621
G1 X100.654 Y94.866 E.02622
G1 X100.28 Y95.613 E.02621
G1 X99.853 Y96.332 E.02622
G1 X99.376 Y97.019 E.02622
G1 X98.852 Y97.67 E.02621
G1 X98.282 Y98.282 E.02622
G1 X97.67 Y98.852 E.02622
G1 X97.019 Y99.376 E.02621
G1 X96.333 Y99.853 E.02619
G1 X95.58 Y100.296 E.02739
G1 X94.866 Y100.654 E.02507
G1 X94.093 Y100.974 E.02622
G1 X93.3 Y101.238 E.02621
G1 X92.49 Y101.445 E.02622
G1 X91.667 Y101.593 E.02621
G1 X90.836 Y101.683 E.02621
G1 X90 Y101.712 E.02622
G1 X89.164 Y101.683 E.02622
G1 X88.333 Y101.593 E.02621
G1 X87.51 Y101.445 E.02622
G1 X86.7 Y101.238 E.02621
G1 X85.907 Y100.974 E.02621
G1 X85.134 Y100.654 E.02622
G1 X84.387 Y100.28 E.02621
G1 X83.669 Y99.854 E.02619
G1 X82.953 Y99.353 E.02739
G1 X82.33 Y98.852 E.02507
G1 X81.719 Y98.283 E.02619
G1 X81.125 Y97.641 E.02739
G1 X80.624 Y97.019 E.02507
G1 X80.147 Y96.333 E.02619
G1 X79.704 Y95.58 E.02739
G1 X79.346 Y94.866 E.02507
G1 X79.026 Y94.093 E.02622
G1 X78.762 Y93.3 E.02621
G1 X78.555 Y92.49 E.02622
G1 X78.407 Y91.667 E.02621
G1 X78.317 Y90.836 E.02621
G1 X78.288 Y90 E.02622
G1 X78.317 Y89.164 E.02622
G1 X78.407 Y88.333 E.02621
G1 X78.555 Y87.51 E.02622
G1 X78.762 Y86.7 E.02621
G1 X79.026 Y85.907 E.02621
G1 X79.346 Y85.134 E.02622
G1 X79.72 Y84.387 E.02621
G1 X80.146 Y83.669 E.02619
G1 X80.647 Y82.953 E.02739
G1 X81.148 Y82.33 E.02507
G1 X81.677 Y81.762 E.02433
M204 P1000
G1 X81.451 Y81.451 F9000
M204 P800
;TYPE:External perimeter
G1 F1200
G1 X82.083 Y80.863 E.02706
G1 X82.755 Y80.322 E.02706
G1 X83.464 Y79.83 E.02705
G1 X84.239 Y79.372 E.02823
G1 X84.978 Y79.003 E.02589
G1 X85.775 Y78.673 E.02706
G1 X86.594 Y78.4 E.02706
G1 X87.43 Y78.187 E.02706
G1 X88.279 Y78.033 E.02706
G1 X89.137 Y77.941 E.02705
G1 X90.037 Y77.912 E.02823
G1 X90.862 Y77.941 E.02589
G1 X91.721 Y78.033 E.02706
G1 X92.57 Y78.187 E.02706
G1 X93.406 Y78.4 E.02706
G1 X94.225 Y78.673 E.02706
G1 X95.022 Y79.003 E.02706
G1 X95.794 Y79.389 E.02705
G1 X96.567 Y79.851 E.02823
G1 X97.245 Y80.322 E.02589
G1 X97.917 Y80.863 E.02706
G1 X98.549 Y81.451 E.02706
G1 X99.137 Y82.083 E.02706
G1 X99.678 Y82.755 E.02706
G1 X100.17 Y83.464 E.02705
G1 X100.628 Y84.239 E.02823
G1 X100.997 Y84.978 E.02589
G1 X101.327 Y85.775 E.02706
G1 X101.6 Y86.594 E.02706
G1 X101.813 Y87.43 E.02706
G1 X101.967 Y88.279 E.02706
G1 X102.059 Y89.138 E.02706
G1 X102.09 Y90 E.02706
G1 X102.059 Y90.862 E.02706
G1 X101.967 Y91.721 E.02706
G1 X101.813 Y92.57 E.02706
G1 X101.6 Y93.406 E.02706
M73 P2 R17
G1 X101.327 Y94.225 E.02706
G1 X100.997 Y95.022 E.02706
G1 X100.611 Y95.794 E.02706
G1 X100.171 Y96.536 E.02706
G1 X99.678 Y97.245 E.02706
G1 X99.137 Y97.917 E.02706
G1 X98.549 Y98.549 E.02706
G1 X97.917 Y99.137 E.02706
G1 X97.245 Y99.678 E.02706
G1 X96.536 Y100.17 E.02705
G1 X95.761 Y100.628 E.02823
G1 X95.022 Y100.997 E.02589
G1 X94.225 Y101.327 E.02706
G1 X93.406 Y101.6 E.02706
G1 X92.57 Y101.813 E.02706
G1 X91.721 Y101.967 E.02706
G1 X90.862 Y102.059 E.02706
G1 X90 Y102.09 E.02706
G1 X89.138 Y102.059 E.02706
G1 X88.279 Y101.967 E.02706
G1 X87.43 Y101.813 E.02706
G1 X86.594 Y101.6 E.02706
G1 X85.775 Y101.327 E.02706
G1 X84.978 Y100.997 E.02706
G1 X84.206 Y100.611 E.02706
G1 X83.464 Y100.171 E.02705
G1 X82.726 Y99.655 E.02823
G1 X82.083 Y99.137 E.02589
G1 X81.451 Y98.549 E.02705
G1 X80.84 Y97.888 E.02823
G1 X80.322 Y97.245 E.02589
G1 X79.83 Y96.536 E.02705
G1 X79.372 Y95.761 E.02823
G1 X79.003 Y95.022 E.02589
G1 X78.673 Y94.225 E.02706
G1 X78.4 Y93.406 E.02706
G1 X78.187 Y92.57 E.02706
G1 X78.033 Y91.721 E.02706
G1 X77.941 Y90.862 E.02706
G1 X77.91 Y90 E.02706
G1 X77.941 Y89.138 E.02706
G1 X78.033 Y88.279 E.02706
G1 X78.187 Y87.43 E.02706
G1 X78.4 Y86.594 E.02706
G1 X78.673 Y85.775 E.02706
G1 X79.003 Y84.978 E.02706
G1 X79.389 Y84.206 E.02706
G1 X79.829 Y83.464 E.02705
G1 X80.345 Y82.726 E.02823
G1 X80.863 Y82.083 E.02589
G1 X81.41 Y81.495 E.02518
M204 P1000
G1 X81.838 Y81.555 F9000
G1 E-2.24 F4200
;WIPE_START
G1 F7200
G1 X82.083 Y80.863 E-.51143
G1 X82.646 Y80.41 E-.40057
;WIPE_END
G1 E-.048 F4200
G1 Z.4 F720
G1 X96.703 Y80.542 F9000
G1 Z.2 F720
G1 E3.2 F2400
M204 P800
;TYPE:Solid infill
;WIDTH:0.42384
G1 F1200
G1 X98.117 Y81.956 E.06333
G1 X98.638 Y82.515 E.0242
G1 X99.15 Y83.151 E.02584
G1 X99.614 Y83.82 E.0258
G1 X99.862 Y84.239 E.01542
G1 X95.759 Y80.137 E.18375
G1 X95.476 Y79.968 E.01044
G1 X94.644 Y79.56 E.02936
G1 X100.44 Y85.356 E.25961
G1 X100.709 Y86.006 E.02228
G1 X100.788 Y86.243 E.00791
G1 X93.757 Y79.212 E.31491
G1 X92.978 Y78.972 E.02583
G1 X101.028 Y87.022 E.3606
G1 X101.197 Y87.729 E.02303
G1 X92.271 Y78.803 E.39984
G1 X91.614 Y78.686 E.02112
G1 X101.314 Y88.386 E.43449
G1 X101.379 Y88.989 E.01923
G1 X91.011 Y78.621 E.46444
G1 X90.438 Y78.586 E.01819
G1 X101.414 Y89.562 E.49166
G1 X101.425 Y90.113 E.01743
G1 X89.889 Y78.577 E.51674
G1 X89.368 Y78.594 E.01653
G1 X101.407 Y90.633 E.53927
G1 X101.366 Y91.131 E.01583
G1 X88.869 Y78.634 E.5598
G1 X88.383 Y78.686 E.0155
G1 X101.314 Y91.617 E.57925
G1 X101.232 Y92.074 E.0147
M73 P3 R17
G1 X87.926 Y78.768 E.59605
G1 X87.475 Y78.856 E.01454
G1 X101.144 Y92.525 E.61226
G1 X101.034 Y92.954 E.01403
G1 X87.046 Y78.966 E.62658
G1 X86.626 Y79.085 E.01382
G1 X100.915 Y93.374 E.64005
G1 X100.781 Y93.778 E.01349
G1 X86.222 Y79.219 E.65213
G1 X85.829 Y79.364 E.01328
G1 X100.636 Y94.171 E.66324
G1 X100.478 Y94.552 E.01306
G1 X85.448 Y79.522 E.67323
G1 X85.078 Y79.691 E.01288
G1 X100.309 Y94.922 E.68227
G1 X100.13 Y95.281 E.01272
G1 X84.719 Y79.87 E.69031
G1 X84.371 Y80.061 E.01257
G1 X99.94 Y95.631 E.69742
G1 X99.74 Y95.969 E.01245
M73 P4 R17
G1 X84.032 Y80.261 E.70362
G1 X83.701 Y80.468 E.01238
G1 X99.532 Y96.299 E.70912
G1 X99.311 Y96.617 E.01226
G1 X83.383 Y80.689 E.71348
G1 X83.07 Y80.915 E.01222
G1 X99.085 Y96.93 E.71736
G1 X98.844 Y97.228 E.01213
G1 X82.772 Y81.156 E.71995
G1 X82.476 Y81.399 E.01212
G1 X98.601 Y97.524 E.7223
G1 X98.342 Y97.803 E.01207
G1 X82.197 Y81.658 E.72316
G1 X81.918 Y81.918 E.01207
G1 X98.082 Y98.082 E.72402
G1 X97.803 Y98.342 E.01207
G1 X81.658 Y82.197 E.72316
G1 X81.399 Y82.476 E.01207
M73 P5 R17
G1 X97.524 Y98.601 E.7223
G1 X97.228 Y98.844 E.01212
G1 X81.156 Y82.772 E.71995
G1 X80.915 Y83.07 E.01213
G1 X96.93 Y99.085 E.71735
G1 X96.617 Y99.311 E.01222
G1 X80.69 Y83.384 E.71342
G1 X80.469 Y83.701 E.01225
G1 X96.299 Y99.532 E.70911
G1 X95.968 Y99.739 E.01238
G1 X80.26 Y84.031 E.70362
G1 X80.06 Y84.369 E.01245
G1 X95.629 Y99.939 E.69742
G1 X95.281 Y100.13 E.01257
G1 X79.87 Y84.719 E.69031
G1 X79.691 Y85.078 E.01272
G1 X94.922 Y100.309 E.68227
G1 X94.552 Y100.478 E.01288
G1 X79.522 Y85.448 E.67323
G1 X79.364 Y85.829 E.01306
M73 P6 R17
G1 X94.171 Y100.636 E.66324
G1 X93.778 Y100.781 E.01328
M73 P6 R16
G1 X79.219 Y86.222 E.65213
G1 X79.085 Y86.626 E.01349
G1 X93.374 Y100.915 E.64005
G1 X92.954 Y101.034 E.01382
G1 X78.966 Y87.046 E.62658
G1 X78.856 Y87.475 E.01403
G1 X92.525 Y101.144 E.61226
G1 X92.074 Y101.232 E.01454
G1 X78.768 Y87.926 E.59605
G1 X78.686 Y88.383 E.0147
G1 X91.617 Y101.314 E.57925
G1 X91.131 Y101.366 E.0155
G1 X78.634 Y88.869 E.5598
G1 X78.593 Y89.367 E.01583
G1 X90.633 Y101.407 E.53929
G1 X90.113 Y101.425 E.01648
G1 X78.575 Y89.887 E.51683
G1 X78.586 Y90.438 E.01743
G1 X89.562 Y101.414 E.49166
G1 X88.989 Y101.379 E.01819
M73 P7 R16
G1 X78.621 Y91.011 E.46444
G1 X78.686 Y91.614 E.01923
G1 X88.386 Y101.314 E.43449
G1 X87.729 Y101.197 E.02112
G1 X78.803 Y92.271 E.39984
G1 X78.972 Y92.978 E.02303
G1 X87.022 Y101.028 E.3606
G1 X86.243 Y100.788 E.02583
G1 X79.212 Y93.757 E.31491
G1 X79.291 Y93.994 E.00791
G1 X79.56 Y94.644 E.02228
G1 X85.356 Y100.44 E.2596
G1 X84.522 Y100.031 E.0294
G1 X84.243 Y99.866 E.01027
G1 X80.138 Y95.761 E.18388
G1 X80.386 Y96.18 E.01542
G1 X80.85 Y96.849 E.0258
G1 X81.339 Y97.456 E.02469
G1 X81.888 Y98.049 E.02556
G1 X83.29 Y99.451 E.06282
M204 P1000
; stop printing object Villian.stl id:0 copy 0
M106 S84.15
;LAYER_CHANGE
;Z:0.5
;HEIGHT:0.3
;BEFORE_LAYER_CHANGE
G92 E0.0
;0.5


G1 E-2.24 F4200
;WIPE_START
G1 F7200
G1 X82.126 Y98.287 E-.912
;WIPE_END
G1 E-.048 F4200
G1 Z.4 F720
G1 Z.5
;AFTER_LAYER_CHANGE
;0.5
; printing object Villian.stl id:0 copy 0
G1 X81.819 Y98.617 F9000
G1 E3.2 F2400
M204 P800
;TYPE:Perimeter
;WIDTH:0.45
G1 F3300
G1 X81.593 Y98.407 E.01486
G1 X81.015 Y97.786 E.04082
G1 X80.482 Y97.125 E.04082
G1 X79.998 Y96.428 E.04082
G1 X79.565 Y95.698 E.04082
G1 X79.185 Y94.939 E.04082
G1 X78.861 Y94.155 E.04082
G1 X78.593 Y93.35 E.04082
G1 X78.383 Y92.527 E.04082
G1 X78.232 Y91.692 E.04082
G1 X78.141 Y90.848 E.04082
G1 X78.111 Y90 E.04082
G1 X78.141 Y89.152 E.04082
G1 X78.232 Y88.308 E.04082
G1 X78.383 Y87.473 E.04082
G1 X78.593 Y86.65 E.04082
G1 X78.861 Y85.845 E.04082
G1 X79.185 Y85.061 E.04082
G1 X79.565 Y84.302 E.04082
G1 X79.998 Y83.572 E.04082
G1 X80.482 Y82.875 E.04082
G1 X81.015 Y82.214 E.04082
G1 X81.591 Y81.596 E.04066
G1 X82.333 Y80.919 E.04831
G1 X82.875 Y80.482 E.03347
G1 X83.572 Y79.998 E.04082
G1 X84.302 Y79.565 E.04082
G1 X85.061 Y79.185 E.04082
G1 X85.845 Y78.861 E.04082
G1 X86.65 Y78.593 E.04082
G1 X87.473 Y78.383 E.04082
G1 X88.308 Y78.232 E.04082
G1 X89.149 Y78.142 E.04066
G1 X90.153 Y78.116 E.04831
G1 X90.848 Y78.141 E.03346
G1 X91.692 Y78.232 E.04082
G1 X92.527 Y78.383 E.04082
G1 X93.35 Y78.593 E.04082
G1 X94.155 Y78.861 E.04082
G1 X94.939 Y79.185 E.04082
G1 X95.695 Y79.564 E.04066
G1 X96.553 Y80.086 E.04831
G1 X97.125 Y80.482 E.03347
G1 X97.786 Y81.015 E.04082
G1 X98.404 Y81.591 E.04066
G1 X99.081 Y82.333 E.04831
G1 X99.518 Y82.875 E.03346
G1 X100.002 Y83.572 E.04082
G1 X100.435 Y84.302 E.04082
G1 X100.815 Y85.061 E.04082
G1 X101.139 Y85.845 E.04082
G1 X101.407 Y86.65 E.04082
G1 X101.617 Y87.473 E.04082
G1 X101.768 Y88.308 E.04082
G1 X101.859 Y89.152 E.04082
G1 X101.889 Y90 E.04082
G1 X101.859 Y90.848 E.04082
G1 X101.768 Y91.692 E.04082
G1 X101.617 Y92.527 E.04082
G1 X101.407 Y93.35 E.04082
G1 X101.139 Y94.155 E.04082
G1 X100.815 Y94.939 E.04082
G1 X100.435 Y95.698 E.04082
G1 X100.002 Y96.428 E.04082
G1 X99.518 Y97.125 E.04082
G1 X98.985 Y97.786 E.04082
G1 X98.407 Y98.407 E.04082
G1 X97.786 Y98.985 E.04082
G1 X97.125 Y99.518 E.04082
G1 X96.428 Y100.002 E.04082
G1 X95.698 Y100.435 E.04082
G1 X94.939 Y100.815 E.04082
G1 X94.155 Y101.139 E.04082
G1 X93.35 Y101.407 E.04082
G1 X92.527 Y101.617 E.04082
G1 X91.692 Y101.768 E.04082
G1 X90.848 Y101.859 E.04082
G1 X90 Y101.889 E.04082
G1 X89.152 Y101.859 E.04082
G1 X88.308 Y101.768 E.04082
G1 X87.473 Y101.617 E.04082
G1 X86.65 Y101.407 E.04082
G1 X85.845 Y101.139 E.04082
G1 X85.061 Y100.815 E.04082
G1 X84.302 Y100.435 E.04082
G1 X83.572 Y100.002 E.04082
G1 X82.875 Y99.518 E.04082
G1 X82.214 Y98.985 E.04082
G1 X81.863 Y98.658 E.02307
M204 P1000
G1 X81.557 Y98.9 F9000
M204 P800
;TYPE:External perimeter
G1 F2400
G1 X81.32 Y98.68 E.01552
G1 X80.723 Y98.038 E.04215
G1 X80.173 Y97.356 E.04214
G1 X79.674 Y96.636 E.04214
G1 X79.227 Y95.883 E.04214
G1 X78.834 Y95.099 E.04214
G1 X78.499 Y94.29 E.04214
G1 X78.222 Y93.458 E.04214
G1 X78.006 Y92.609 E.04214
G1 X77.85 Y91.747 E.04214
G1 X77.756 Y90.876 E.04214
G1 X77.725 Y90 E.04214
G1 X77.756 Y89.124 E.04214
G1 X77.85 Y88.253 E.04214
G1 X78.006 Y87.391 E.04214
G1 X78.222 Y86.542 E.04214
G1 X78.499 Y85.71 E.04214
G1 X78.834 Y84.901 E.04214
G1 X79.227 Y84.117 E.04214
G1 X79.674 Y83.364 E.04214
G1 X80.173 Y82.644 E.04214
G1 X80.723 Y81.962 E.04214
G1 X81.32 Y81.321 E.04209
G1 X82.082 Y80.626 E.04964
G1 X82.644 Y80.173 E.03469
G1 X83.364 Y79.674 E.04214
G1 X84.117 Y79.227 E.04214
G1 X84.901 Y78.834 E.04214
G1 X85.71 Y78.499 E.04214
G1 X86.542 Y78.222 E.04214
G1 X87.391 Y78.006 E.04214
G1 X88.253 Y77.85 E.04214
G1 X89.123 Y77.757 E.04209
G1 X90.155 Y77.731 E.04964
G1 X90.876 Y77.756 E.03469
G1 X91.747 Y77.85 E.04214
G1 X92.609 Y78.006 E.04214
G1 X93.458 Y78.222 E.04214
G1 X94.29 Y78.499 E.04214
G1 X95.099 Y78.834 E.04214
G1 X95.882 Y79.226 E.04209
G1 X96.764 Y79.762 E.04964
G1 X97.356 Y80.173 E.03469
G1 X98.038 Y80.723 E.04214
G1 X98.679 Y81.32 E.04209
G1 X99.374 Y82.082 E.04964
G1 X99.827 Y82.644 E.03469
G1 X100.326 Y83.364 E.04214
G1 X100.773 Y84.117 E.04214
G1 X101.166 Y84.901 E.04214
G1 X101.501 Y85.71 E.04214
G1 X101.778 Y86.542 E.04214
G1 X101.994 Y87.391 E.04214
G1 X102.15 Y88.253 E.04214
G1 X102.244 Y89.124 E.04214
G1 X102.275 Y90 E.04214
G1 X102.244 Y90.876 E.04214
G1 X102.15 Y91.747 E.04214
G1 X101.994 Y92.609 E.04214
G1 X101.778 Y93.458 E.04214
G1 X101.501 Y94.29 E.04214
G1 X101.166 Y95.099 E.04214
G1 X100.773 Y95.883 E.04214
G1 X100.326 Y96.636 E.04214
G1 X99.827 Y97.356 E.04215
G1 X99.277 Y98.038 E.04214
G1 X98.68 Y98.68 E.04214
G1 X98.038 Y99.277 E.04214
G1 X97.356 Y99.827 E.04214
G1 X96.636 Y100.326 E.04214
G1 X95.883 Y100.773 E.04214
G1 X95.099 Y101.166 E.04214
G1 X94.29 Y101.501 E.04214
G1 X93.458 Y101.778 E.04214
G1 X92.609 Y101.994 E.04214
G1 X91.747 Y102.15 E.04214
G1 X90.876 Y102.244 E.04214
G1 X90 Y102.275 E.04214
G1 X89.124 Y102.244 E.04214
G1 X88.253 Y102.15 E.04214
G1 X87.391 Y101.994 E.04214
G1 X86.542 Y101.778 E.04214
G1 X85.71 Y101.501 E.04214
G1 X84.901 Y101.166 E.04214
G1 X84.117 Y100.773 E.04214
G1 X83.364 Y100.326 E.04214
G1 X82.644 Y99.827 E.04214
G1 X81.962 Y99.277 E.04214
G1 X81.6 Y98.94 E.02374
M204 P1000
G1 X81.624 Y98.584 F9000
G1 E-2.24 F4200
;WIPE_START
G1 F7200
G1 X81.32 Y98.68 E-.21208
G1 X80.723 Y98.038 E-.4856
G1 X80.481 Y97.737 E-.21432
;WIPE_END
G1 E-.048 F4200
G1 Z.7 F720
G1 X96.804 Y99.599 F9000
G1 Z.5 F720
G1 E3.2 F2400
;TYPE:Solid infill
;WIDTH:0.451018
